loleis/其他/lut20种/Sports LUT #8.cube
TITLE "Sports LUT #8"
#LUT size
LUT_3D_SIZE 25
#LUT data points
0.000000 0.000000 0.007843
0.023529 0.000000 0.000000
0.054902 0.011765 0.003922
0.094118 0.019608 0.003922
0.137255 0.027451 0.011765
0.176471 0.047059 0.011765
0.211765 0.062745 0.019608
0.247059 0.066667 0.015686
0.282353 0.082353 0.015686
0.325490 0.094118 0.023529
0.368627 0.113725 0.027451
0.407843 0.125490 0.027451
0.454902 0.145098 0.027451
0.501961 0.164706 0.035294
0.564706 0.184314 0.047059
0.611765 0.203922 0.050980
0.662745 0.219608 0.054902
0.713725 0.239216 0.062745
0.764706 0.262745 0.078431
0.807843 0.278431 0.090196
0.850980 0.294118 0.105882
0.901961 0.313725 0.117647
0.945098 0.333333 0.133333
0.984314 0.349020 0.156863
0.996078 0.368627 0.172549
0.000000 0.035294 0.000000
0.031373 0.043137 0.015686
0.058824 0.043137 0.000000
0.090196 0.054902 0.019608
0.133333 0.054902 0.011765
0.176471 0.074510 0.023529
0.211765 0.078431 0.031373
0.239216 0.090196 0.015686
0.286275 0.101961 0.023529
0.333333 0.121569 0.027451
0.372549 0.133333 0.023529
0.411765 0.141176 0.027451
0.450980 0.156863 0.031373
0.505882 0.176471 0.035294
0.556863 0.196078 0.050980
0.607843 0.219608 0.054902
0.658824 0.231373 0.062745
0.713725 0.250980 0.070588
0.764706 0.270588 0.074510
0.811765 0.282353 0.094118
0.858824 0.301961 0.105882
0.901961 0.325490 0.121569
0.945098 0.333333 0.133333
0.984314 0.360784 0.145098
1.000000 0.376471 0.188235
0.007843 0.074510 0.011765
0.027451 0.078431 0.007843
0.070588 0.082353 0.015686
0.098039 0.090196 0.007843
0.137255 0.094118 0.007843
0.184314 0.094118 0.023529
0.211765 0.109804 0.019608
0.258824 0.117647 0.023529
0.301961 0.129412 0.023529
0.333333 0.141176 0.023529
0.368627 0.145098 0.027451
0.415686 0.164706 0.027451
0.458824 0.172549 0.035294
0.505882 0.192157 0.047059
0.552941 0.207843 0.050980
0.603922 0.231373 0.058824
0.654902 0.243137 0.058824
0.709804 0.258824 0.074510
0.764706 0.278431 0.078431
0.811765 0.298039 0.094118
0.858824 0.309804 0.101961
0.901961 0.325490 0.121569
0.933333 0.349020 0.129412
0.976471 0.364706 0.164706
1.000000 0.380392 0.192157
0.015686 0.117647 0.003922
0.047059 0.125490 0.019608
0.066667 0.125490 0.011765
0.113725 0.129412 0.023529
0.149020 0.121569 0.019608
0.192157 0.137255 0.023529
0.223529 0.141176 0.019608
0.262745 0.149020 0.023529
0.298039 0.156863 0.023529
0.341176 0.168627 0.031373
0.372549 0.176471 0.031373
0.415686 0.188235 0.043137
0.458824 0.203922 0.054902
0.505882 0.211765 0.047059
0.560784 0.231373 0.058824
0.607843 0.243137 0.070588
0.658824 0.258824 0.070588
0.713725 0.282353 0.082353
0.756863 0.298039 0.086275
0.800000 0.309804 0.090196
0.847059 0.325490 0.105882
0.886275 0.341176 0.117647
0.941176 0.352941 0.145098
0.968627 0.376471 0.152941
0.996078 0.392157 0.180392
0.007843 0.164706 0.019608
0.043137 0.168627 0.023529
0.074510 0.172549 0.015686
0.125490 0.172549 0.031373
0.152941 0.172549 0.015686
0.196078 0.180392 0.031373
0.227451 0.180392 0.031373
0.262745 0.188235 0.031373
0.301961 0.192157 0.039216
0.341176 0.203922 0.047059
0.376471 0.207843 0.043137
0.419608 0.211765 0.054902
0.470588 0.231373 0.047059
0.509804 0.243137 0.058824
0.560784 0.254902 0.066667
0.611765 0.274510 0.074510
0.658824 0.282353 0.082353
0.709804 0.301961 0.086275
0.756863 0.313725 0.094118
0.811765 0.329412 0.105882
0.847059 0.341176 0.113725
0.890196 0.360784 0.133333
0.937255 0.376471 0.149020
0.972549 0.388235 0.160784
0.996078 0.403922 0.180392
0.023529 0.219608 0.019608
0.050980 0.215686 0.027451
0.086275 0.219608 0.023529
0.125490 0.219608 0.031373
0.164706 0.219608 0.027451
0.200000 0.223529 0.035294
0.243137 0.227451 0.039216
0.278431 0.231373 0.043137
0.317647 0.239216 0.043137
0.352941 0.243137 0.054902
0.400000 0.250980 0.058824
0.443137 0.262745 0.066667
0.490196 0.270588 0.070588
0.541176 0.286275 0.074510
0.584314 0.298039 0.082353
0.635294 0.313725 0.094118
0.690196 0.325490 0.094118
0.729412 0.337255 0.101961
0.776471 0.345098 0.098039
0.815686 0.364706 0.109804
0.866667 0.376471 0.125490
0.909804 0.392157 0.141176
0.945098 0.403922 0.156863
0.984314 0.411765 0.176471
1.000000 0.427451 0.215686
0.023529 0.262745 0.027451
0.066667 0.254902 0.019608
0.094118 0.262745 0.043137
0.137255 0.250980 0.031373
0.172549 0.266667 0.039216
0.196078 0.266667 0.039216
0.243137 0.274510 0.039216
0.286275 0.278431 0.047059
0.325490 0.278431 0.050980
0.364706 0.282353 0.058824
0.403922 0.290196 0.070588
0.447059 0.301961 0.086275
0.494118 0.317647 0.094118
0.537255 0.325490 0.090196
0.584314 0.333333 0.094118
0.639216 0.341176 0.098039
0.682353 0.352941 0.101961
0.733333 0.368627 0.105882
0.780392 0.384314 0.109804
0.827451 0.392157 0.113725
0.866667 0.407843 0.133333
0.905882 0.415686 0.152941
0.952941 0.431373 0.176471
0.996078 0.439216 0.196078
1.000000 0.450980 0.207843
0.039216 0.301961 0.039216
0.070588 0.301961 0.043137
0.098039 0.301961 0.043137
0.145098 0.309804 0.050980
0.172549 0.309804 0.050980
0.211765 0.309804 0.043137
0.254902 0.313725 0.050980
0.301961 0.321569 0.062745
0.341176 0.329412 0.066667
0.376471 0.333333 0.074510
0.415686 0.333333 0.078431
0.458824 0.345098 0.086275
0.505882 0.352941 0.098039
0.549020 0.360784 0.109804
0.603922 0.372549 0.113725
0.647059 0.384314 0.117647
0.694118 0.392157 0.117647
0.729412 0.400000 0.117647
0.780392 0.411765 0.129412
0.815686 0.423529 0.129412
0.862745 0.439216 0.152941
0.905882 0.447059 0.172549
0.949020 0.450980 0.172549
0.988235 0.466667 0.211765
1.000000 0.482353 0.219608
0.050980 0.349020 0.058824
0.074510 0.352941 0.039216
0.125490 0.352941 0.054902
0.133333 0.356863 0.054902
0.184314 0.368627 0.054902
0.219608 0.364706 0.062745
0.262745 0.364706 0.074510
0.301961 0.372549 0.074510
0.341176 0.372549 0.078431
0.388235 0.372549 0.082353
0.431373 0.376471 0.082353
0.470588 0.384314 0.086275
0.517647 0.392157 0.098039
0.560784 0.407843 0.105882
0.600000 0.411765 0.113725
0.647059 0.423529 0.121569
0.694118 0.427451 0.133333
0.741176 0.435294 0.141176
0.780392 0.443137 0.141176
0.827451 0.450980 0.149020
0.870588 0.454902 0.156863
0.901961 0.470588 0.176471
0.941176 0.478431 0.188235
0.976471 0.490196 0.215686
1.000000 0.505882 0.235294
0.070588 0.400000 0.066667
0.094118 0.407843 0.058824
0.121569 0.403922 0.066667
0.149020 0.407843 0.062745
0.196078 0.407843 0.062745
0.235294 0.415686 0.070588
0.274510 0.415686 0.070588
0.309804 0.419608 0.078431
0.356863 0.415686 0.082353
0.392157 0.423529 0.086275
0.435294 0.427451 0.086275
0.478431 0.431373 0.094118
0.525490 0.439216 0.101961
0.568627 0.443137 0.109804
0.615686 0.458824 0.125490
0.654902 0.454902 0.129412
0.694118 0.466667 0.137255
0.729412 0.470588 0.141176
0.780392 0.482353 0.152941
0.823529 0.490196 0.164706
0.866667 0.494118 0.172549
0.901961 0.505882 0.192157
0.945098 0.513725 0.203922
0.980392 0.525490 0.223529
0.996078 0.533333 0.243137
0.094118 0.478431 0.074510
0.105882 0.478431 0.070588
0.141176 0.482353 0.074510
0.176471 0.482353 0.082353
0.215686 0.482353 0.086275
0.243137 0.482353 0.078431
0.286275 0.486275 0.090196
0.333333 0.490196 0.101961
0.380392 0.490196 0.098039
0.423529 0.494118 0.105882
0.466667 0.498039 0.109804
0.509804 0.501961 0.105882
0.556863 0.505882 0.105882
0.603922 0.513725 0.113725
0.643137 0.509804 0.125490
0.686275 0.517647 0.149020
0.721569 0.521569 0.164706
0.760784 0.529412 0.176471
0.803922 0.529412 0.184314
0.839216 0.533333 0.200000
0.878431 0.541176 0.207843
0.913725 0.541176 0.211765
0.952941 0.556863 0.235294
0.992157 0.572549 0.266667
1.000000 0.572549 0.290196
0.098039 0.521569 0.086275
0.113725 0.517647 0.090196
0.145098 0.525490 0.082353
0.188235 0.529412 0.078431
0.211765 0.537255 0.090196
0.254902 0.525490 0.098039
0.294118 0.541176 0.094118
0.341176 0.529412 0.090196
0.384314 0.533333 0.098039
0.431373 0.541176 0.105882
0.478431 0.549020 0.117647
0.517647 0.549020 0.121569
0.564706 0.549020 0.125490
0.607843 0.556863 0.117647
0.658824 0.556863 0.125490
0.698039 0.556863 0.125490
0.733333 0.556863 0.152941
0.772549 0.560784 0.176471
0.811765 0.564706 0.192157
0.847059 0.568627 0.207843
0.882353 0.580392 0.219608
0.917647 0.588235 0.235294
0.952941 0.592157 0.250980
0.992157 0.603922 0.278431
0.988235 0.615686 0.301961
0.125490 0.580392 0.082353
0.133333 0.568627 0.098039
0.164706 0.584314 0.078431
0.188235 0.588235 0.098039
0.235294 0.580392 0.098039
0.258824 0.588235 0.101961
0.309804 0.584314 0.098039
0.349020 0.592157 0.109804
0.388235 0.592157 0.105882
0.431373 0.596078 0.109804
0.474510 0.592157 0.113725
0.521569 0.600000 0.125490
0.568627 0.600000 0.125490
0.611765 0.603922 0.137255
0.658824 0.600000 0.133333
0.698039 0.600000 0.137255
0.733333 0.603922 0.152941
0.776471 0.611765 0.180392
0.811765 0.603922 0.196078
0.843137 0.611765 0.219608
0.882353 0.611765 0.239216
0.917647 0.615686 0.254902
0.956863 0.619608 0.286275
0.992157 0.643137 0.290196
1.000000 0.643137 0.333333
0.125490 0.627451 0.090196
0.156863 0.627451 0.105882
0.172549 0.627451 0.105882
0.207843 0.631373 0.094118
0.235294 0.635294 0.094118
0.270588 0.639216 0.105882
0.309804 0.635294 0.109804
0.349020 0.635294 0.113725
0.392157 0.639216 0.117647
0.443137 0.639216 0.125490
0.486275 0.643137 0.125490
0.533333 0.639216 0.133333
0.576471 0.643137 0.133333
0.611765 0.647059 0.149020
0.658824 0.643137 0.152941
0.705882 0.643137 0.164706
0.745098 0.643137 0.168627
0.784314 0.639216 0.180392
0.811765 0.643137 0.200000
0.847059 0.647059 0.227451
0.874510 0.650980 0.239216
0.917647 0.650980 0.270588
0.964706 0.650980 0.301961
0.984314 0.666667 0.317647
0.996078 0.674510 0.345098
0.149020 0.670588 0.117647
0.168627 0.674510 0.117647
0.184314 0.678431 0.105882
0.227451 0.674510 0.129412
0.239216 0.682353 0.125490
0.278431 0.682353 0.129412
0.317647 0.682353 0.129412
0.360784 0.686275 0.137255
0.400000 0.678431 0.137255
0.443137 0.682353 0.137255
0.494118 0.682353 0.141176
0.537255 0.686275 0.149020
0.576471 0.686275 0.152941
0.619608 0.690196 0.164706
0.658824 0.682353 0.156863
0.709804 0.694118 0.172549
0.752941 0.682353 0.180392
0.788235 0.686275 0.203922
0.815686 0.678431 0.207843
0.847059 0.678431 0.227451
0.890196 0.682353 0.266667
0.917647 0.686275 0.286275
0.956863 0.686275 0.313725
0.988235 0.698039 0.349020
1.000000 0.705882 0.376471
0.203922 0.745098 0.168627
0.219608 0.745098 0.168627
0.235294 0.745098 0.164706
0.247059 0.745098 0.160784
0.278431 0.741176 0.160784
0.301961 0.741176 0.164706
0.345098 0.745098 0.172549
0.384314 0.745098 0.176471
0.423529 0.745098 0.168627
0.462745 0.745098 0.180392
0.513725 0.745098 0.188235
0.549020 0.741176 0.180392
0.596078 0.741176 0.192157
0.647059 0.741176 0.200000
0.682353 0.737255 0.200000
0.717647 0.741176 0.215686
0.768627 0.741176 0.231373
0.807843 0.737255 0.235294
0.831373 0.733333 0.239216
0.866667 0.729412 0.258824
0.909804 0.733333 0.282353
0.933333 0.729412 0.301961
0.968627 0.737255 0.345098
1.000000 0.733333 0.376471
0.996078 0.752941 0.419608
0.207843 0.776471 0.176471
0.231373 0.768627 0.188235
0.250980 0.780392 0.184314
0.262745 0.772549 0.184314
0.286275 0.776471 0.180392
0.337255 0.776471 0.200000
0.352941 0.776471 0.196078
0.396078 0.780392 0.203922
0.431373 0.776471 0.196078
0.470588 0.776471 0.196078
0.505882 0.780392 0.200000
0.549020 0.772549 0.211765
0.592157 0.776471 0.219608
0.643137 0.776471 0.231373
0.682353 0.776471 0.235294
0.721569 0.776471 0.247059
0.756863 0.780392 0.254902
0.796078 0.776471 0.266667
0.835294 0.776471 0.278431
0.870588 0.768627 0.286275
0.905882 0.768627 0.313725
0.937255 0.768627 0.329412
0.976471 0.768627 0.360784
0.996078 0.776471 0.411765
1.000000 0.792157 0.447059
0.243137 0.803922 0.200000
0.262745 0.811765 0.219608
0.274510 0.811765 0.215686
0.290196 0.811765 0.207843
0.317647 0.815686 0.223529
0.349020 0.811765 0.231373
0.380392 0.811765 0.235294
0.407843 0.807843 0.235294
0.443137 0.811765 0.231373
0.482353 0.811765 0.235294
0.521569 0.807843 0.247059
0.556863 0.811765 0.254902
0.596078 0.807843 0.258824
0.635294 0.807843 0.262745
0.682353 0.815686 0.274510
0.713725 0.807843 0.266667
0.756863 0.811765 0.274510
0.792157 0.803922 0.290196
0.839216 0.807843 0.317647
0.866667 0.803922 0.325490
0.905882 0.807843 0.341176
0.929412 0.800000 0.349020
0.968627 0.807843 0.384314
0.996078 0.800000 0.427451
1.000000 0.815686 0.470588
0.286275 0.847059 0.258824
0.298039 0.839216 0.258824
0.305882 0.843137 0.254902
0.313725 0.850980 0.262745
0.349020 0.843137 0.270588
0.372549 0.843137 0.266667
0.403922 0.843137 0.270588
0.439216 0.843137 0.278431
0.462745 0.847059 0.278431
0.498039 0.847059 0.282353
0.525490 0.847059 0.282353
0.556863 0.843137 0.282353
0.600000 0.847059 0.298039
0.639216 0.843137 0.305882
0.678431 0.843137 0.309804
0.717647 0.843137 0.313725
0.760784 0.843137 0.329412
0.800000 0.835294 0.329412
0.835294 0.839216 0.341176
0.874510 0.843137 0.356863
0.909804 0.835294 0.364706
0.929412 0.839216 0.400000
0.960784 0.831373 0.419608
0.992157 0.839216 0.443137
1.000000 0.839216 0.478431
0.337255 0.870588 0.298039
0.333333 0.874510 0.298039
0.345098 0.882353 0.301961
0.356863 0.878431 0.309804
0.380392 0.878431 0.317647
0.403922 0.882353 0.321569
0.427451 0.878431 0.317647
0.454902 0.882353 0.321569
0.482353 0.878431 0.329412
0.513725 0.882353 0.333333
0.541176 0.882353 0.337255
0.576471 0.878431 0.337255
0.611765 0.878431 0.349020
0.647059 0.870588 0.349020
0.678431 0.874510 0.360784
0.717647 0.870588 0.364706
0.756863 0.870588 0.376471
0.792157 0.870588 0.388235
0.831373 0.874510 0.403922
0.866667 0.882353 0.411765
0.909804 0.874510 0.415686
0.937255 0.874510 0.431373
0.964706 0.866667 0.462745
0.992157 0.874510 0.498039
1.000000 0.870588 0.521569
0.423529 0.921569 0.400000
0.427451 0.921569 0.400000
0.435294 0.921569 0.396078
0.443137 0.921569 0.396078
0.458824 0.917647 0.400000
0.470588 0.925490 0.403922
0.490196 0.921569 0.400000
0.521569 0.917647 0.407843
0.529412 0.917647 0.411765
0.560784 0.917647 0.411765
0.584314 0.917647 0.411765
0.607843 0.917647 0.419608
0.643137 0.917647 0.431373
0.678431 0.921569 0.439216
0.701961 0.913725 0.435294
0.741176 0.913725 0.431373
0.776471 0.913725 0.443137
0.807843 0.913725 0.454902
0.843137 0.909804 0.470588
0.878431 0.909804 0.482353
0.913725 0.909804 0.494118
0.937255 0.909804 0.501961
0.964706 0.909804 0.521569
1.000000 0.909804 0.545098
1.000000 0.905882 0.584314
0.454902 0.941176 0.431373
0.466667 0.941176 0.435294
0.474510 0.941176 0.447059
0.482353 0.949020 0.447059
0.509804 0.949020 0.454902
0.505882 0.937255 0.447059
0.529412 0.945098 0.466667
0.541176 0.949020 0.474510
0.568627 0.945098 0.462745
0.596078 0.949020 0.466667
0.615686 0.945098 0.470588
0.639216 0.945098 0.478431
0.666667 0.941176 0.486275
0.694118 0.941176 0.490196
0.729412 0.941176 0.494118
0.752941 0.941176 0.509804
0.792157 0.941176 0.513725
0.823529 0.937255 0.513725
0.850980 0.941176 0.525490
0.890196 0.937255 0.537255
0.917647 0.941176 0.556863
0.941176 0.941176 0.564706
0.972549 0.937255 0.572549
1.000000 0.929412 0.592157
1.000000 0.933333 0.611765
0.517647 0.968627 0.501961
0.529412 0.960784 0.509804
0.529412 0.972549 0.525490
0.545098 0.972549 0.521569
0.545098 0.972549 0.513725
0.560784 0.968627 0.517647
0.564706 0.972549 0.521569
0.592157 0.972549 0.529412
0.615686 0.968627 0.525490
0.627451 0.968627 0.525490
0.643137 0.964706 0.529412
0.666667 0.964706 0.537255
0.694118 0.964706 0.537255
0.721569 0.964706 0.545098
0.741176 0.964706 0.560784
0.776471 0.964706 0.564706
0.803922 0.964706 0.564706
0.839216 0.964706 0.576471
0.862745 0.956863 0.588235
0.894118 0.960784 0.600000
0.917647 0.956863 0.607843
0.949020 0.960784 0.619608
0.976471 0.960784 0.619608
0.996078 0.964706 0.639216
1.000000 0.964706 0.654902
0.584314 0.988235 0.568627
0.584314 0.984314 0.556863
0.596078 0.992157 0.576471
0.603922 0.992157 0.576471
0.603922 0.992157 0.568627
0.611765 0.992157 0.580392
0.631373 0.988235 0.584314
0.643137 0.984314 0.576471
0.654902 0.988235 0.584314
0.674510 0.992157 0.592157
0.686275 0.992157 0.596078
0.705882 0.988235 0.600000
0.729412 0.988235 0.603922
0.749020 0.984314 0.607843
0.776471 0.988235 0.619608
0.800000 0.984314 0.623529
0.823529 0.980392 0.631373
0.847059 0.980392 0.639216
0.866667 0.976471 0.635294
0.898039 0.984314 0.650980
0.925490 0.976471 0.654902
0.964706 0.984314 0.662745
0.980392 0.984314 0.670588
0.980392 0.980392 0.690196
1.000000 0.980392 0.713725
0.635294 1.000000 0.635294
0.662745 0.996078 0.631373
0.654902 0.992157 0.643137
0.662745 1.000000 0.650980
0.658824 1.000000 0.631373
0.682353 1.000000 0.639216
0.686275 0.996078 0.635294
0.690196 1.000000 0.643137
0.701961 1.000000 0.647059
0.713725 1.000000 0.662745
0.725490 1.000000 0.654902
0.756863 1.000000 0.662745
0.768627 1.000000 0.658824
0.792157 0.996078 0.662745
0.811765 1.000000 0.670588
0.831373 1.000000 0.686275
0.854902 1.000000 0.694118
0.874510 1.000000 0.701961
0.898039 1.000000 0.701961
0.925490 0.996078 0.705882
0.949020 1.000000 0.725490
0.964706 1.000000 0.733333
0.988235 0.996078 0.741176
1.000000 0.996078 0.756863
1.000000 1.000000 0.764706
0.003922 0.007843 0.027451
0.023529 0.003922 0.027451
0.054902 0.007843 0.023529
0.090196 0.011765 0.019608
0.133333 0.019608 0.027451
0.168627 0.047059 0.035294
0.207843 0.062745 0.039216
0.247059 0.070588 0.047059
0.290196 0.086275 0.043137
0.329412 0.101961 0.054902
0.376471 0.121569 0.050980
0.415686 0.137255 0.058824
0.454902 0.149020 0.062745
0.501961 0.164706 0.066667
0.556863 0.184314 0.066667
0.611765 0.200000 0.082353
0.658824 0.227451 0.090196
0.709804 0.239216 0.094118
0.760784 0.262745 0.101961
0.811765 0.282353 0.105882
0.854902 0.298039 0.117647
0.890196 0.309804 0.121569
0.937255 0.329412 0.141176
0.984314 0.345098 0.176471
1.000000 0.368627 0.176471
0.000000 0.035294 0.031373
0.039216 0.035294 0.027451
0.058824 0.043137 0.031373
0.094118 0.050980 0.043137
0.133333 0.058824 0.031373
0.172549 0.074510 0.054902
0.211765 0.086275 0.043137
0.247059 0.101961 0.039216
0.286275 0.105882 0.043137
0.329412 0.121569 0.050980
0.364706 0.137255 0.058824
0.407843 0.149020 0.062745
0.454902 0.164706 0.066667
0.501961 0.184314 0.070588
0.556863 0.200000 0.078431
0.611765 0.219608 0.086275
0.662745 0.231373 0.086275
0.713725 0.250980 0.094118
0.764706 0.274510 0.101961
0.803922 0.282353 0.105882
0.854902 0.301961 0.121569
0.898039 0.325490 0.141176
0.945098 0.337255 0.149020
0.976471 0.356863 0.168627
0.996078 0.380392 0.180392
0.007843 0.074510 0.035294
0.035294 0.074510 0.039216
0.070588 0.086275 0.031373
0.105882 0.078431 0.039216
0.145098 0.090196 0.039216
0.184314 0.098039 0.043137
0.219608 0.113725 0.047059
0.258824 0.117647 0.054902
0.298039 0.129412 0.054902
0.329412 0.141176 0.050980
0.372549 0.152941 0.054902
0.407843 0.168627 0.058824
0.458824 0.180392 0.062745
0.501961 0.192157 0.074510
0.552941 0.215686 0.078431
0.607843 0.231373 0.082353
0.654902 0.250980 0.090196
0.701961 0.258824 0.086275
0.756863 0.282353 0.105882
0.800000 0.298039 0.105882
0.850980 0.317647 0.121569
0.894118 0.329412 0.133333
0.937255 0.341176 0.145098
0.976471 0.360784 0.160784
1.000000 0.376471 0.172549
0.003922 0.117647 0.039216
0.047059 0.121569 0.043137
0.074510 0.125490 0.047059
0.117647 0.125490 0.039216
0.152941 0.133333 0.054902
0.184314 0.137255 0.050980
0.223529 0.145098 0.050980
0.258824 0.149020 0.054902
0.294118 0.160784 0.054902
0.341176 0.168627 0.062745
0.372549 0.180392 0.062745
0.419608 0.188235 0.070588
0.462745 0.200000 0.086275
0.513725 0.223529 0.078431
0.556863 0.235294 0.086275
0.607843 0.247059 0.086275
0.650980 0.266667 0.090196
0.705882 0.282353 0.098039
0.749020 0.294118 0.101961
0.800000 0.313725 0.113725
0.847059 0.317647 0.129412
0.901961 0.337255 0.141176
0.929412 0.352941 0.152941
0.980392 0.368627 0.176471
1.000000 0.392157 0.192157
0.007843 0.168627 0.050980
0.035294 0.164706 0.043137
0.086275 0.168627 0.047059
0.113725 0.164706 0.047059
0.160784 0.172549 0.058824
0.200000 0.180392 0.062745
0.235294 0.184314 0.058824
0.262745 0.188235 0.062745
0.298039 0.196078 0.066667
0.341176 0.207843 0.070588
0.380392 0.211765 0.074510
0.423529 0.215686 0.082353
0.466667 0.235294 0.078431
0.509804 0.243137 0.090196
0.552941 0.258824 0.094118
0.607843 0.278431 0.098039
0.654902 0.282353 0.094118
0.709804 0.301961 0.101961
0.760784 0.313725 0.109804
0.811765 0.325490 0.121569
0.850980 0.337255 0.133333
0.894118 0.356863 0.145098
0.941176 0.372549 0.156863
0.976471 0.392157 0.172549
0.996078 0.403922 0.188235
0.023529 0.211765 0.047059
0.050980 0.211765 0.047059
0.090196 0.215686 0.054902
0.129412 0.219608 0.054902
0.168627 0.219608 0.050980
0.203922 0.223529 0.062745
0.239216 0.227451 0.058824
0.282353 0.231373 0.058824
0.313725 0.239216 0.074510
0.356863 0.243137 0.086275
0.396078 0.250980 0.086275
0.435294 0.258824 0.094118
0.486275 0.274510 0.101961
0.533333 0.290196 0.098039
0.580392 0.301961 0.098039
0.631373 0.313725 0.105882
0.682353 0.325490 0.117647
0.729412 0.333333 0.121569
0.772549 0.345098 0.121569
0.815686 0.360784 0.137255
0.862745 0.372549 0.145098
0.905882 0.384314 0.152941
0.945098 0.400000 0.168627
0.984314 0.419608 0.184314
1.000000 0.431373 0.219608
0.027451 0.247059 0.054902
0.058824 0.266667 0.062745
0.094118 0.262745 0.054902
0.129412 0.262745 0.062745
0.168627 0.262745 0.066667
0.207843 0.262745 0.054902
0.254902 0.270588 0.070588
0.294118 0.270588 0.066667
0.325490 0.274510 0.070588
0.368627 0.282353 0.086275
0.407843 0.290196 0.094118
0.450980 0.305882 0.101961
0.494118 0.309804 0.105882
0.537255 0.321569 0.101961
0.584314 0.329412 0.109804
0.639216 0.349020 0.109804
0.678431 0.360784 0.113725
0.729412 0.368627 0.121569
0.772549 0.384314 0.129412
0.819608 0.392157 0.137255
0.862745 0.400000 0.149020
0.905882 0.415686 0.164706
0.949020 0.423529 0.176471
0.984314 0.443137 0.200000
1.000000 0.450980 0.219608
0.043137 0.301961 0.062745
0.070588 0.305882 0.070588
0.109804 0.298039 0.070588
0.133333 0.305882 0.066667
0.176471 0.309804 0.070588
0.203922 0.313725 0.074510
0.254902 0.309804 0.078431
0.298039 0.321569 0.086275
0.341176 0.325490 0.086275
0.376471 0.329412 0.094118
0.411765 0.333333 0.101961
0.458824 0.341176 0.105882
0.501961 0.352941 0.109804
0.552941 0.360784 0.129412
0.596078 0.368627 0.121569
0.639216 0.384314 0.133333
0.686275 0.392157 0.129412
0.729412 0.403922 0.137255
0.772549 0.407843 0.137255
0.819608 0.423529 0.149020
0.854902 0.431373 0.149020
0.901961 0.443137 0.172549
0.937255 0.450980 0.200000
0.968627 0.470588 0.207843
1.000000 0.482353 0.227451
0.050980 0.345098 0.082353
0.094118 0.352941 0.074510
0.113725 0.349020 0.074510
0.133333 0.360784 0.070588
0.180392 0.356863 0.086275
0.219608 0.360784 0.086275
0.262745 0.364706 0.086275
0.298039 0.364706 0.090196
0.341176 0.368627 0.094118
0.384314 0.372549 0.094118
0.427451 0.380392 0.098039
0.462745 0.384314 0.098039
0.505882 0.388235 0.105882
0.556863 0.400000 0.117647
0.603922 0.407843 0.129412
0.647059 0.415686 0.141176
0.690196 0.427451 0.149020
0.733333 0.431373 0.149020
0.768627 0.439216 0.152941
0.815686 0.447059 0.164706
0.858824 0.458824 0.176471
0.898039 0.474510 0.192157
0.941176 0.478431 0.196078
0.976471 0.494118 0.227451
1.000000 0.505882 0.235294
0.070588 0.403922 0.086275
0.094118 0.407843 0.074510
0.121569 0.411765 0.078431
0.149020 0.403922 0.074510
0.180392 0.407843 0.078431
0.223529 0.407843 0.090196
0.262745 0.411765 0.086275
0.309804 0.415686 0.098039
0.349020 0.419608 0.098039
0.392157 0.419608 0.105882
0.435294 0.423529 0.105882
0.482353 0.435294 0.113725
0.521569 0.435294 0.109804
0.564706 0.435294 0.117647
0.611765 0.450980 0.137255
0.647059 0.454902 0.145098
0.694118 0.470588 0.152941
0.729412 0.474510 0.152941
0.768627 0.486275 0.164706
0.815686 0.494118 0.172549
0.866667 0.490196 0.188235
0.905882 0.509804 0.203922
0.945098 0.513725 0.211765
0.980392 0.525490 0.231373
0.996078 0.533333 0.250980
0.094118 0.474510 0.101961
0.105882 0.474510 0.098039
0.133333 0.474510 0.101961
0.164706 0.478431 0.098039
0.211765 0.474510 0.101961
0.243137 0.478431 0.101961
0.282353 0.478431 0.105882
0.325490 0.478431 0.113725
0.368627 0.486275 0.109804
0.411765 0.490196 0.117647
0.462745 0.490196 0.117647
