loleis/其他/lut20种/Sports LUT #12.cube
TITLE "Sports LUT #12"
#LUT size
LUT_3D_SIZE 9
#LUT data points
0.074510 0.117647 0.101961
0.188235 0.117647 0.101961
0.341176 0.125490 0.105882
0.533333 0.121569 0.098039
0.713725 0.113725 0.090196
0.815686 0.113725 0.094118
0.913725 0.125490 0.098039
0.988235 0.129412 0.105882
0.992157 0.133333 0.117647
0.019608 0.231373 0.105882
0.168627 0.223529 0.094118
0.345098 0.231373 0.105882
0.541176 0.235294 0.094118
0.705882 0.227451 0.082353
0.811765 0.211765 0.086275
0.894118 0.207843 0.094118
0.984314 0.200000 0.101961
1.000000 0.200000 0.117647
0.011765 0.380392 0.074510
0.156863 0.384314 0.082353
0.356863 0.372549 0.074510
0.552941 0.388235 0.050980
0.698039 0.372549 0.058824
0.803922 0.345098 0.082353
0.890196 0.333333 0.090196
0.984314 0.317647 0.113725
1.000000 0.305882 0.117647
0.000000 0.552941 0.000000
0.129412 0.556863 0.000000
0.352941 0.552941 0.000000
0.533333 0.552941 0.000000
0.678431 0.529412 0.007843
0.776471 0.486275 0.074510
0.878431 0.454902 0.098039
0.968627 0.439216 0.117647
1.000000 0.431373 0.121569
0.000000 0.666667 0.003922
0.129412 0.670588 0.000000
0.321569 0.666667 0.000000
0.478431 0.658824 0.000000
0.639216 0.650980 0.003922
0.764706 0.623529 0.050980
0.862745 0.588235 0.113725
0.964706 0.564706 0.129412
1.000000 0.556863 0.156863
0.011765 0.764706 0.117647
0.168627 0.756863 0.129412
0.309804 0.749020 0.113725
0.450980 0.749020 0.117647
0.592157 0.737255 0.117647
0.729412 0.733333 0.121569
0.854902 0.713725 0.133333
0.952941 0.694118 0.160784
0.992157 0.678431 0.188235
0.129412 0.843137 0.172549
0.207843 0.847059 0.192157
0.313725 0.831373 0.188235
0.435294 0.839216 0.192157
0.560784 0.827451 0.188235
0.690196 0.827451 0.192157
0.815686 0.815686 0.188235
0.941176 0.803922 0.200000
1.000000 0.803922 0.211765
0.227451 0.933333 0.270588
0.290196 0.941176 0.274510
0.349020 0.937255 0.274510
0.462745 0.929412 0.270588
0.564706 0.929412 0.274510
0.682353 0.929412 0.274510
0.800000 0.921569 0.270588
0.925490 0.917647 0.278431
0.996078 0.917647 0.294118
0.301961 1.000000 0.309804
0.333333 1.000000 0.321569
0.388235 1.000000 0.325490
0.478431 1.000000 0.337255
0.564706 1.000000 0.329412
0.678431 1.000000 0.325490
0.780392 1.000000 0.329412
0.890196 1.000000 0.333333
0.988235 1.000000 0.337255
0.062745 0.121569 0.211765
0.176471 0.117647 0.207843
0.349020 0.113725 0.211765
0.537255 0.086275 0.207843
0.709804 0.058824 0.200000
0.815686 0.101961 0.200000
0.890196 0.125490 0.192157
0.988235 0.133333 0.188235
1.000000 0.145098 0.200000
0.000000 0.227451 0.203922
0.168627 0.223529 0.223529
0.337255 0.219608 0.211765
0.533333 0.215686 0.200000
0.694118 0.207843 0.200000
0.807843 0.203922 0.196078
0.882353 0.203922 0.180392
0.976471 0.200000 0.196078
1.000000 0.207843 0.192157
0.003922 0.380392 0.192157
0.125490 0.388235 0.188235
0.352941 0.384314 0.192157
0.541176 0.384314 0.184314
0.694118 0.372549 0.188235
0.792157 0.345098 0.200000
0.890196 0.333333 0.192157
0.976471 0.317647 0.203922
1.000000 0.317647 0.203922
0.000000 0.545098 0.156863
0.074510 0.552941 0.156863
0.337255 0.552941 0.156863
0.533333 0.541176 0.152941
0.678431 0.517647 0.156863
0.768627 0.478431 0.184314
0.866667 0.454902 0.200000
0.956863 0.439216 0.196078
1.000000 0.427451 0.203922
0.000000 0.662745 0.172549
0.105882 0.666667 0.172549
0.305882 0.662745 0.164706
0.478431 0.650980 0.168627
0.639216 0.647059 0.164706
0.756863 0.615686 0.176471
0.858824 0.592157 0.211765
0.956863 0.568627 0.235294
1.000000 0.556863 0.250980
0.078431 0.749020 0.207843
0.180392 0.745098 0.219608
0.313725 0.745098 0.215686
0.450980 0.737255 0.215686
0.584314 0.741176 0.219608
0.721569 0.733333 0.219608
0.839216 0.717647 0.227451
0.941176 0.694118 0.247059
0.996078 0.678431 0.254902
0.176471 0.835294 0.250980
0.223529 0.835294 0.274510
0.329412 0.831373 0.254902
0.443137 0.827451 0.258824
0.564706 0.827451 0.274510
0.690196 0.819608 0.258824
0.811765 0.815686 0.266667
0.925490 0.800000 0.262745
1.000000 0.796078 0.262745
0.266667 0.929412 0.321569
0.309804 0.933333 0.329412
0.376471 0.929412 0.325490
0.474510 0.929412 0.329412
0.564706 0.929412 0.329412
0.686275 0.921569 0.333333
0.803922 0.925490 0.325490
0.917647 0.917647 0.329412
0.996078 0.913725 0.352941
0.321569 1.000000 0.345098
0.349020 1.000000 0.364706
0.403922 1.000000 0.368627
0.482353 1.000000 0.360784
0.576471 1.000000 0.360784
0.678431 1.000000 0.364706
0.780392 1.000000 0.368627
0.890196 1.000000 0.364706
0.980392 1.000000 0.364706
0.003922 0.117647 0.376471
0.184314 0.109804 0.368627
0.345098 0.105882 0.376471
0.545098 0.070588 0.380392
0.717647 0.023529 0.368627
0.811765 0.113725 0.356863
0.890196 0.196078 0.360784
0.980392 0.223529 0.345098
0.992157 0.235294 0.349020
0.003922 0.223529 0.368627
0.156863 0.207843 0.372549
0.345098 0.207843 0.372549
0.549020 0.192157 0.364706
0.698039 0.192157 0.352941
0.796078 0.227451 0.349020
0.878431 0.250980 0.345098
0.960784 0.266667 0.345098
0.992157 0.274510 0.345098
0.000000 0.376471 0.368627
0.074510 0.384314 0.372549
0.337255 0.372549 0.368627
0.545098 0.372549 0.368627
0.686275 0.368627 0.356863
0.788235 0.364706 0.364706
0.878431 0.360784 0.345098
0.968627 0.360784 0.352941
1.000000 0.356863 0.349020
0.000000 0.549020 0.356863
0.003922 0.545098 0.341176
0.325490 0.549020 0.349020
0.529412 0.545098 0.345098
0.662745 0.517647 0.352941
0.760784 0.494118 0.356863
0.854902 0.474510 0.349020
0.949020 0.462745 0.352941
1.000000 0.458824 0.349020
0.003922 0.658824 0.345098
0.180392 0.654902 0.352941
0.329412 0.658824 0.352941
0.482353 0.650980 0.341176
0.635294 0.647059 0.345098
0.749020 0.619608 0.356863
0.850980 0.596078 0.376471
0.941176 0.584314 0.368627
0.996078 0.572549 0.380392
0.235294 0.749020 0.384314
0.274510 0.749020 0.384314
0.364706 0.745098 0.380392
0.478431 0.741176 0.376471
0.600000 0.737255 0.376471
0.733333 0.725490 0.384314
0.839216 0.713725 0.388235
0.941176 0.698039 0.396078
1.000000 0.690196 0.403922
0.286275 0.827451 0.392157
0.329412 0.831373 0.403922
0.388235 0.823529 0.411765
0.478431 0.827451 0.403922
0.580392 0.823529 0.396078
0.694118 0.819608 0.400000
0.811765 0.819608 0.400000
0.929412 0.807843 0.392157
1.000000 0.800000 0.400000
0.341176 0.925490 0.423529
0.352941 0.925490 0.435294
0.427451 0.921569 0.427451
0.498039 0.933333 0.431373
0.600000 0.921569 0.435294
0.690196 0.921569 0.427451
0.800000 0.921569 0.423529
0.913725 0.921569 0.431373
0.992157 0.909804 0.443137
0.352941 1.000000 0.439216
0.380392 1.000000 0.431373
0.427451 1.000000 0.439216
0.501961 1.000000 0.439216
0.584314 1.000000 0.439216
0.686275 0.996078 0.427451
0.788235 1.000000 0.435294
0.890196 1.000000 0.431373
0.988235 1.000000 0.439216
0.003922 0.109804 0.568627
0.176471 0.109804 0.560784
0.356863 0.082353 0.560784
0.541176 0.031373 0.556863
0.709804 0.000000 0.545098
0.803922 0.113725 0.498039
0.886275 0.196078 0.478431
0.964706 0.282353 0.482353
1.000000 0.352941 0.501961
0.000000 0.207843 0.560784
0.125490 0.200000 0.560784
0.345098 0.192157 0.556863
0.541176 0.172549 0.552941
0.694118 0.184314 0.537255
0.792157 0.223529 0.494118
0.874510 0.282353 0.482353
0.960784 0.337255 0.498039
0.996078 0.392157 0.501961
0.007843 0.368627 0.552941
0.000000 0.368627 0.552941
0.333333 0.356863 0.552941
0.545098 0.356863 0.552941
0.678431 0.372549 0.525490
0.764706 0.400000 0.505882
0.843137 0.439216 0.521569
0.945098 0.454902 0.525490
0.996078 0.454902 0.517647
0.003922 0.549020 0.537255
0.000000 0.549020 0.537255
0.345098 0.545098 0.549020
0.517647 0.541176 0.533333
0.647059 0.533333 0.541176
0.729412 0.533333 0.529412
0.827451 0.533333 0.521569
0.925490 0.525490 0.517647
1.000000 0.517647 0.517647
0.160784 0.654902 0.509804
0.262745 0.654902 0.505882
0.403922 0.650980 0.529412
0.517647 0.647059 0.533333
0.623529 0.643137 0.525490
0.733333 0.631373 0.533333
0.819608 0.623529 0.533333
0.921569 0.615686 0.537255
1.000000 0.607843 0.517647
0.349020 0.741176 0.529412
0.388235 0.737255 0.525490
0.439216 0.741176 0.529412
0.521569 0.733333 0.529412
0.619608 0.729412 0.529412
0.725490 0.725490 0.529412
0.819608 0.717647 0.517647
0.921569 0.709804 0.529412
1.000000 0.709804 0.545098
0.368627 0.827451 0.521569
0.392157 0.827451 0.529412
0.439216 0.823529 0.529412
0.517647 0.823529 0.525490
0.607843 0.819608 0.525490
0.709804 0.819608 0.525490
0.807843 0.815686 0.521569
0.913725 0.811765 0.509804
1.000000 0.803922 0.525490
0.380392 0.933333 0.525490
0.400000 0.921569 0.501961
0.447059 0.925490 0.537255
0.521569 0.921569 0.529412
0.603922 0.921569 0.517647
0.705882 0.917647 0.533333
0.800000 0.921569 0.517647
0.913725 0.925490 0.521569
1.000000 0.913725 0.521569
0.388235 1.000000 0.517647
0.403922 1.000000 0.517647
0.450980 1.000000 0.521569
0.513725 1.000000 0.521569
0.600000 0.996078 0.525490
0.686275 1.000000 0.509804
0.792157 0.996078 0.509804
0.886275 1.000000 0.517647
0.996078 1.000000 0.521569
0.000000 0.113725 0.662745
0.145098 0.117647 0.666667
0.317647 0.105882 0.654902
0.494118 0.086275 0.662745
0.647059 0.066667 0.654902
0.800000 0.086275 0.650980
0.878431 0.188235 0.611765
0.960784 0.290196 0.596078
0.996078 0.352941 0.592157
0.000000 0.203922 0.643137
0.117647 0.207843 0.662745
0.313725 0.200000 0.666667
0.486275 0.200000 0.662745
0.643137 0.192157 0.658824
0.788235 0.215686 0.635294
0.862745 0.278431 0.607843
0.945098 0.345098 0.596078
1.000000 0.384314 0.600000
0.000000 0.349020 0.662745
0.141176 0.345098 0.670588
0.317647 0.352941 0.654902
0.482353 0.364706 0.654902
0.647059 0.364706 0.654902
0.764706 0.388235 0.635294
0.843137 0.427451 0.607843
0.933333 0.454902 0.607843
0.992157 0.474510 0.619608
0.003922 0.505882 0.650980
0.203922 0.509804 0.650980
0.376471 0.517647 0.643137
0.509804 0.529412 0.643137
0.627451 0.525490 0.631373
0.729412 0.533333 0.631373
0.815686 0.545098 0.619608
0.909804 0.545098 0.619608
1.000000 0.537255 0.615686
0.235294 0.650980 0.650980
0.309804 0.647059 0.643137
0.411765 0.647059 0.647059
0.521569 0.639216 0.639216
0.623529 0.639216 0.635294
0.717647 0.631373 0.639216
0.815686 0.635294 0.635294
0.913725 0.631373 0.635294
1.000000 0.627451 0.631373
0.364706 0.741176 0.631373
0.388235 0.741176 0.639216
0.447059 0.741176 0.623529
0.537255 0.733333 0.627451
0.615686 0.729412 0.619608
0.717647 0.725490 0.631373
0.819608 0.725490 0.623529
0.917647 0.721569 0.631373
1.000000 0.717647 0.623529
0.384314 0.827451 0.623529
0.403922 0.823529 0.611765
0.454902 0.823529 0.619608
0.525490 0.827451 0.623529
0.611765 0.823529 0.619608
0.709804 0.823529 0.611765
0.807843 0.815686 0.619608
0.917647 0.811765 0.603922
1.000000 0.811765 0.619608
0.380392 0.917647 0.611765
0.396078 0.929412 0.607843
0.447059 0.929412 0.615686
0.521569 0.925490 0.615686
0.603922 0.921569 0.611765
0.709804 0.921569 0.615686
0.807843 0.921569 0.607843
0.913725 0.917647 0.603922
1.000000 0.913725 0.607843
0.376471 1.000000 0.600000
0.407843 1.000000 0.611765
0.450980 1.000000 0.611765
0.517647 0.996078 0.607843
0.600000 1.000000 0.607843
0.694118 1.000000 0.603922
0.784314 1.000000 0.600000
0.894118 1.000000 0.596078
0.992157 1.000000 0.603922
0.000000 0.129412 0.741176
0.137255 0.121569 0.745098
0.290196 0.129412 0.749020
0.439216 0.125490 0.749020
0.588235 0.129412 0.741176
0.729412 0.145098 0.741176
0.862745 0.188235 0.729412
0.949020 0.274510 0.705882
1.000000 0.349020 0.694118
0.003922 0.207843 0.749020
0.133333 0.207843 0.749020
0.290196 0.207843 0.745098
0.435294 0.207843 0.741176
0.588235 0.211765 0.745098
0.733333 0.227451 0.733333
0.850980 0.270588 0.717647
0.933333 0.321569 0.701961
0.992157 0.380392 0.698039
0.066667 0.349020 0.749020
0.192157 0.349020 0.733333
0.313725 0.352941 0.737255
0.458824 0.356863 0.745098
0.592157 0.368627 0.737255
0.725490 0.388235 0.729412
0.839216 0.411765 0.721569
0.933333 0.450980 0.713725
1.000000 0.458824 0.717647
0.215686 0.482353 0.729412
0.290196 0.501961 0.745098
0.403922 0.505882 0.729412
0.498039 0.517647 0.733333
0.603922 0.525490 0.725490
0.713725 0.525490 0.721569
0.811765 0.525490 0.705882
0.917647 0.529412 0.713725
0.996078 0.537255 0.701961
0.321569 0.623529 0.733333
0.360784 0.619608 0.713725
0.439216 0.623529 0.725490
0.521569 0.623529 0.721569
0.619608 0.627451 0.725490
0.713725 0.623529 0.725490
0.819608 0.623529 0.721569
0.921569 0.627451 0.717647
1.000000 0.623529 0.705882
0.376471 0.729412 0.729412
0.400000 0.729412 0.729412
0.466667 0.721569 0.729412
0.533333 0.729412 0.733333
0.615686 0.725490 0.729412
0.717647 0.717647 0.717647
0.811765 0.717647 0.717647
0.917647 0.713725 0.721569
1.000000 0.713725 0.717647
0.384314 0.815686 0.709804
0.396078 0.815686 0.705882
0.450980 0.819608 0.713725
0.521569 0.819608 0.717647
0.607843 0.819608 0.717647
0.701961 0.815686 0.705882
0.811765 0.803922 0.705882
0.913725 0.807843 0.701961
1.000000 0.803922 0.705882
0.380392 0.917647 0.713725
0.400000 0.929412 0.709804
0.439216 0.921569 0.705882
0.513725 0.917647 0.701961
0.603922 0.921569 0.701961
0.701961 0.917647 0.701961
0.803922 0.917647 0.698039
0.917647 0.921569 0.698039
0.996078 0.905882 0.694118
0.372549 1.000000 0.698039
0.407843 0.996078 0.705882
0.447059 1.000000 0.694118
0.521569 0.996078 0.694118
0.600000 1.000000 0.694118
0.698039 0.996078 0.701961
0.792157 1.000000 0.694118
0.894118 1.000000 0.698039
0.992157 1.000000 0.694118
0.000000 0.141176 0.835294
0.137255 0.141176 0.839216
0.286275 0.141176 0.831373
0.415686 0.145098 0.839216
0.556863 0.156863 0.831373
0.682353 0.184314 0.831373
0.819608 0.219608 0.819608
0.941176 0.270588 0.819608
1.000000 0.341176 0.807843
0.000000 0.215686 0.839216
0.141176 0.211765 0.831373
0.278431 0.215686 0.835294
0.419608 0.219608 0.827451
0.556863 0.231373 0.827451
0.690196 0.250980 0.827451
0.815686 0.278431 0.823529
0.937255 0.313725 0.807843
1.000000 0.384314 0.807843
0.133333 0.345098 0.831373
0.211765 0.341176 0.847059
0.317647 0.352941 0.819608
0.443137 0.360784 0.835294
0.568627 0.368627 0.831373
0.694118 0.388235 0.819608
0.815686 0.411765 0.823529
0.921569 0.435294 0.811765
1.000000 0.458824 0.807843
0.309804 0.498039 0.827451
0.345098 0.505882 0.819608
0.407843 0.505882 0.819608
0.498039 0.509804 0.819608
0.592157 0.521569 0.819608
0.701961 0.521569 0.815686
0.803922 0.521569 0.807843
0.917647 0.525490 0.811765
1.000000 0.529412 0.807843
0.349020 0.603922 0.815686
0.384314 0.619608 0.823529
0.447059 0.615686 0.823529
0.517647 0.619608 0.819608
0.611765 0.619608 0.819608
0.705882 0.615686 0.819608
0.807843 0.619608 0.815686
0.917647 0.611765 0.807843
1.000000 0.611765 0.807843
0.384314 0.721569 0.827451
0.407843 0.721569 0.827451
0.447059 0.721569 0.819608
0.529412 0.713725 0.823529
0.607843 0.713725 0.819608
0.701961 0.705882 0.815686
0.819608 0.705882 0.815686
0.917647 0.705882 0.807843
1.000000 0.713725 0.811765
0.376471 0.819608 0.803922
0.403922 0.811765 0.815686
0.450980 0.807843 0.811765
0.517647 0.815686 0.815686
0.600000 0.811765 0.811765
0.698039 0.815686 0.815686
0.796078 0.803922 0.800000
0.909804 0.807843 0.803922
1.000000 0.807843 0.803922
0.376471 0.917647 0.815686
0.396078 0.917647 0.803922
0.435294 0.917647 0.807843
0.505882 0.917647 0.800000
0.596078 0.921569 0.811765
0.698039 0.917647 0.803922
0.796078 0.917647 0.796078
0.913725 0.913725 0.803922
0.996078 0.909804 0.819608
0.368627 1.000000 0.796078
0.400000 1.000000 0.788235
0.443137 1.000000 0.796078
0.521569 1.000000 0.792157
0.615686 1.000000 0.807843
0.698039 0.996078 0.803922
0.796078 1.000000 0.800000
0.894118 1.000000 0.800000
0.992157 1.000000 0.803922
0.019608 0.149020 0.929412
0.145098 0.152941 0.933333
0.278431 0.160784 0.929412
0.403922 0.160784 0.933333
0.537255 0.180392 0.937255
0.670588 0.200000 0.929412
0.800000 0.239216 0.929412
0.913725 0.286275 0.921569
0.996078 0.341176 0.925490
0.054902 0.211765 0.933333
0.164706 0.223529 0.933333
0.274510 0.219608 0.929412
0.415686 0.231373 0.929412
0.537255 0.247059 0.933333
0.666667 0.270588 0.929412
0.796078 0.294118 0.917647
0.913725 0.333333 0.913725
1.000000 0.376471 0.909804
0.168627 0.341176 0.921569
0.235294 0.349020 0.949020
0.325490 0.356863 0.925490
0.435294 0.360784 0.925490
0.552941 0.380392 0.925490
0.678431 0.400000 0.909804
0.796078 0.419608 0.913725
0.917647 0.435294 0.921569
0.996078 0.447059 0.925490
0.313725 0.498039 0.913725
0.352941 0.501961 0.921569
0.411765 0.505882 0.921569
0.490196 0.509804 0.917647
0.584314 0.509804 0.921569
0.690196 0.513725 0.917647
0.800000 0.517647 0.909804
0.909804 0.517647 0.905882
0.996078 0.517647 0.913725
0.364706 0.603922 0.921569
0.396078 0.619608 0.921569
0.435294 0.615686 0.921569
0.513725 0.615686 0.917647
0.603922 0.611765 0.913725
0.698039 0.607843 0.913725
0.807843 0.607843 0.917647
0.913725 0.607843 0.905882
1.000000 0.611765 0.917647
0.384314 0.709804 0.921569
0.407843 0.709804 0.921569
0.447059 0.709804 0.925490
0.521569 0.705882 0.925490
0.600000 0.705882 0.913725
0.701961 0.705882 0.917647
0.800000 0.701961 0.917647
0.913725 0.698039 0.913725
0.988235 0.694118 0.913725
0.376471 0.807843 0.905882
0.384314 0.807843 0.917647
0.439216 0.807843 0.909804
0.509804 0.803922 0.917647
0.588235 0.803922 0.921569
0.686275 0.803922 0.913725
0.800000 0.803922 0.913725
0.909804 0.807843 0.913725
1.000000 0.803922 0.917647
0.368627 0.917647 0.921569
0.388235 0.913725 0.909804
0.427451 0.921569 0.909804
0.509804 0.917647 0.913725
0.592157 0.909804 0.913725
0.694118 0.913725 0.909804
0.796078 0.913725 0.913725
0.909804 0.917647 0.913725
1.000000 0.921569 0.925490
0.384314 1.000000 0.894118
0.411765 1.000000 0.901961
0.450980 1.000000 0.898039
0.517647 0.996078 0.898039
0.607843 1.000000 0.898039
0.709804 1.000000 0.901961
0.819608 1.000000 0.898039
0.901961 1.000000 0.905882
0.992157 1.000000 0.913725
0.070588 0.164706 0.996078
0.152941 0.168627 1.000000
0.278431 0.164706 0.996078
0.392157 0.180392 1.000000
0.517647 0.200000 0.996078
0.650980 0.215686 1.000000
0.772549 0.247059 0.996078
0.890196 0.294118 0.996078
1.000000 0.352941 1.000000
0.105882 0.219608 0.996078
0.164706 0.231373 0.992157
0.282353 0.235294 0.996078
0.407843 0.243137 1.000000
0.517647 0.254902 1.000000
0.647059 0.278431 1.000000
0.768627 0.301961 0.992157
0.890196 0.341176 0.996078
0.996078 0.376471 0.992157
0.200000 0.352941 1.000000
0.247059 0.352941 1.000000
0.333333 0.364706 1.000000
0.431373 0.368627 1.000000
0.545098 0.384314 1.000000
0.658824 0.400000 0.996078
0.780392 0.415686 1.000000
0.894118 0.435294 0.996078
1.000000 0.450980 1.000000
0.317647 0.505882 1.000000
0.349020 0.498039 0.996078
0.403922 0.501961 1.000000
0.486275 0.505882 1.000000
0.576471 0.501961 0.996078
0.678431 0.505882 0.992157
0.784314 0.509804 0.996078
0.901961 0.513725 1.000000
1.000000 0.521569 0.996078
0.376471 0.607843 1.000000
0.400000 0.607843 1.000000
0.443137 0.607843 1.000000
0.513725 0.607843 1.000000
0.592157 0.607843 0.996078
0.690196 0.603922 1.000000
0.788235 0.600000 1.000000
0.894118 0.600000 0.996078
1.000000 0.596078 1.000000
0.396078 0.698039 1.000000
0.411765 0.698039 1.000000
0.454902 0.701961 1.000000
0.517647 0.698039 1.000000
0.596078 0.698039 1.000000
0.686275 0.694118 0.996078
0.788235 0.694118 0.992157
0.898039 0.698039 1.000000
0.992157 0.701961 1.000000
0.388235 0.796078 0.996078
0.403922 0.796078 0.992157
0.443137 0.796078 1.000000
0.513725 0.800000 1.000000
0.596078 0.796078 1.000000
0.694118 0.796078 0.996078
0.796078 0.796078 1.000000
0.905882 0.800000 1.000000
0.992157 0.807843 0.988235
0.392157 0.894118 0.992157
0.427451 0.898039 1.000000
0.466667 0.898039 0.996078
0.525490 0.894118 0.996078
0.611765 0.901961 1.000000
0.701961 0.898039 0.996078
0.807843 0.909804 1.000000
0.909804 0.913725 0.996078
1.000000 0.921569 0.996078
0.415686 0.996078 0.996078
0.435294 1.000000 1.000000
0.478431 1.000000 0.996078
0.541176 1.000000 1.000000
0.627451 1.000000 1.000000
0.721569 1.000000 1.000000
0.827451 1.000000 0.996078
0.921569 1.000000 0.996078
1.000000 0.996078 1.000000
