loleis/其他/lut20种/Sports LUT #6.cube
TITLE "Sports LUT #6"
#LUT size
LUT_3D_SIZE 9
#LUT data points
0.086275 0.098039 0.125490
0.090196 0.109804 0.133333
0.105882 0.125490 0.149020
0.129412 0.145098 0.180392
0.149020 0.176471 0.207843
0.192157 0.219608 0.258824
0.258824 0.274510 0.309804
0.349020 0.360784 0.388235
0.470588 0.474510 0.482353
0.117647 0.137255 0.160784
0.113725 0.129412 0.164706
0.121569 0.149020 0.180392
0.141176 0.168627 0.200000
0.172549 0.200000 0.231373
0.223529 0.239216 0.282353
0.290196 0.305882 0.341176
0.396078 0.400000 0.415686
0.505882 0.521569 0.533333
0.160784 0.176471 0.211765
0.156863 0.172549 0.207843
0.168627 0.184314 0.219608
0.184314 0.211765 0.243137
0.211765 0.239216 0.270588
0.262745 0.278431 0.313725
0.329412 0.349020 0.372549
0.419608 0.435294 0.447059
0.529412 0.545098 0.556863
0.239216 0.254902 0.290196
0.227451 0.254902 0.294118
0.247059 0.262745 0.298039
0.262745 0.278431 0.313725
0.317647 0.329412 0.356863
0.360784 0.372549 0.392157
0.435294 0.439216 0.458824
0.513725 0.529412 0.541176
0.627451 0.631373 0.647059
0.349020 0.352941 0.372549
0.345098 0.356863 0.384314
0.349020 0.360784 0.388235
0.372549 0.384314 0.411765
0.403922 0.415686 0.435294
0.470588 0.474510 0.490196
0.533333 0.537255 0.552941
0.615686 0.615686 0.623529
0.694118 0.698039 0.705882
0.462745 0.466667 0.474510
0.466667 0.470588 0.486275
0.474510 0.478431 0.494118
0.494118 0.509804 0.521569
0.525490 0.541176 0.552941
0.568627 0.572549 0.588235
0.643137 0.647059 0.654902
0.705882 0.709804 0.717647
0.780392 0.772549 0.784314
0.670588 0.670588 0.678431
0.666667 0.666667 0.674510
0.666667 0.670588 0.678431
0.682353 0.686275 0.694118
0.694118 0.698039 0.705882
0.725490 0.725490 0.733333
0.752941 0.752941 0.760784
0.800000 0.803922 0.811765
0.862745 0.862745 0.854902
0.803922 0.807843 0.815686
0.796078 0.803922 0.800000
0.800000 0.807843 0.803922
0.815686 0.815686 0.815686
0.827451 0.827451 0.835294
0.839216 0.847059 0.843137
0.858824 0.866667 0.862745
0.878431 0.878431 0.878431
0.913725 0.913725 0.905882
0.949020 0.949020 0.956863
0.937255 0.937255 0.945098
0.941176 0.941176 0.941176
0.945098 0.945098 0.945098
0.956863 0.956863 0.956863
0.964706 0.964706 0.964706
0.972549 0.972549 0.972549
0.980392 0.988235 0.984314
0.992157 0.992157 0.992157
0.090196 0.109804 0.133333
0.094118 0.113725 0.137255
0.117647 0.137255 0.160784
0.137255 0.152941 0.188235
0.164706 0.192157 0.223529
0.215686 0.231373 0.274510
0.282353 0.298039 0.333333
0.376471 0.388235 0.407843
0.490196 0.505882 0.517647
0.113725 0.133333 0.156863
0.129412 0.145098 0.180392
0.129412 0.156863 0.188235
0.152941 0.180392 0.211765
0.192157 0.219608 0.250980
0.243137 0.258824 0.294118
0.298039 0.313725 0.349020
0.376471 0.392157 0.403922
0.501961 0.513725 0.533333
0.164706 0.180392 0.215686
0.168627 0.184314 0.227451
0.168627 0.196078 0.227451
0.192157 0.219608 0.250980
0.223529 0.250980 0.290196
0.278431 0.294118 0.329412
0.349020 0.360784 0.380392
0.450980 0.454902 0.470588
0.556863 0.572549 0.576471
0.250980 0.262745 0.298039
0.247059 0.274510 0.298039
0.262745 0.278431 0.313725
0.286275 0.301961 0.337255
0.325490 0.345098 0.368627
0.364706 0.376471 0.396078
0.419608 0.435294 0.447059
0.501961 0.505882 0.521569
0.596078 0.600000 0.607843
0.372549 0.384314 0.411765
0.360784 0.380392 0.403922
0.368627 0.380392 0.400000
0.392157 0.403922 0.423529
0.419608 0.435294 0.447059
0.482353 0.498039 0.509804
0.552941 0.556863 0.572549
0.623529 0.627451 0.635294
0.713725 0.717647 0.725490
0.490196 0.494118 0.509804
0.494118 0.498039 0.513725
0.501961 0.505882 0.521569
0.521569 0.525490 0.533333
0.549020 0.552941 0.568627
0.580392 0.584314 0.600000
0.650980 0.654902 0.662745
0.713725 0.717647 0.725490
0.784314 0.784314 0.784314
0.686275 0.690196 0.698039
0.682353 0.682353 0.690196
0.682353 0.686275 0.694118
0.690196 0.694118 0.701961
0.713725 0.717647 0.725490
0.733333 0.733333 0.733333
0.752941 0.752941 0.760784
0.784314 0.792157 0.788235
0.858824 0.858824 0.858824
0.819608 0.819608 0.827451
0.807843 0.807843 0.815686
0.815686 0.807843 0.811765
0.819608 0.819608 0.819608
0.831373 0.831373 0.839216
0.847059 0.847059 0.854902
0.866667 0.866667 0.874510
0.882353 0.882353 0.882353
0.917647 0.917647 0.909804
0.945098 0.945098 0.945098
0.952941 0.945098 0.956863
0.949020 0.949020 0.949020
0.952941 0.952941 0.952941
0.956863 0.956863 0.964706
0.964706 0.964706 0.972549
0.972549 0.972549 0.972549
0.980392 0.980392 0.980392
0.996078 0.996078 0.996078
0.094118 0.113725 0.137255
0.101961 0.121569 0.145098
0.117647 0.137255 0.160784
0.141176 0.156863 0.192157
0.180392 0.196078 0.231373
0.223529 0.239216 0.274510
0.290196 0.305882 0.341176
0.384314 0.396078 0.423529
0.498039 0.513725 0.525490
0.129412 0.149020 0.172549
0.129412 0.149020 0.172549
0.133333 0.160784 0.200000
0.156863 0.184314 0.223529
0.196078 0.223529 0.254902
0.254902 0.270588 0.305882
0.309804 0.329412 0.352941
0.396078 0.411765 0.423529
0.517647 0.529412 0.549020
0.164706 0.184314 0.207843
0.172549 0.188235 0.231373
0.176471 0.203922 0.243137
0.200000 0.227451 0.258824
0.235294 0.262745 0.294118
0.286275 0.313725 0.345098
0.360784 0.372549 0.392157
0.462745 0.466667 0.482353
0.560784 0.576471 0.588235
0.254902 0.270588 0.305882
0.254902 0.282353 0.313725
0.274510 0.290196 0.325490
0.294118 0.309804 0.345098
0.329412 0.349020 0.372549
0.372549 0.384314 0.403922
0.435294 0.439216 0.454902
0.513725 0.517647 0.533333
0.611765 0.615686 0.623529
0.380392 0.396078 0.407843
0.372549 0.384314 0.403922
0.380392 0.392157 0.411765
0.400000 0.415686 0.427451
0.427451 0.443137 0.454902
0.494118 0.498039 0.513725
0.556863 0.560784 0.576471
0.623529 0.627451 0.643137
0.709804 0.713725 0.721569
0.505882 0.509804 0.525490
0.505882 0.509804 0.525490
0.517647 0.521569 0.537255
0.533333 0.537255 0.552941
0.556863 0.560784 0.568627
0.588235 0.592157 0.600000
0.658824 0.662745 0.670588
0.725490 0.721569 0.741176
0.792157 0.792157 0.792157
0.686275 0.690196 0.705882
0.686275 0.690196 0.698039
0.690196 0.694118 0.701961
0.701961 0.705882 0.713725
0.717647 0.721569 0.729412
0.733333 0.737255 0.745098
0.752941 0.752941 0.760784
0.792157 0.796078 0.803922
0.858824 0.858824 0.866667
0.823529 0.823529 0.831373
0.811765 0.815686 0.823529
0.819608 0.819608 0.819608
0.827451 0.827451 0.827451
0.843137 0.835294 0.847059
0.850980 0.854902 0.862745
0.870588 0.870588 0.870588
0.890196 0.890196 0.882353
0.921569 0.921569 0.921569
0.945098 0.945098 0.945098
0.945098 0.945098 0.945098
0.949020 0.949020 0.949020
0.952941 0.952941 0.952941
0.956863 0.956863 0.956863
0.960784 0.960784 0.960784
0.968627 0.968627 0.968627
0.976471 0.984314 0.980392
0.992157 0.992157 0.992157
0.113725 0.129412 0.164706
0.113725 0.129412 0.164706
0.129412 0.145098 0.180392
0.145098 0.160784 0.196078
0.172549 0.200000 0.231373
0.219608 0.247059 0.278431
0.301961 0.313725 0.349020
0.396078 0.407843 0.427451
0.505882 0.509804 0.529412
0.137255 0.156863 0.180392
0.137255 0.164706 0.196078
0.152941 0.168627 0.203922
0.164706 0.180392 0.215686
0.203922 0.219608 0.254902
0.247059 0.274510 0.305882
0.321569 0.341176 0.364706
0.419608 0.423529 0.439216
0.537255 0.541176 0.549020
0.164706 0.192157 0.223529
0.164706 0.192157 0.223529
0.192157 0.219608 0.250980
0.203922 0.231373 0.262745
0.239216 0.266667 0.298039
0.301961 0.313725 0.349020
0.376471 0.388235 0.407843
0.462745 0.478431 0.490196
0.568627 0.572549 0.588235
0.243137 0.254902 0.290196
0.235294 0.262745 0.301961
0.266667 0.282353 0.317647
0.298039 0.313725 0.349020
0.345098 0.356863 0.384314
0.388235 0.400000 0.419608
0.450980 0.454902 0.470588
0.525490 0.529412 0.545098
0.623529 0.627451 0.635294
0.380392 0.392157 0.411765
0.376471 0.388235 0.407843
0.400000 0.403922 0.423529
0.407843 0.419608 0.439216
0.439216 0.443137 0.458824
0.501961 0.505882 0.513725
0.564706 0.568627 0.584314
0.631373 0.635294 0.650980
0.713725 0.717647 0.725490
0.513725 0.517647 0.533333
0.517647 0.521569 0.537255
0.529412 0.533333 0.549020
0.545098 0.549020 0.556863
0.568627 0.572549 0.580392
0.600000 0.603922 0.619608
0.666667 0.666667 0.674510
0.729412 0.729412 0.737255
0.788235 0.792157 0.800000
0.694118 0.698039 0.705882
0.694118 0.694118 0.701961
0.694118 0.698039 0.705882
0.701961 0.705882 0.713725
0.721569 0.725490 0.733333
0.741176 0.749020 0.745098
0.752941 0.756863 0.764706
0.803922 0.811765 0.807843
0.862745 0.862745 0.862745
0.823529 0.823529 0.831373
0.819608 0.819608 0.827451
0.819608 0.819608 0.827451
0.831373 0.831373 0.839216
0.839216 0.839216 0.847059
0.850980 0.858824 0.854902
0.874510 0.874510 0.874510
0.894118 0.894118 0.894118
0.925490 0.925490 0.917647
0.949020 0.949020 0.949020
0.952941 0.952941 0.945098
0.949020 0.949020 0.949020
0.956863 0.956863 0.956863
0.956863 0.956863 0.956863
0.964706 0.964706 0.964706
0.972549 0.972549 0.972549
0.980392 0.980392 0.980392
1.000000 0.992157 0.996078
0.125490 0.152941 0.184314
0.129412 0.156863 0.188235
0.141176 0.168627 0.200000
0.160784 0.188235 0.219608
0.176471 0.203922 0.235294
0.227451 0.243137 0.278431
0.309804 0.329412 0.352941
0.403922 0.415686 0.435294
0.517647 0.533333 0.545098
0.164706 0.180392 0.215686
0.156863 0.184314 0.215686
0.168627 0.196078 0.227451
0.184314 0.211765 0.243137
0.203922 0.231373 0.262745
0.258824 0.274510 0.309804
0.333333 0.345098 0.372549
0.415686 0.427451 0.447059
0.533333 0.545098 0.564706
0.207843 0.227451 0.250980
0.211765 0.227451 0.270588
0.211765 0.239216 0.270588
0.231373 0.247059 0.282353
0.250980 0.266667 0.301961
0.301961 0.321569 0.345098
0.384314 0.396078 0.415686
0.482353 0.486275 0.501961
0.584314 0.588235 0.603922
0.258824 0.270588 0.298039
0.258824 0.286275 0.309804
0.286275 0.305882 0.329412
0.329412 0.341176 0.368627
0.352941 0.364706 0.392157
0.396078 0.407843 0.427451
0.450980 0.466667 0.478431
0.529412 0.533333 0.549020
0.615686 0.619608 0.635294
0.356863 0.368627 0.388235
0.356863 0.368627 0.396078
0.376471 0.388235 0.407843
0.403922 0.415686 0.435294
0.462745 0.466667 0.482353
0.513725 0.517647 0.533333
0.568627 0.572549 0.588235
0.635294 0.639216 0.647059
0.713725 0.717647 0.725490
0.509804 0.513725 0.529412
0.513725 0.517647 0.533333
0.529412 0.533333 0.549020
0.552941 0.556863 0.572549
0.580392 0.584314 0.592157
0.607843 0.611765 0.619608
0.670588 0.674510 0.682353
0.725490 0.729412 0.737255
0.792157 0.792157 0.792157
0.694118 0.701961 0.698039
0.698039 0.698039 0.705882
0.698039 0.701961 0.709804
0.709804 0.713725 0.721569
0.733333 0.733333 0.733333
0.749020 0.749020 0.756863
0.764706 0.764706 0.772549
0.807843 0.815686 0.811765
0.870588 0.870588 0.870588
0.827451 0.831373 0.839216
0.823529 0.823529 0.831373
0.827451 0.827451 0.835294
0.835294 0.835294 0.835294
0.843137 0.843137 0.843137
0.862745 0.862745 0.862745
0.878431 0.878431 0.878431
0.894118 0.894118 0.894118
0.937255 0.933333 0.925490
0.949020 0.945098 0.964706
0.949020 0.949020 0.949020
0.949020 0.949020 0.949020
0.956863 0.956863 0.956863
0.956863 0.956863 0.956863
0.964706 0.964706 0.964706
0.972549 0.972549 0.964706
0.984314 0.984314 0.984314
0.992157 0.992157 0.992157
0.156863 0.184314 0.215686
0.160784 0.188235 0.227451
0.172549 0.200000 0.231373
0.192157 0.207843 0.250980
0.215686 0.231373 0.266667
0.250980 0.266667 0.301961
0.305882 0.317647 0.345098
0.407843 0.419608 0.439216
0.545098 0.556863 0.576471
0.188235 0.203922 0.239216
0.196078 0.211765 0.247059
0.196078 0.223529 0.262745
0.211765 0.239216 0.270588
0.227451 0.254902 0.286275
0.266667 0.282353 0.317647
0.313725 0.333333 0.356863
0.419608 0.423529 0.439216
0.529412 0.541176 0.560784
0.254902 0.266667 0.294118
0.247059 0.262745 0.298039
0.258824 0.270588 0.298039
0.274510 0.294118 0.317647
0.290196 0.309804 0.333333
0.325490 0.345098 0.368627
0.372549 0.392157 0.407843
0.474510 0.490196 0.501961
0.584314 0.600000 0.611765
0.286275 0.305882 0.329412
0.305882 0.321569 0.356863
0.337255 0.356863 0.380392
0.352941 0.364706 0.392157
0.368627 0.380392 0.400000
0.392157 0.403922 0.423529
0.443137 0.447059 0.462745
0.525490 0.529412 0.545098
0.611765 0.615686 0.623529
0.388235 0.403922 0.415686
0.396078 0.407843 0.427451
0.427451 0.431373 0.450980
0.454902 0.458824 0.474510
0.501961 0.505882 0.521569
0.517647 0.521569 0.537255
0.564706 0.568627 0.576471
0.631373 0.635294 0.643137
0.709804 0.709804 0.717647
0.501961 0.505882 0.521569
0.509804 0.513725 0.529412
0.525490 0.521569 0.541176
0.549020 0.552941 0.568627
0.588235 0.592157 0.600000
0.635294 0.639216 0.647059
0.682353 0.682353 0.690196
0.725490 0.725490 0.733333
0.784314 0.788235 0.796078
0.690196 0.694118 0.701961
0.701961 0.701961 0.709804
0.705882 0.709804 0.717647
0.713725 0.717647 0.725490
0.733333 0.737255 0.745098
0.749020 0.752941 0.760784
0.764706 0.768627 0.776471
0.811765 0.811765 0.819608
0.866667 0.866667 0.866667
0.835294 0.835294 0.835294
0.831373 0.831373 0.831373
0.831373 0.831373 0.831373
0.843137 0.843137 0.843137
0.858824 0.858824 0.858824
0.866667 0.866667 0.874510
0.882353 0.882353 0.882353
0.898039 0.898039 0.898039
0.937255 0.937255 0.937255
0.952941 0.952941 0.960784
0.952941 0.952941 0.952941
0.952941 0.952941 0.952941
0.956863 0.956863 0.956863
0.960784 0.960784 0.960784
0.968627 0.968627 0.968627
0.972549 0.972549 0.972549
0.980392 0.980392 0.980392
0.992157 0.992157 0.992157
0.203922 0.231373 0.262745
0.207843 0.235294 0.266667
0.215686 0.243137 0.274510
0.243137 0.258824 0.294118
0.266667 0.282353 0.317647
0.298039 0.317647 0.341176
0.337255 0.349020 0.376471
0.407843 0.411765 0.431373
0.537255 0.552941 0.564706
0.239216 0.250980 0.278431
0.239216 0.254902 0.298039
0.239216 0.266667 0.298039
0.262745 0.278431 0.313725
0.282353 0.298039 0.333333
0.317647 0.329412 0.356863
0.349020 0.360784 0.388235
0.400000 0.415686 0.427451
0.537255 0.549020 0.568627
0.290196 0.309804 0.333333
0.301961 0.317647 0.352941
0.309804 0.321569 0.356863
0.321569 0.341176 0.364706
0.345098 0.356863 0.384314
0.364706 0.376471 0.396078
0.403922 0.419608 0.431373
0.466667 0.470588 0.486275
0.584314 0.596078 0.615686
0.364706 0.376471 0.396078
0.380392 0.392157 0.419608
0.388235 0.400000 0.419608
0.400000 0.411765 0.431373
0.423529 0.427451 0.443137
0.443137 0.447059 0.462745
0.470588 0.474510 0.490196
0.517647 0.521569 0.537255
0.619608 0.623529 0.631373
0.427451 0.431373 0.447059
0.439216 0.443137 0.458824
0.466667 0.470588 0.486275
0.509804 0.513725 0.529412
0.533333 0.537255 0.552941
0.549020 0.552941 0.560784
0.568627 0.572549 0.580392
0.623529 0.623529 0.631373
0.721569 0.717647 0.737255
0.549020 0.552941 0.560784
0.560784 0.564706 0.572549
0.572549 0.576471 0.584314
0.596078 0.600000 0.607843
0.623529 0.627451 0.635294
0.662745 0.666667 0.674510
0.678431 0.682353 0.690196
0.717647 0.721569 0.729412
0.784314 0.784314 0.784314
0.666667 0.670588 0.678431
0.670588 0.670588 0.678431
0.678431 0.682353 0.690196
0.690196 0.694118 0.701961
0.713725 0.717647 0.725490
0.745098 0.745098 0.745098
0.772549 0.772549 0.780392
0.807843 0.807843 0.815686
0.862745 0.862745 0.862745
0.823529 0.823529 0.831373
0.831373 0.831373 0.839216
0.835294 0.835294 0.843137
0.847059 0.847059 0.847059
0.854902 0.854902 0.854902
0.874510 0.874510 0.882353
0.882353 0.882353 0.882353
0.898039 0.898039 0.898039
0.941176 0.941176 0.941176
0.941176 0.949020 0.945098
0.945098 0.945098 0.937255
0.949020 0.949020 0.956863
0.952941 0.952941 0.952941
0.960784 0.968627 0.964706
0.964706 0.964706 0.964706
0.976471 0.976471 0.976471
0.988235 0.988235 0.988235
0.996078 0.996078 0.996078
0.294118 0.313725 0.337255
0.301961 0.321569 0.345098
0.313725 0.333333 0.356863
0.333333 0.345098 0.372549
0.352941 0.364706 0.392157
0.380392 0.392157 0.419608
0.415686 0.431373 0.443137
0.466667 0.482353 0.494118
0.537255 0.549020 0.568627
0.313725 0.325490 0.352941
0.321569 0.333333 0.360784
0.329412 0.341176 0.368627
0.349020 0.360784 0.388235
0.364706 0.376471 0.396078
0.392157 0.403922 0.423529
0.423529 0.439216 0.450980
0.470588 0.486275 0.498039
0.537255 0.549020 0.568627
0.372549 0.384314 0.403922
0.376471 0.392157 0.403922
0.392157 0.403922 0.423529
0.403922 0.419608 0.431373
0.419608 0.435294 0.447059
0.454902 0.458824 0.474510
0.486275 0.490196 0.505882
0.529412 0.533333 0.549020
0.576471 0.592157 0.603922
0.450980 0.454902 0.470588
0.462745 0.466667 0.474510
0.470588 0.474510 0.490196
0.478431 0.482353 0.498039
0.498039 0.501961 0.517647
0.505882 0.509804 0.525490
0.533333 0.537255 0.552941
0.564706 0.568627 0.576471
0.611765 0.615686 0.623529
0.517647 0.521569 0.537255
0.537255 0.541176 0.556863
0.560784 0.564706 0.580392
0.576471 0.580392 0.596078
0.588235 0.592157 0.607843
0.603922 0.607843 0.623529
0.623529 0.627451 0.635294
0.647059 0.650980 0.658824
0.701961 0.705882 0.713725
0.611765 0.611765 0.619608
0.607843 0.611765 0.619608
0.619608 0.619608 0.627451
0.635294 0.639216 0.647059
0.682353 0.682353 0.690196
0.701961 0.701961 0.709804
0.709804 0.713725 0.721569
0.737255 0.737255 0.737255
0.788235 0.788235 0.788235
0.705882 0.705882 0.713725
0.713725 0.721569 0.717647
0.721569 0.721569 0.729412
0.733333 0.733333 0.741176
0.745098 0.745098 0.752941
0.764706 0.764706 0.764706
0.800000 0.800000 0.800000
0.819608 0.819608 0.819608
0.866667 0.866667 0.866667
0.815686 0.815686 0.823529
0.815686 0.823529 0.819608
0.819608 0.823529 0.831373
0.831373 0.831373 0.831373
0.839216 0.839216 0.839216
0.858824 0.858824 0.858824
0.878431 0.878431 0.878431
0.909804 0.909804 0.909804
0.941176 0.941176 0.941176
0.941176 0.941176 0.941176
0.941176 0.941176 0.941176
0.949020 0.949020 0.949020
0.949020 0.949020 0.949020
0.956863 0.956863 0.956863
0.968627 0.968627 0.968627
0.972549 0.972549 0.972549
0.984314 0.984314 0.984314
1.000000 1.000000 1.000000
0.474510 0.478431 0.494118
0.474510 0.478431 0.494118
0.482353 0.486275 0.501961
0.498039 0.501961 0.517647
0.513725 0.517647 0.533333
0.537255 0.541176 0.556863
0.564706 0.568627 0.584314
0.596078 0.600000 0.615686
0.662745 0.666667 0.674510
0.470588 0.474510 0.490196
0.478431 0.482353 0.498039
0.490196 0.494118 0.509804
0.501961 0.505882 0.521569
0.517647 0.521569 0.537255
0.541176 0.545098 0.560784
0.564706 0.568627 0.584314
0.603922 0.607843 0.615686
0.658824 0.662745 0.670588
0.525490 0.529412 0.537255
0.541176 0.545098 0.560784
0.545098 0.549020 0.564706
0.552941 0.556863 0.564706
0.568627 0.572549 0.588235
0.588235 0.592157 0.600000
0.607843 0.611765 0.619608
0.639216 0.643137 0.650980
0.694118 0.698039 0.705882
0.580392 0.584314 0.592157
0.584314 0.588235 0.603922
0.588235 0.592157 0.607843
0.600000 0.603922 0.611765
0.607843 0.611765 0.619608
0.619608 0.623529 0.631373
0.643137 0.647059 0.654902
0.670588 0.674510 0.682353
0.713725 0.717647 0.725490
0.650980 0.654902 0.662745
0.670588 0.674510 0.682353
0.670588 0.674510 0.682353
0.674510 0.678431 0.686275
0.678431 0.682353 0.690196
0.694118 0.698039 0.705882
0.709804 0.713725 0.721569
0.733333 0.737255 0.745098
0.772549 0.776471 0.784314
0.701961 0.701961 0.709804
0.705882 0.705882 0.713725
0.721569 0.721569 0.729412
0.737255 0.741176 0.749020
0.760784 0.760784 0.768627
0.764706 0.764706 0.772549
0.780392 0.780392 0.780392
0.803922 0.803922 0.811765
0.835294 0.835294 0.835294
0.784314 0.784314 0.784314
0.784314 0.784314 0.784314
0.788235 0.788235 0.788235
0.788235 0.788235 0.788235
0.792157 0.792157 0.792157
0.823529 0.823529 0.823529
0.850980 0.850980 0.850980
0.866667 0.866667 0.866667
0.882353 0.882353 0.882353
0.886275 0.886275 0.886275
0.878431 0.878431 0.878431
0.882353 0.882353 0.882353
0.886275 0.886275 0.886275
0.890196 0.890196 0.890196
0.898039 0.898039 0.898039
0.905882 0.905882 0.905882
0.933333 0.933333 0.933333
0.945098 0.945098 0.945098
0.949020 0.949020 0.949020
0.952941 0.952941 0.952941
0.952941 0.952941 0.952941
0.956863 0.956863 0.956863
0.952941 0.952941 0.952941
0.964706 0.964706 0.964706
0.972549 0.972549 0.972549
0.984314 0.984314 0.984314
1.000000 1.000000 1.000000
