loleis/其他/lut20种/Sports LUT #2.cube
TITLE "Sports LUT #2"
#LUT size
LUT_3D_SIZE 25
#LUT data points
0.145098 0.129412 0.133333
0.164706 0.125490 0.129412
0.180392 0.117647 0.121569
0.207843 0.121569 0.129412
0.239216 0.121569 0.129412
0.270588 0.117647 0.129412
0.305882 0.109804 0.121569
0.341176 0.109804 0.125490
0.388235 0.105882 0.117647
0.439216 0.101961 0.113725
0.494118 0.098039 0.113725
0.552941 0.094118 0.117647
0.615686 0.094118 0.105882
0.690196 0.090196 0.101961
0.745098 0.082353 0.101961
0.796078 0.074510 0.082353
0.858824 0.062745 0.078431
0.905882 0.058824 0.078431
0.952941 0.047059 0.070588
0.984314 0.043137 0.054902
1.000000 0.035294 0.047059
1.000000 0.023529 0.039216
1.000000 0.015686 0.035294
1.000000 0.003922 0.027451
0.996078 0.000000 0.007843
0.152941 0.137255 0.125490
0.164706 0.129412 0.141176
0.180392 0.137255 0.129412
0.207843 0.137255 0.121569
0.243137 0.133333 0.129412
0.258824 0.137255 0.125490
0.305882 0.133333 0.129412
0.341176 0.125490 0.113725
0.392157 0.125490 0.121569
0.439216 0.129412 0.113725
0.494118 0.125490 0.117647
0.549020 0.121569 0.109804
0.607843 0.117647 0.101961
0.678431 0.117647 0.094118
0.733333 0.117647 0.090196
0.803922 0.105882 0.090196
0.854902 0.101961 0.090196
0.905882 0.094118 0.070588
0.952941 0.094118 0.070588
0.996078 0.090196 0.058824
1.000000 0.082353 0.039216
1.000000 0.074510 0.023529
0.996078 0.062745 0.015686
1.000000 0.050980 0.019608
1.000000 0.058824 0.007843
0.149020 0.160784 0.125490
0.172549 0.152941 0.129412
0.188235 0.152941 0.133333
0.215686 0.149020 0.121569
0.243137 0.152941 0.121569
0.274510 0.145098 0.125490
0.301961 0.152941 0.117647
0.345098 0.149020 0.113725
0.392157 0.145098 0.109804
0.439216 0.149020 0.113725
0.494118 0.145098 0.113725
0.552941 0.152941 0.105882
0.615686 0.152941 0.098039
0.670588 0.149020 0.090196
0.737255 0.141176 0.086275
0.800000 0.145098 0.082353
0.850980 0.141176 0.074510
0.901961 0.137255 0.066667
0.952941 0.129412 0.062745
0.988235 0.129412 0.050980
1.000000 0.121569 0.043137
1.000000 0.117647 0.031373
1.000000 0.109804 0.019608
0.992157 0.113725 0.011765
1.000000 0.101961 0.007843
0.152941 0.176471 0.121569
0.168627 0.176471 0.121569
0.184314 0.176471 0.117647
0.211765 0.184314 0.113725
0.239216 0.180392 0.105882
0.266667 0.176471 0.113725
0.317647 0.176471 0.121569
0.352941 0.172549 0.113725
0.392157 0.172549 0.113725
0.443137 0.180392 0.117647
0.494118 0.184314 0.117647
0.556863 0.184314 0.105882
0.619608 0.184314 0.105882
0.682353 0.188235 0.098039
0.737255 0.188235 0.090196
0.796078 0.188235 0.078431
0.850980 0.180392 0.070588
0.901961 0.176471 0.058824
0.949020 0.176471 0.050980
0.984314 0.172549 0.039216
1.000000 0.164706 0.031373
1.000000 0.160784 0.019608
1.000000 0.156863 0.019608
1.000000 0.149020 0.000000
1.000000 0.152941 0.000000
0.149020 0.211765 0.109804
0.176471 0.215686 0.121569
0.192157 0.207843 0.117647
0.211765 0.207843 0.125490
0.231373 0.207843 0.113725
0.278431 0.207843 0.113725
0.309804 0.207843 0.109804
0.349020 0.207843 0.113725
0.396078 0.215686 0.113725
0.450980 0.215686 0.113725
0.498039 0.219608 0.109804
0.556863 0.223529 0.101961
0.619608 0.227451 0.094118
0.674510 0.227451 0.086275
0.737255 0.231373 0.078431
0.792157 0.231373 0.066667
0.843137 0.227451 0.050980
0.898039 0.227451 0.047059
0.945098 0.219608 0.035294
0.984314 0.215686 0.027451
1.000000 0.215686 0.015686
0.996078 0.211765 0.011765
0.996078 0.207843 0.003922
1.000000 0.200000 0.000000
0.996078 0.196078 0.000000
0.156863 0.250980 0.109804
0.164706 0.250980 0.109804
0.188235 0.254902 0.121569
0.223529 0.247059 0.113725
0.254902 0.243137 0.113725
0.278431 0.247059 0.105882
0.313725 0.258824 0.105882
0.356863 0.254902 0.109804
0.400000 0.262745 0.105882
0.454902 0.262745 0.101961
0.509804 0.270588 0.098039
0.572549 0.270588 0.090196
0.627451 0.286275 0.078431
0.698039 0.286275 0.070588
0.752941 0.286275 0.058824
0.811765 0.282353 0.054902
0.850980 0.290196 0.031373
0.905882 0.282353 0.027451
0.956863 0.270588 0.015686
0.992157 0.266667 0.011765
1.000000 0.262745 0.003922
1.000000 0.258824 0.000000
0.996078 0.254902 0.003922
1.000000 0.247059 0.000000
1.000000 0.243137 0.003922
0.164706 0.294118 0.109804
0.164706 0.286275 0.113725
0.192157 0.298039 0.098039
0.215686 0.282353 0.109804
0.247059 0.294118 0.105882
0.290196 0.286275 0.105882
0.325490 0.294118 0.109804
0.349020 0.294118 0.101961
0.403922 0.301961 0.101961
0.458824 0.305882 0.090196
0.513725 0.317647 0.086275
0.572549 0.321569 0.078431
0.635294 0.325490 0.062745
0.701961 0.333333 0.050980
0.760784 0.325490 0.043137
0.807843 0.333333 0.015686
0.862745 0.333333 0.015686
0.913725 0.329412 0.000000
0.956863 0.329412 0.000000
0.988235 0.317647 0.000000
1.000000 0.313725 0.000000
1.000000 0.309804 0.003922
1.000000 0.301961 0.007843
1.000000 0.298039 0.000000
1.000000 0.294118 0.000000
0.145098 0.341176 0.101961
0.168627 0.341176 0.094118
0.184314 0.341176 0.094118
0.227451 0.345098 0.101961
0.247059 0.345098 0.090196
0.282353 0.345098 0.090196
0.321569 0.345098 0.094118
0.360784 0.345098 0.094118
0.407843 0.349020 0.086275
0.458824 0.364706 0.082353
0.513725 0.364706 0.070588
0.576471 0.368627 0.054902
0.639216 0.376471 0.035294
0.705882 0.376471 0.031373
0.756863 0.388235 0.011765
0.807843 0.384314 0.000000
0.858824 0.376471 0.000000
0.901961 0.376471 0.000000
0.952941 0.368627 0.000000
0.988235 0.364706 0.003922
0.996078 0.364706 0.007843
0.988235 0.356863 0.000000
0.996078 0.352941 0.003922
0.992157 0.341176 0.003922
1.000000 0.333333 0.000000
0.137255 0.403922 0.070588
0.164706 0.396078 0.082353
0.188235 0.396078 0.074510
0.207843 0.400000 0.078431
0.247059 0.400000 0.074510
0.286275 0.403922 0.058824
0.337255 0.407843 0.070588
0.384314 0.407843 0.062745
0.423529 0.407843 0.050980
0.470588 0.411765 0.039216
0.517647 0.419608 0.023529
0.584314 0.423529 0.000000
0.643137 0.435294 0.000000
0.698039 0.439216 0.000000
0.752941 0.439216 0.000000
0.807843 0.431373 0.000000
0.858824 0.423529 0.000000
0.901961 0.419608 0.011765
0.941176 0.419608 0.007843
0.976471 0.415686 0.007843
1.000000 0.407843 0.003922
1.000000 0.400000 0.000000
1.000000 0.396078 0.003922
0.992157 0.396078 0.007843
1.000000 0.380392 0.000000
0.113725 0.458824 0.027451
0.141176 0.462745 0.027451
0.164706 0.466667 0.019608
0.203922 0.466667 0.015686
0.254902 0.470588 0.011765
0.298039 0.466667 0.011765
0.333333 0.470588 0.007843
0.388235 0.470588 0.011765
0.431373 0.474510 0.003922
0.482353 0.474510 0.007843
0.533333 0.478431 0.000000
0.592157 0.474510 0.000000
0.654902 0.482353 0.007843
0.701961 0.482353 0.007843
0.760784 0.478431 0.003922
0.807843 0.478431 0.000000
0.850980 0.474510 0.003922
0.890196 0.474510 0.003922
0.941176 0.466667 0.007843
0.976471 0.462745 0.007843
1.000000 0.454902 0.003922
1.000000 0.447059 0.000000
1.000000 0.439216 0.000000
1.000000 0.435294 0.000000
1.000000 0.431373 0.000000
0.062745 0.552941 0.003922
0.101961 0.549020 0.000000
0.152941 0.556863 0.003922
0.180392 0.552941 0.000000
0.239216 0.556863 0.011765
0.298039 0.541176 0.003922
0.337255 0.549020 0.000000
0.400000 0.552941 0.000000
0.447059 0.552941 0.000000
0.501961 0.552941 0.000000
0.556863 0.552941 0.000000
0.615686 0.545098 0.003922
0.662745 0.549020 0.000000
0.725490 0.545098 0.003922
0.768627 0.545098 0.000000
0.819608 0.537255 0.000000
0.870588 0.533333 0.000000
0.905882 0.529412 0.000000
0.945098 0.521569 0.000000
0.976471 0.517647 0.003922
1.000000 0.501961 0.003922
1.000000 0.498039 0.000000
0.996078 0.494118 0.000000
0.992157 0.490196 0.000000
1.000000 0.478431 0.003922
0.000000 0.600000 0.000000
0.054902 0.611765 0.000000
0.109804 0.607843 0.011765
0.176471 0.611765 0.000000
0.227451 0.607843 0.000000
0.278431 0.603922 0.000000
0.337255 0.615686 0.003922
0.392157 0.607843 0.000000
0.447059 0.607843 0.000000
0.501961 0.607843 0.000000
0.552941 0.607843 0.000000
0.611765 0.607843 0.011765
0.662745 0.603922 0.003922
0.721569 0.600000 0.003922
0.772549 0.600000 0.007843
0.811765 0.592157 0.007843
0.858824 0.584314 0.003922
0.894118 0.572549 0.000000
0.941176 0.568627 0.000000
0.984314 0.564706 0.007843
1.000000 0.556863 0.003922
1.000000 0.549020 0.003922
1.000000 0.537255 0.003922
0.996078 0.533333 0.000000
1.000000 0.521569 0.011765
0.003922 0.658824 0.000000
0.003922 0.658824 0.000000
0.058824 0.658824 0.000000
0.145098 0.650980 0.003922
0.203922 0.666667 0.000000
0.274510 0.662745 0.003922
0.325490 0.662745 0.000000
0.380392 0.662745 0.000000
0.439216 0.658824 0.000000
0.494118 0.654902 0.000000
0.549020 0.654902 0.000000
0.603922 0.654902 0.000000
0.658824 0.654902 0.000000
0.709804 0.654902 0.000000
0.756863 0.643137 0.000000
0.811765 0.643137 0.000000
0.854902 0.639216 0.000000
0.890196 0.635294 0.000000
0.933333 0.619608 0.000000
0.980392 0.607843 0.000000
1.000000 0.603922 0.000000
1.000000 0.596078 0.000000
0.996078 0.584314 0.000000
1.000000 0.576471 0.011765
1.000000 0.564706 0.007843
0.000000 0.709804 0.000000
0.000000 0.709804 0.000000
0.003922 0.705882 0.000000
0.109804 0.705882 0.000000
0.184314 0.713725 0.003922
0.250980 0.713725 0.007843
0.309804 0.717647 0.007843
0.364706 0.709804 0.000000
0.427451 0.705882 0.000000
0.486275 0.701961 0.000000
0.545098 0.705882 0.000000
0.600000 0.698039 0.000000
0.647059 0.698039 0.000000
0.701961 0.698039 0.000000
0.752941 0.694118 0.000000
0.807843 0.694118 0.000000
0.850980 0.686275 0.003922
0.898039 0.678431 0.000000
0.941176 0.662745 0.003922
0.976471 0.658824 0.000000
1.000000 0.650980 0.000000
1.000000 0.639216 0.000000
1.000000 0.631373 0.000000
0.988235 0.619608 0.000000
1.000000 0.615686 0.003922
0.007843 0.749020 0.000000
0.000000 0.756863 0.000000
0.000000 0.756863 0.000000
0.062745 0.749020 0.000000
0.152941 0.756863 0.003922
0.227451 0.752941 0.003922
0.294118 0.752941 0.000000
0.356863 0.752941 0.000000
0.407843 0.749020 0.000000
0.470588 0.749020 0.003922
0.521569 0.752941 0.007843
0.584314 0.745098 0.000000
0.643137 0.749020 0.000000
0.686275 0.745098 0.000000
0.741176 0.737255 0.000000
0.792157 0.741176 0.000000
0.839216 0.729412 0.000000
0.882353 0.717647 0.000000
0.925490 0.709804 0.000000
0.972549 0.701961 0.000000
1.000000 0.698039 0.000000
1.000000 0.690196 0.003922
1.000000 0.674510 0.003922
1.000000 0.666667 0.000000
1.000000 0.658824 0.000000
0.000000 0.815686 0.000000
0.000000 0.815686 0.000000
0.003922 0.811765 0.000000
0.000000 0.815686 0.000000
0.125490 0.803922 0.003922
0.215686 0.811765 0.007843
0.278431 0.811765 0.000000
0.356863 0.807843 0.000000
0.407843 0.807843 0.003922
0.462745 0.807843 0.000000
0.521569 0.803922 0.003922
0.584314 0.792157 0.000000
0.635294 0.800000 0.000000
0.690196 0.796078 0.007843
0.737255 0.792157 0.003922
0.784314 0.796078 0.000000
0.843137 0.792157 0.000000
0.890196 0.780392 0.003922
0.937255 0.772549 0.003922
0.972549 0.760784 0.000000
0.996078 0.749020 0.000000
1.000000 0.737255 0.003922
1.000000 0.725490 0.003922
1.000000 0.713725 0.000000
1.000000 0.705882 0.003922
0.000000 0.843137 0.000000
0.011765 0.835294 0.000000
0.000000 0.839216 0.000000
0.000000 0.843137 0.000000
0.098039 0.847059 0.000000
0.184314 0.839216 0.000000
0.262745 0.843137 0.000000
0.333333 0.847059 0.003922
0.392157 0.843137 0.007843
0.450980 0.839216 0.003922
0.509804 0.835294 0.003922
0.564706 0.831373 0.003922
0.615686 0.835294 0.000000
0.666667 0.835294 0.000000
0.713725 0.835294 0.000000
0.776471 0.827451 0.000000
0.823529 0.823529 0.000000
0.882353 0.819608 0.000000
0.925490 0.815686 0.000000
0.972549 0.803922 0.007843
0.988235 0.800000 0.000000
0.996078 0.788235 0.000000
1.000000 0.772549 0.000000
1.000000 0.760784 0.000000
1.000000 0.752941 0.000000
0.003922 0.874510 0.007843
0.007843 0.878431 0.000000
0.000000 0.882353 0.000000
0.007843 0.874510 0.000000
0.054902 0.878431 0.011765
0.156863 0.882353 0.000000
0.250980 0.870588 0.003922
0.305882 0.870588 0.007843
0.372549 0.874510 0.000000
0.435294 0.874510 0.000000
0.494118 0.870588 0.000000
0.549020 0.870588 0.000000
0.600000 0.862745 0.000000
0.650980 0.862745 0.000000
0.705882 0.870588 0.000000
0.760784 0.862745 0.000000
0.815686 0.854902 0.000000
0.858824 0.858824 0.000000
0.905882 0.854902 0.000000
0.952941 0.847059 0.007843
0.992157 0.835294 0.003922
1.000000 0.823529 0.000000
1.000000 0.815686 0.007843
0.984314 0.796078 0.000000
1.000000 0.803922 0.000000
0.000000 0.905882 0.003922
0.000000 0.909804 0.000000
0.000000 0.909804 0.000000
0.003922 0.913725 0.003922
0.000000 0.905882 0.003922
0.152941 0.905882 0.000000
0.219608 0.909804 0.003922
0.298039 0.909804 0.003922
0.368627 0.905882 0.003922
0.427451 0.905882 0.000000
0.478431 0.905882 0.000000
0.525490 0.901961 0.000000
0.580392 0.898039 0.000000
0.639216 0.894118 0.007843
0.690196 0.898039 0.003922
0.737255 0.898039 0.003922
0.784314 0.898039 0.000000
0.831373 0.890196 0.007843
0.890196 0.886275 0.000000
0.937255 0.886275 0.000000
0.980392 0.882353 0.003922
1.000000 0.862745 0.000000
0.996078 0.854902 0.000000
1.000000 0.839216 0.003922
0.988235 0.831373 0.000000
0.007843 0.937255 0.000000
0.000000 0.945098 0.000000
0.000000 0.941176 0.003922
0.003922 0.937255 0.011765
0.011765 0.941176 0.000000
0.129412 0.941176 0.007843
0.219608 0.937255 0.003922
0.282353 0.937255 0.000000
0.341176 0.941176 0.000000
0.411765 0.941176 0.000000
0.462745 0.933333 0.000000
0.513725 0.933333 0.000000
0.568627 0.933333 0.000000
0.615686 0.929412 0.000000
0.674510 0.925490 0.000000
0.721569 0.929412 0.003922
0.772549 0.921569 0.000000
0.819608 0.925490 0.003922
0.870588 0.917647 0.000000
0.917647 0.917647 0.000000
0.976471 0.913725 0.000000
0.984314 0.913725 0.003922
0.996078 0.901961 0.000000
1.000000 0.886275 0.000000
1.000000 0.874510 0.000000
0.011765 0.976471 0.007843
0.000000 0.976471 0.000000
0.003922 0.980392 0.000000
0.000000 0.984314 0.000000
0.003922 0.988235 0.000000
0.133333 0.972549 0.015686
0.211765 0.972549 0.003922
0.278431 0.980392 0.003922
0.345098 0.972549 0.000000
0.400000 0.972549 0.003922
0.454902 0.972549 0.000000
0.505882 0.972549 0.000000
0.556863 0.972549 0.000000
0.611765 0.964706 0.000000
0.658824 0.964706 0.000000
0.709804 0.960784 0.000000
0.764706 0.960784 0.000000
0.807843 0.956863 0.003922
0.854902 0.956863 0.000000
0.901961 0.956863 0.000000
0.956863 0.949020 0.003922
0.984314 0.941176 0.000000
1.000000 0.941176 0.003922
1.000000 0.937255 0.003922
1.000000 0.917647 0.000000
0.000000 0.996078 0.000000
0.007843 0.992157 0.000000
0.003922 1.000000 0.007843
0.000000 1.000000 0.003922
0.000000 0.996078 0.000000
0.125490 1.000000 0.000000
0.207843 0.996078 0.000000
0.278431 1.000000 0.000000
0.325490 0.996078 0.000000
0.388235 0.996078 0.000000
0.443137 0.996078 0.000000
0.494118 0.992157 0.000000
0.541176 0.992157 0.000000
0.596078 0.992157 0.000000
0.650980 0.992157 0.000000
0.694118 0.988235 0.000000
0.741176 0.984314 0.000000
0.784314 0.984314 0.000000
0.827451 0.980392 0.000000
0.886275 0.972549 0.000000
0.933333 0.976471 0.000000
0.972549 0.976471 0.000000
1.000000 0.972549 0.000000
1.000000 0.968627 0.000000
1.000000 0.956863 0.000000
0.000000 0.996078 0.000000
0.003922 1.000000 0.000000
0.000000 1.000000 0.000000
0.000000 1.000000 0.000000
0.000000 0.996078 0.000000
0.121569 1.000000 0.000000
0.200000 1.000000 0.000000
0.254902 1.000000 0.000000
0.325490 0.996078 0.000000
0.380392 0.996078 0.000000
0.431373 0.996078 0.000000
0.486275 1.000000 0.003922
0.529412 1.000000 0.000000
0.580392 1.000000 0.003922
0.619608 1.000000 0.000000
0.682353 1.000000 0.000000
0.725490 1.000000 0.003922
0.764706 1.000000 0.003922
0.815686 1.000000 0.003922
0.862745 1.000000 0.007843
0.909804 1.000000 0.000000
0.937255 0.996078 0.003922
0.988235 0.992157 0.000000
0.996078 0.992157 0.007843
1.000000 0.984314 0.000000
0.000000 0.992157 0.007843
0.007843 1.000000 0.000000
0.000000 1.000000 0.000000
0.003922 1.000000 0.000000
0.000000 1.000000 0.000000
0.129412 1.000000 0.000000
0.188235 1.000000 0.000000
0.254902 1.000000 0.000000
0.313725 1.000000 0.000000
0.368627 1.000000 0.003922
0.415686 1.000000 0.000000
0.466667 1.000000 0.000000
0.517647 1.000000 0.000000
0.564706 1.000000 0.000000
0.607843 1.000000 0.000000
0.658824 1.000000 0.000000
0.701961 1.000000 0.000000
0.752941 1.000000 0.000000
0.792157 1.000000 0.003922
0.839216 1.000000 0.000000
0.870588 1.000000 0.000000
0.921569 1.000000 0.000000
0.960784 1.000000 0.003922
0.996078 1.000000 0.000000
1.000000 1.000000 0.000000
0.000000 0.996078 0.000000
0.000000 1.000000 0.003922
0.000000 1.000000 0.000000
0.000000 1.000000 0.000000
0.043137 1.000000 0.000000
0.149020 1.000000 0.000000
0.211765 1.000000 0.000000
0.258824 1.000000 0.000000
0.309804 1.000000 0.000000
0.368627 1.000000 0.003922
0.411765 1.000000 0.000000
0.462745 1.000000 0.000000
0.505882 0.996078 0.000000
0.556863 1.000000 0.003922
0.600000 0.996078 0.000000
0.647059 1.000000 0.003922
0.682353 0.996078 0.000000
0.725490 1.000000 0.000000
0.776471 1.000000 0.000000
0.819608 1.000000 0.000000
0.858824 1.000000 0.000000
0.894118 1.000000 0.000000
0.933333 1.000000 0.000000
0.976471 1.000000 0.003922
0.996078 0.996078 0.000000
0.152941 0.129412 0.137255
0.152941 0.129412 0.137255
0.184314 0.121569 0.133333
0.207843 0.121569 0.133333
0.235294 0.109804 0.129412
0.274510 0.121569 0.141176
0.305882 0.113725 0.137255
0.349020 0.109804 0.141176
0.396078 0.098039 0.137255
0.443137 0.101961 0.133333
0.494118 0.098039 0.129412
0.560784 0.090196 0.129412
0.615686 0.082353 0.121569
0.682353 0.070588 0.121569
0.745098 0.058824 0.117647
0.796078 0.047059 0.105882
0.854902 0.039216 0.094118
0.905882 0.023529 0.094118
0.949020 0.011765 0.086275
0.980392 0.003922 0.082353
1.000000 0.000000 0.082353
1.000000 0.000000 0.070588
0.992157 0.003922 0.062745
0.996078 0.000000 0.050980
0.988235 0.003922 0.039216
0.152941 0.133333 0.149020
0.164706 0.129412 0.133333
0.184314 0.129412 0.125490
0.215686 0.125490 0.149020
0.239216 0.129412 0.125490
0.262745 0.129412 0.133333
0.309804 0.129412 0.137255
0.352941 0.121569 0.137255
0.392157 0.113725 0.129412
0.443137 0.121569 0.129412
0.498039 0.121569 0.125490
0.556863 0.113725 0.121569
0.623529 0.113725 0.121569
0.690196 0.105882 0.113725
0.745098 0.098039 0.113725
0.807843 0.090196 0.109804
0.850980 0.082353 0.098039
0.901961 0.078431 0.090196
0.949020 0.074510 0.078431
0.988235 0.070588 0.082353
1.000000 0.058824 0.070588
1.000000 0.050980 0.066667
1.000000 0.043137 0.070588
0.996078 0.039216 0.039216
1.000000 0.027451 0.027451
0.156863 0.160784 0.141176
0.164706 0.152941 0.133333
0.188235 0.160784 0.137255
0.207843 0.149020 0.129412
0.231373 0.149020 0.129412
0.274510 0.152941 0.145098
0.309804 0.149020 0.133333
0.349020 0.149020 0.137255
0.396078 0.145098 0.137255
0.443137 0.149020 0.137255
0.498039 0.149020 0.133333
0.556863 0.145098 0.129412
0.619608 0.145098 0.113725
0.682353 0.145098 0.113725
0.741176 0.137255 0.105882
0.807843 0.137255 0.109804
0.850980 0.129412 0.098039
0.901961 0.121569 0.094118
0.952941 0.117647 0.086275
0.984314 0.113725 0.070588
1.000000 0.113725 0.058824
0.996078 0.109804 0.054902
1.000000 0.098039 0.039216
1.000000 0.090196 0.035294
0.992157 0.082353 0.027451
0.152941 0.180392 0.149020
0.160784 0.184314 0.129412
0.176471 0.184314 0.141176
0.215686 0.176471 0.137255
0.239216 0.184314 0.141176
0.266667 0.180392 0.129412
0.309804 0.176471 0.137255
0.352941 0.168627 0.129412
0.400000 0.172549 0.129412
0.447059 0.172549 0.133333
0.501961 0.180392 0.133333
0.556863 0.180392 0.125490
0.611765 0.180392 0.121569
0.682353 0.184314 0.109804
0.737255 0.180392 0.101961
0.800000 0.176471 0.101961
0.847059 0.172549 0.086275
0.898039 0.168627 0.086275
0.945098 0.168627 0.066667
0.980392 0.164706 0.062745
1.000000 0.156863 0.058824
1.000000 0.156863 0.047059
0.996078 0.152941 0.043137
1.000000 0.141176 0.023529
0.996078 0.145098 0.015686
0.160784 0.207843 0.129412
0.164706 0.211765 0.133333
0.192157 0.203922 0.121569
0.211765 0.207843 0.137255
0.235294 0.207843 0.133333
0.278431 0.207843 0.129412
0.309804 0.211765 0.133333
0.349020 0.211765 0.133333
0.392157 0.207843 0.129412
0.450980 0.211765 0.129412
0.498039 0.223529 0.125490
0.556863 0.219608 0.121569
0.619608 0.227451 0.101961
0.678431 0.227451 0.105882
0.737255 0.227451 0.094118
0.792157 0.227451 0.090196
0.843137 0.223529 0.078431
0.886275 0.219608 0.078431
0.937255 0.215686 0.066667
0.984314 0.207843 0.062745
1.000000 0.203922 0.047059
1.000000 0.200000 0.043137
1.000000 0.196078 0.027451
1.000000 0.196078 0.019608
1.000000 0.192157 0.007843
0.152941 0.243137 0.129412
0.176471 0.250980 0.133333
0.192157 0.250980 0.129412
0.211765 0.254902 0.129412
0.250980 0.247059 0.129412
0.286275 0.250980 0.129412
0.313725 0.250980 0.121569
0.364706 0.250980 0.125490
0.411765 0.258824 0.129412
0.454902 0.258824 0.121569
0.505882 0.262745 0.117647
0.568627 0.262745 0.109804
0.631373 0.274510 0.098039
0.701961 0.278431 0.094118
0.764706 0.274510 0.086275
0.819608 0.270588 0.078431
0.866667 0.270588 0.074510
0.909804 0.266667 0.066667
0.952941 0.266667 0.050980
0.988235 0.262745 0.043137
1.000000 0.258824 0.031373
1.000000 0.250980 0.019608
0.996078 0.250980 0.015686
1.000000 0.243137 0.011765
0.996078 0.243137 0.000000
0.149020 0.294118 0.121569
0.176471 0.286275 0.125490
0.184314 0.298039 0.117647
0.219608 0.290196 0.125490
0.239216 0.290196 0.117647
0.286275 0.298039 0.121569
0.321569 0.294118 0.121569
0.360784 0.294118 0.121569
0.407843 0.298039 0.113725
0.462745 0.305882 0.105882
0.513725 0.313725 0.105882
0.572549 0.317647 0.098039
0.635294 0.325490 0.094118
0.698039 0.321569 0.082353
0.756863 0.325490 0.078431
0.811765 0.329412 0.062745
0.862745 0.325490 0.050980
0.909804 0.317647 0.039216
0.956863 0.313725 0.031373
0.988235 0.305882 0.019608
1.000000 0.305882 0.007843
1.000000 0.305882 0.000000
1.000000 0.298039 0.000000
0.996078 0.290196 0.000000
0.996078 0.286275 0.000000
0.145098 0.337255 0.121569
0.164706 0.341176 0.109804
0.188235 0.341176 0.117647
0.215686 0.337255 0.113725
0.250980 0.345098 0.109804
0.298039 0.341176 0.105882
0.321569 0.345098 0.109804
0.368627 0.345098 0.109804
0.419608 0.349020 0.098039
0.462745 0.356863 0.094118
0.517647 0.368627 0.090196
0.576471 0.372549 0.078431
0.639216 0.376471 0.066667
0.690196 0.384314 0.058824
0.756863 0.380392 0.043137
0.803922 0.380392 0.035294
0.850980 0.376471 0.011765
0.894118 0.372549 0.000000
0.949020 0.364706 0.000000
0.988235 0.356863 0.000000
1.000000 0.356863 0.003922
1.000000 0.352941 0.003922
1.000000 0.345098 0.000000
1.000000 0.333333 0.000000
1.000000 0.333333 0.000000
0.137255 0.388235 0.082353
0.152941 0.396078 0.101961
0.172549 0.403922 0.090196
0.203922 0.403922 0.094118
0.250980 0.403922 0.094118
0.286275 0.400000 0.078431
0.329412 0.403922 0.086275
0.376471 0.407843 0.082353
0.415686 0.407843 0.074510
0.466667 0.411765 0.066667
0.521569 0.419608 0.054902
0.580392 0.427451 0.031373
0.639216 0.431373 0.023529
0.698039 0.431373 0.011765
0.752941 0.431373 0.007843
0.803922 0.427451 0.000000
0.854902 0.419608 0.007843
0.898039 0.415686 0.007843
0.945098 0.411765 0.011765
0.980392 0.407843 0.003922
1.000000 0.403922 0.003922
1.000000 0.392157 0.000000
1.000000 0.392157 0.000000
1.000000 0.392157 0.000000
1.000000 0.376471 0.000000
0.105882 0.462745 0.058824
0.129412 0.462745 0.058824
0.160784 0.470588 0.050980
0.184314 0.466667 0.043137
0.247059 0.466667 0.047059
0.294118 0.462745 0.039216
0.325490 0.466667 0.035294
0.380392 0.466667 0.039216
0.431373 0.470588 0.027451
0.478431 0.466667 0.015686
0.533333 0.474510 0.007843
0.596078 0.470588 0.000000
0.654902 0.482353 0.007843
0.698039 0.478431 0.003922
0.752941 0.478431 0.000000
0.807843 0.478431 0.000000
0.847059 0.470588 0.000000
0.886275 0.470588 0.000000
0.933333 0.462745 0.000000
0.972549 0.458824 0.000000
0.992157 0.454902 0.007843
0.996078 0.447059 0.003922
0.996078 0.439216 0.000000
1.000000 0.435294 0.000000
1.000000 0.427451 0.000000
0.019608 0.552941 0.000000
0.078431 0.541176 0.000000
0.133333 0.552941 0.011765
0.184314 0.549020 0.000000
0.231373 0.549020 0.003922
0.282353 0.552941 0.000000
0.337255 0.549020 0.000000
0.396078 0.545098 0.000000
0.439216 0.545098 0.000000
0.498039 0.549020 0.000000
0.549020 0.545098 0.000000
