loleis/其他/lut20种/Sports LUT #20.cube
TITLE "Sports LUT #20"
#LUT size
LUT_3D_SIZE 5
#LUT data points
0.105882 0.101961 0.094118
0.329412 0.101961 0.098039
0.643137 0.086275 0.082353
0.925490 0.082353 0.074510
1.000000 0.113725 0.058824
0.121569 0.305882 0.094118
0.321569 0.313725 0.090196
0.654902 0.329412 0.070588
0.917647 0.325490 0.047059
1.000000 0.313725 0.039216
0.113725 0.643137 0.007843
0.356863 0.643137 0.000000
0.650980 0.627451 0.000000
0.901961 0.600000 0.000000
0.996078 0.568627 0.000000
0.196078 0.866667 0.003922
0.356863 0.866667 0.003922
0.607843 0.858824 0.000000
0.862745 0.843137 0.000000
0.996078 0.815686 0.000000
0.329412 0.996078 0.168627
0.419608 1.000000 0.192157
0.596078 1.000000 0.192157
0.807843 1.000000 0.192157
0.996078 1.000000 0.215686
0.121569 0.094118 0.298039
0.325490 0.094118 0.305882
0.643137 0.003922 0.313725
0.925490 0.000000 0.290196
0.996078 0.054902 0.294118
0.109804 0.298039 0.298039
0.325490 0.305882 0.290196
0.647059 0.301961 0.294118
0.913725 0.290196 0.278431
1.000000 0.294118 0.290196
0.000000 0.627451 0.274510
0.321569 0.631373 0.270588
0.647059 0.619608 0.262745
0.898039 0.592157 0.270588
1.000000 0.568627 0.286275
0.188235 0.854902 0.262745
0.356863 0.858824 0.274510
0.603922 0.847059 0.270588
0.862745 0.839216 0.266667
1.000000 0.803922 0.282353
0.345098 1.000000 0.325490
0.431373 1.000000 0.341176
0.592157 1.000000 0.341176
0.807843 1.000000 0.337255
0.996078 1.000000 0.356863
0.149020 0.078431 0.611765
0.352941 0.047059 0.619608
0.650980 0.000000 0.619608
0.913725 0.000000 0.580392
1.000000 0.125490 0.564706
0.000000 0.301961 0.623529
0.325490 0.298039 0.611765
0.647059 0.278431 0.615686
0.913725 0.282353 0.580392
1.000000 0.352941 0.580392
0.000000 0.627451 0.607843
0.325490 0.623529 0.615686
0.647059 0.615686 0.603922
0.878431 0.603922 0.596078
0.992157 0.611765 0.588235
0.286275 0.854902 0.584314
0.423529 0.858824 0.592157
0.635294 0.850980 0.588235
0.858824 0.839216 0.580392
1.000000 0.831373 0.584314
0.450980 0.996078 0.592157
0.509804 1.000000 0.600000
0.639216 1.000000 0.596078
0.823529 1.000000 0.603922
0.992157 1.000000 0.600000
0.184314 0.062745 0.854902
0.356863 0.035294 0.854902
0.611765 0.003922 0.850980
0.874510 0.000000 0.850980
0.996078 0.094118 0.823529
0.125490 0.274510 0.850980
0.329412 0.266667 0.847059
0.603922 0.266667 0.850980
0.866667 0.270588 0.839216
1.000000 0.333333 0.815686
0.184314 0.572549 0.839216
0.364706 0.580392 0.835294
0.619608 0.584314 0.839216
0.858824 0.584314 0.831373
1.000000 0.603922 0.823529
0.305882 0.839216 0.823529
0.423529 0.839216 0.831373
0.631373 0.835294 0.827451
0.850980 0.835294 0.823529
0.996078 0.835294 0.827451
0.498039 1.000000 0.800000
0.556863 1.000000 0.811765
0.698039 1.000000 0.827451
0.847059 1.000000 0.823529
1.000000 0.996078 0.823529
0.227451 0.058824 1.000000
0.356863 0.047059 0.996078
0.572549 0.007843 1.000000
0.807843 0.003922 0.996078
1.000000 0.145098 1.000000
0.223529 0.266667 1.000000
0.352941 0.274510 1.000000
0.572549 0.274510 1.000000
0.807843 0.282353 1.000000
0.992157 0.337255 0.996078
0.321569 0.556863 0.996078
0.423529 0.572549 1.000000
0.603922 0.568627 0.996078
0.811765 0.568627 0.996078
1.000000 0.592157 0.996078
0.423529 0.792157 0.992157
0.501961 0.800000 0.996078
0.650980 0.807843 1.000000
0.843137 0.819608 1.000000
0.996078 0.827451 1.000000
0.545098 1.000000 1.000000
0.600000 1.000000 1.000000
0.709804 1.000000 0.996078
0.866667 1.000000 0.996078
1.000000 1.000000 1.000000
