loleis/其他/lut20种/Sports LUT #13.cube
TITLE "Sports LUT #13"
#LUT size
LUT_3D_SIZE 5
#LUT data points
0.000000 0.000000 0.000000
0.427451 0.003922 0.003922
0.721569 0.015686 0.058824
0.925490 0.117647 0.156863
0.992157 0.196078 0.219608
0.000000 0.407843 0.074510
0.396078 0.400000 0.086275
0.690196 0.368627 0.141176
0.901961 0.356863 0.203922
1.000000 0.352941 0.250980
0.149020 0.670588 0.219608
0.356863 0.662745 0.231373
0.635294 0.658824 0.243137
0.870588 0.619608 0.274510
1.000000 0.596078 0.301961
0.282353 0.858824 0.349020
0.384314 0.850980 0.341176
0.596078 0.850980 0.349020
0.823529 0.843137 0.349020
1.000000 0.831373 0.380392
0.380392 1.000000 0.423529
0.443137 1.000000 0.427451
0.596078 1.000000 0.427451
0.788235 1.000000 0.435294
0.984314 1.000000 0.447059
0.000000 0.003922 0.439216
0.407843 0.019608 0.435294
0.694118 0.168627 0.415686
0.886275 0.274510 0.419608
0.992157 0.325490 0.427451
0.109804 0.396078 0.423529
0.388235 0.400000 0.419608
0.674510 0.400000 0.431373
0.878431 0.411765 0.427451
1.000000 0.423529 0.454902
0.258824 0.654902 0.435294
0.396078 0.662745 0.439216
0.631373 0.650980 0.439216
0.854902 0.627451 0.447059
1.000000 0.615686 0.454902
0.349020 0.850980 0.470588
0.435294 0.847059 0.474510
0.611765 0.843137 0.474510
0.827451 0.843137 0.470588
1.000000 0.835294 0.494118
0.419608 1.000000 0.521569
0.478431 1.000000 0.509804
0.611765 1.000000 0.505882
0.796078 1.000000 0.513725
0.984314 1.000000 0.525490
0.062745 0.062745 0.682353
0.349020 0.125490 0.686275
0.647059 0.200000 0.686275
0.886275 0.282353 0.650980
1.000000 0.376471 0.639216
0.231373 0.396078 0.678431
0.380392 0.407843 0.682353
0.635294 0.411765 0.678431
0.862745 0.443137 0.654902
1.000000 0.478431 0.647059
0.313725 0.647059 0.666667
0.439216 0.647059 0.670588
0.635294 0.647059 0.666667
0.839216 0.647059 0.662745
1.000000 0.647059 0.674510
0.400000 0.843137 0.662745
0.478431 0.843137 0.666667
0.631373 0.850980 0.666667
0.827451 0.839216 0.662745
1.000000 0.843137 0.670588
0.474510 0.996078 0.670588
0.529412 0.996078 0.666667
0.639216 1.000000 0.666667
0.807843 1.000000 0.670588
0.988235 1.000000 0.674510
0.168627 0.168627 0.882353
0.341176 0.196078 0.882353
0.584314 0.254902 0.874510
0.827451 0.313725 0.862745
0.992157 0.380392 0.862745
0.301961 0.403922 0.870588
0.403922 0.415686 0.874510
0.603922 0.431373 0.874510
0.823529 0.447059 0.866667
0.996078 0.482353 0.858824
0.407843 0.627451 0.858824
0.478431 0.639216 0.858824
0.631373 0.639216 0.862745
0.827451 0.643137 0.858824
0.996078 0.647059 0.866667
0.423529 0.835294 0.847059
0.486275 0.835294 0.858824
0.639216 0.839216 0.854902
0.823529 0.835294 0.854902
0.992157 0.850980 0.866667
0.466667 1.000000 0.850980
0.525490 1.000000 0.839216
0.666667 1.000000 0.847059
0.850980 0.996078 0.862745
0.992157 1.000000 0.854902
0.247059 0.243137 0.996078
0.356863 0.258824 0.996078
0.560784 0.298039 0.996078
0.780392 0.356863 1.000000
1.000000 0.419608 1.000000
0.345098 0.411765 1.000000
0.415686 0.423529 1.000000
0.588235 0.443137 1.000000
0.792157 0.462745 1.000000
1.000000 0.498039 1.000000
0.470588 0.643137 0.992157
0.509804 0.639216 1.000000
0.635294 0.639216 0.992157
0.803922 0.647059 0.996078
0.992157 0.654902 0.996078
0.501961 0.819608 1.000000
0.556863 0.815686 1.000000
0.678431 0.823529 1.000000
0.831373 0.839216 1.000000
1.000000 0.850980 1.000000
0.537255 1.000000 1.000000
0.584314 1.000000 1.000000
0.705882 1.000000 1.000000
0.890196 1.000000 0.996078
1.000000 0.996078 1.000000
