loleis/其他/lut20种/Sports LUT #4.cube
TITLE "Sports LUT #4"
#LUT size
LUT_3D_SIZE 25
#LUT data points
0.145098 0.109804 0.121569
0.152941 0.113725 0.117647
0.172549 0.113725 0.125490
0.184314 0.109804 0.125490
0.200000 0.113725 0.125490
0.219608 0.113725 0.133333
0.239216 0.113725 0.133333
0.266667 0.113725 0.133333
0.282353 0.113725 0.141176
0.313725 0.113725 0.141176
0.349020 0.117647 0.141176
0.372549 0.117647 0.141176
0.411765 0.117647 0.145098
0.454902 0.121569 0.149020
0.498039 0.125490 0.149020
0.537255 0.125490 0.145098
0.592157 0.125490 0.149020
0.639216 0.125490 0.156863
0.698039 0.125490 0.164706
0.745098 0.129412 0.156863
0.803922 0.133333 0.164706
0.858824 0.137255 0.168627
0.905882 0.141176 0.164706
0.952941 0.149020 0.176471
0.980392 0.152941 0.176471
0.160784 0.121569 0.125490
0.160784 0.117647 0.133333
0.168627 0.121569 0.129412
0.196078 0.121569 0.137255
0.203922 0.117647 0.125490
0.223529 0.125490 0.137255
0.239216 0.117647 0.137255
0.258824 0.125490 0.129412
0.286275 0.121569 0.129412
0.317647 0.125490 0.137255
0.349020 0.129412 0.141176
0.380392 0.125490 0.141176
0.419608 0.125490 0.145098
0.462745 0.129412 0.149020
0.505882 0.133333 0.149020
0.552941 0.137255 0.152941
0.603922 0.137255 0.152941
0.647059 0.133333 0.152941
0.701961 0.141176 0.156863
0.756863 0.145098 0.160784
0.811765 0.149020 0.160784
0.858824 0.152941 0.164706
0.898039 0.149020 0.168627
0.952941 0.156863 0.168627
0.988235 0.168627 0.188235
0.156863 0.145098 0.125490
0.164706 0.133333 0.125490
0.176471 0.137255 0.133333
0.200000 0.125490 0.141176
0.207843 0.137255 0.121569
0.227451 0.133333 0.133333
0.235294 0.133333 0.129412
0.270588 0.137255 0.133333
0.298039 0.141176 0.141176
0.329412 0.141176 0.141176
0.356863 0.137255 0.141176
0.396078 0.137255 0.145098
0.431373 0.141176 0.145098
0.474510 0.141176 0.152941
0.513725 0.145098 0.145098
0.556863 0.149020 0.145098
0.603922 0.149020 0.149020
0.654902 0.152941 0.149020
0.717647 0.160784 0.156863
0.768627 0.164706 0.164706
0.815686 0.168627 0.160784
0.870588 0.172549 0.172549
0.913725 0.172549 0.164706
0.964706 0.188235 0.184314
0.992157 0.184314 0.184314
0.172549 0.156863 0.121569
0.172549 0.152941 0.137255
0.184314 0.145098 0.137255
0.196078 0.152941 0.137255
0.211765 0.152941 0.125490
0.231373 0.156863 0.141176
0.258824 0.149020 0.145098
0.274510 0.152941 0.145098
0.301961 0.152941 0.149020
0.333333 0.152941 0.152941
0.364706 0.152941 0.145098
0.396078 0.156863 0.145098
0.435294 0.160784 0.152941
0.486275 0.160784 0.145098
0.521569 0.164706 0.152941
0.568627 0.168627 0.152941
0.619608 0.176471 0.152941
0.678431 0.180392 0.156863
0.729412 0.184314 0.156863
0.784314 0.184314 0.160784
0.831373 0.192157 0.164706
0.878431 0.196078 0.168627
0.937255 0.203922 0.184314
0.968627 0.207843 0.172549
0.996078 0.215686 0.196078
0.164706 0.172549 0.129412
0.176471 0.176471 0.145098
0.172549 0.172549 0.133333
0.200000 0.172549 0.141176
0.207843 0.168627 0.133333
0.243137 0.176471 0.149020
0.254902 0.176471 0.149020
0.286275 0.172549 0.149020
0.309804 0.172549 0.149020
0.333333 0.176471 0.145098
0.368627 0.180392 0.141176
0.407843 0.176471 0.145098
0.447059 0.184314 0.149020
0.490196 0.188235 0.156863
0.533333 0.192157 0.152941
0.584314 0.200000 0.156863
0.639216 0.207843 0.156863
0.690196 0.207843 0.149020
0.745098 0.211765 0.156863
0.796078 0.223529 0.164706
0.839216 0.223529 0.164706
0.882353 0.223529 0.172549
0.933333 0.227451 0.172549
0.968627 0.231373 0.184314
0.996078 0.243137 0.192157
0.180392 0.188235 0.145098
0.176471 0.184314 0.141176
0.192157 0.180392 0.145098
0.200000 0.184314 0.141176
0.215686 0.180392 0.145098
0.235294 0.184314 0.149020
0.254902 0.188235 0.149020
0.278431 0.192157 0.149020
0.294118 0.188235 0.152941
0.325490 0.192157 0.152941
0.352941 0.196078 0.156863
0.388235 0.200000 0.152941
0.431373 0.203922 0.156863
0.474510 0.207843 0.156863
0.517647 0.215686 0.152941
0.560784 0.215686 0.160784
0.607843 0.227451 0.160784
0.658824 0.227451 0.160784
0.709804 0.235294 0.160784
0.764706 0.247059 0.164706
0.815686 0.247059 0.164706
0.858824 0.250980 0.164706
0.905882 0.254902 0.168627
0.949020 0.262745 0.180392
0.984314 0.266667 0.196078
0.188235 0.215686 0.152941
0.188235 0.215686 0.145098
0.196078 0.211765 0.145098
0.203922 0.215686 0.149020
0.219608 0.211765 0.152941
0.239216 0.219608 0.145098
0.258824 0.215686 0.145098
0.286275 0.211765 0.152941
0.317647 0.215686 0.156863
0.341176 0.219608 0.149020
0.368627 0.223529 0.152941
0.407843 0.231373 0.156863
0.439216 0.239216 0.156863
0.482353 0.243137 0.160784
0.517647 0.250980 0.160784
0.568627 0.254902 0.156863
0.619608 0.258824 0.160784
0.670588 0.262745 0.164706
0.721569 0.274510 0.168627
0.768627 0.278431 0.168627
0.823529 0.282353 0.172549
0.866667 0.286275 0.176471
0.909804 0.290196 0.176471
0.956863 0.290196 0.188235
0.996078 0.298039 0.196078
0.188235 0.243137 0.152941
0.188235 0.250980 0.149020
0.192157 0.239216 0.145098
0.219608 0.250980 0.168627
0.223529 0.247059 0.145098
0.250980 0.243137 0.152941
0.270588 0.247059 0.152941
0.294118 0.247059 0.152941
0.325490 0.254902 0.160784
0.352941 0.258824 0.156863
0.384314 0.262745 0.152941
0.423529 0.266667 0.164706
0.458824 0.274510 0.164706
0.494118 0.278431 0.160784
0.541176 0.286275 0.160784
0.588235 0.294118 0.168627
0.635294 0.298039 0.160784
0.690196 0.305882 0.160784
0.741176 0.309804 0.164706
0.796078 0.317647 0.172549
0.843137 0.325490 0.176471
0.886275 0.329412 0.188235
0.929412 0.333333 0.180392
0.972549 0.329412 0.184314
0.988235 0.345098 0.200000
0.192157 0.286275 0.152941
0.196078 0.290196 0.149020
0.207843 0.282353 0.156863
0.219608 0.270588 0.152941
0.231373 0.290196 0.160784
0.258824 0.286275 0.152941
0.282353 0.286275 0.152941
0.309804 0.294118 0.156863
0.333333 0.294118 0.156863
0.368627 0.298039 0.156863
0.403922 0.301961 0.156863
0.439216 0.305882 0.156863
0.474510 0.309804 0.160784
0.505882 0.329412 0.164706
0.549020 0.337255 0.164706
0.600000 0.337255 0.168627
0.647059 0.345098 0.164706
0.701961 0.345098 0.160784
0.749020 0.356863 0.164706
0.800000 0.360784 0.172549
0.847059 0.368627 0.184314
0.898039 0.368627 0.180392
0.937255 0.380392 0.200000
0.976471 0.384314 0.200000
0.992157 0.376471 0.200000
0.196078 0.337255 0.156863
0.203922 0.325490 0.152941
0.215686 0.329412 0.149020
0.227451 0.325490 0.160784
0.239216 0.329412 0.149020
0.266667 0.333333 0.156863
0.290196 0.337255 0.156863
0.313725 0.337255 0.156863
0.349020 0.341176 0.152941
0.376471 0.345098 0.152941
0.411765 0.349020 0.149020
0.447059 0.356863 0.160784
0.490196 0.360784 0.152941
0.529412 0.368627 0.164706
0.572549 0.372549 0.164706
0.619608 0.380392 0.164706
0.666667 0.388235 0.168627
0.709804 0.392157 0.172549
0.764706 0.400000 0.176471
0.811765 0.407843 0.180392
0.854902 0.411765 0.184314
0.894118 0.411765 0.188235
0.937255 0.415686 0.192157
0.980392 0.415686 0.207843
1.000000 0.423529 0.219608
0.196078 0.337255 0.156863
0.196078 0.337255 0.149020
0.211765 0.337255 0.145098
0.227451 0.341176 0.152941
0.235294 0.337255 0.149020
0.258824 0.345098 0.152941
0.282353 0.345098 0.152941
0.313725 0.352941 0.156863
0.333333 0.360784 0.156863
0.368627 0.360784 0.160784
0.403922 0.368627 0.152941
0.431373 0.372549 0.149020
0.478431 0.380392 0.156863
0.513725 0.388235 0.156863
0.552941 0.396078 0.156863
0.600000 0.403922 0.164706
0.647059 0.411765 0.168627
0.694118 0.419608 0.176471
0.741176 0.423529 0.168627
0.792157 0.431373 0.168627
0.843137 0.439216 0.180392
0.886275 0.439216 0.192157
0.929412 0.450980 0.203922
0.972549 0.450980 0.219608
0.996078 0.454902 0.207843
0.207843 0.411765 0.152941
0.200000 0.403922 0.145098
0.211765 0.403922 0.145098
0.239216 0.403922 0.152941
0.250980 0.403922 0.156863
0.262745 0.396078 0.156863
0.290196 0.411765 0.145098
0.321569 0.407843 0.152941
0.352941 0.411765 0.156863
0.380392 0.415686 0.152941
0.415686 0.419608 0.152941
0.458824 0.431373 0.156863
0.490196 0.435294 0.156863
0.533333 0.439216 0.156863
0.576471 0.443137 0.160784
0.611765 0.458824 0.149020
0.662745 0.458824 0.160784
0.705882 0.462745 0.160784
0.752941 0.470588 0.172549
0.800000 0.474510 0.176471
0.847059 0.478431 0.188235
0.890196 0.482353 0.196078
0.933333 0.486275 0.211765
0.968627 0.494118 0.215686
0.996078 0.498039 0.227451
0.207843 0.474510 0.149020
0.203922 0.458824 0.137255
0.223529 0.454902 0.133333
0.227451 0.458824 0.137255
0.250980 0.450980 0.149020
0.270588 0.462745 0.152941
0.294118 0.462745 0.141176
0.329412 0.466667 0.145098
0.356863 0.470588 0.141176
0.392157 0.478431 0.152941
0.427451 0.482353 0.149020
0.470588 0.486275 0.152941
0.509804 0.494118 0.152941
0.541176 0.494118 0.156863
0.596078 0.501961 0.156863
0.631373 0.509804 0.156863
0.674510 0.513725 0.152941
0.717647 0.517647 0.156863
0.772549 0.521569 0.168627
0.807843 0.529412 0.184314
0.854902 0.533333 0.196078
0.894118 0.533333 0.200000
0.941176 0.525490 0.219608
0.976471 0.541176 0.223529
1.000000 0.541176 0.266667
0.203922 0.525490 0.141176
0.200000 0.529412 0.145098
0.207843 0.525490 0.125490
0.239216 0.513725 0.137255
0.254902 0.517647 0.145098
0.270588 0.521569 0.141176
0.301961 0.521569 0.141176
0.329412 0.525490 0.137255
0.364706 0.529412 0.145098
0.403922 0.529412 0.141176
0.439216 0.533333 0.149020
0.482353 0.537255 0.152941
0.521569 0.541176 0.149020
0.564706 0.545098 0.145098
0.607843 0.549020 0.152941
0.654902 0.556863 0.160784
0.698039 0.560784 0.160784
0.752941 0.564706 0.164706
0.788235 0.572549 0.176471
0.835294 0.576471 0.196078
0.874510 0.584314 0.203922
0.913725 0.588235 0.227451
0.956863 0.580392 0.250980
0.988235 0.588235 0.254902
1.000000 0.592157 0.274510
0.192157 0.576471 0.133333
0.200000 0.576471 0.145098
0.211765 0.580392 0.133333
0.231373 0.568627 0.141176
0.250980 0.572549 0.137255
0.274510 0.576471 0.137255
0.305882 0.572549 0.137255
0.345098 0.576471 0.145098
0.376471 0.580392 0.145098
0.415686 0.588235 0.152941
0.458824 0.592157 0.152941
0.498039 0.592157 0.160784
0.533333 0.600000 0.149020
0.576471 0.603922 0.156863
0.615686 0.611765 0.156863
0.662745 0.619608 0.164706
0.709804 0.619608 0.172549
0.752941 0.623529 0.172549
0.803922 0.627451 0.176471
0.835294 0.627451 0.180392
0.882353 0.619608 0.211765
0.913725 0.627451 0.227451
0.952941 0.623529 0.239216
0.980392 0.623529 0.258824
1.000000 0.631373 0.286275
0.184314 0.576471 0.129412
0.196078 0.580392 0.137255
0.207843 0.576471 0.129412
0.231373 0.584314 0.137255
0.243137 0.584314 0.141176
0.274510 0.588235 0.137255
0.294118 0.584314 0.133333
0.325490 0.596078 0.141176
0.360784 0.600000 0.141176
0.396078 0.603922 0.141176
0.435294 0.611765 0.145098
0.466667 0.615686 0.141176
0.513725 0.623529 0.149020
0.556863 0.627451 0.149020
0.600000 0.631373 0.152941
0.647059 0.639216 0.156863
0.690196 0.647059 0.160784
0.745098 0.650980 0.172549
0.788235 0.650980 0.180392
0.831373 0.654902 0.188235
0.870588 0.650980 0.207843
0.905882 0.654902 0.231373
0.945098 0.658824 0.247059
0.980392 0.658824 0.266667
1.000000 0.658824 0.286275
0.172549 0.674510 0.129412
0.188235 0.658824 0.137255
0.215686 0.658824 0.141176
0.219608 0.654902 0.141176
0.247059 0.650980 0.121569
0.266667 0.658824 0.141176
0.309804 0.650980 0.141176
0.337255 0.662745 0.145098
0.368627 0.666667 0.149020
0.403922 0.666667 0.149020
0.443137 0.666667 0.145098
0.490196 0.678431 0.149020
0.529412 0.674510 0.156863
0.572549 0.678431 0.156863
0.615686 0.686275 0.160784
0.662745 0.690196 0.172549
0.705882 0.694118 0.180392
0.745098 0.694118 0.184314
0.788235 0.698039 0.196078
0.831373 0.698039 0.211765
0.866667 0.701961 0.227451
0.905882 0.701961 0.231373
0.945098 0.705882 0.247059
0.980392 0.701961 0.278431
1.000000 0.705882 0.309804
0.192157 0.717647 0.141176
0.196078 0.717647 0.156863
0.200000 0.721569 0.152941
0.227451 0.713725 0.141176
0.250980 0.717647 0.152941
0.274510 0.713725 0.149020
0.309804 0.713725 0.152941
0.345098 0.717647 0.160784
0.384314 0.717647 0.156863
0.419608 0.725490 0.156863
0.458824 0.721569 0.164706
0.501961 0.725490 0.164706
0.545098 0.733333 0.168627
0.580392 0.733333 0.172549
0.627451 0.741176 0.192157
0.666667 0.737255 0.196078
0.709804 0.741176 0.200000
0.752941 0.745098 0.207843
0.796078 0.749020 0.223529
0.839216 0.749020 0.239216
0.874510 0.752941 0.254902
0.913725 0.752941 0.258824
0.952941 0.756863 0.282353
0.988235 0.745098 0.309804
0.996078 0.756863 0.341176
0.211765 0.780392 0.180392
0.223529 0.776471 0.164706
0.223529 0.760784 0.164706
0.235294 0.776471 0.164706
0.262745 0.760784 0.164706
0.294118 0.764706 0.176471
0.321569 0.764706 0.176471
0.356863 0.764706 0.180392
0.396078 0.772549 0.188235
0.439216 0.776471 0.192157
0.470588 0.780392 0.188235
0.509804 0.776471 0.192157
0.545098 0.780392 0.200000
0.592157 0.780392 0.207843
0.635294 0.784314 0.215686
0.678431 0.784314 0.223529
0.717647 0.792157 0.235294
0.768627 0.796078 0.254902
0.807843 0.800000 0.270588
0.843137 0.803922 0.278431
0.882353 0.803922 0.290196
0.917647 0.807843 0.313725
0.956863 0.807843 0.317647
0.992157 0.796078 0.352941
1.000000 0.800000 0.372549
0.243137 0.831373 0.215686
0.239216 0.827451 0.211765
0.247059 0.815686 0.215686
0.266667 0.815686 0.200000
0.290196 0.811765 0.207843
0.313725 0.815686 0.207843
0.341176 0.815686 0.207843
0.376471 0.819608 0.215686
0.407843 0.819608 0.215686
0.447059 0.827451 0.219608
0.486275 0.823529 0.223529
0.525490 0.823529 0.227451
0.560784 0.827451 0.243137
0.600000 0.827451 0.254902
0.643137 0.831373 0.266667
0.682353 0.835294 0.274510
0.725490 0.839216 0.290196
0.768627 0.839216 0.298039
0.811765 0.843137 0.313725
0.843137 0.843137 0.317647
0.886275 0.839216 0.313725
0.917647 0.843137 0.337255
0.956863 0.839216 0.360784
0.984314 0.839216 0.388235
1.000000 0.847059 0.411765
0.227451 0.823529 0.196078
0.231373 0.827451 0.200000
0.239216 0.819608 0.196078
0.266667 0.823529 0.196078
0.282353 0.823529 0.203922
0.317647 0.831373 0.211765
0.341176 0.827451 0.207843
0.372549 0.831373 0.211765
0.411765 0.831373 0.219608
0.443137 0.831373 0.223529
0.478431 0.847059 0.235294
0.513725 0.847059 0.239216
0.556863 0.850980 0.254902
0.596078 0.854902 0.270588
0.639216 0.854902 0.282353
0.678431 0.854902 0.286275
0.713725 0.858824 0.313725
0.756863 0.866667 0.329412
0.796078 0.866667 0.333333
0.839216 0.866667 0.349020
0.874510 0.874510 0.364706
0.909804 0.874510 0.376471
0.949020 0.878431 0.392157
0.980392 0.878431 0.403922
1.000000 0.866667 0.447059
0.305882 0.890196 0.294118
0.305882 0.894118 0.270588
0.301961 0.886275 0.250980
0.321569 0.886275 0.270588
0.325490 0.890196 0.270588
0.352941 0.882353 0.274510
0.376471 0.886275 0.258824
0.411765 0.886275 0.270588
0.443137 0.886275 0.282353
0.474510 0.894118 0.286275
0.505882 0.894118 0.298039
0.541176 0.894118 0.309804
0.572549 0.894118 0.321569
0.615686 0.898039 0.333333
0.650980 0.898039 0.337255
0.690196 0.901961 0.352941
0.729412 0.901961 0.364706
0.772549 0.905882 0.372549
0.807843 0.909804 0.388235
0.843137 0.909804 0.400000
0.874510 0.909804 0.419608
0.909804 0.909804 0.431373
0.952941 0.909804 0.447059
0.984314 0.905882 0.454902
0.996078 0.917647 0.466667
0.368627 0.933333 0.356863
0.356863 0.933333 0.345098
0.368627 0.937255 0.337255
0.376471 0.925490 0.333333
0.384314 0.929412 0.337255
0.411765 0.937255 0.352941
0.427451 0.929412 0.345098
0.450980 0.929412 0.352941
0.478431 0.929412 0.352941
0.505882 0.933333 0.364706
0.537255 0.933333 0.376471
0.572549 0.937255 0.388235
0.611765 0.941176 0.400000
0.643137 0.941176 0.411765
0.678431 0.941176 0.423529
0.705882 0.937255 0.431373
0.749020 0.941176 0.439216
0.780392 0.945098 0.450980
0.811765 0.945098 0.470588
0.850980 0.949020 0.486275
0.882353 0.952941 0.490196
0.917647 0.952941 0.501961
0.952941 0.945098 0.517647
0.980392 0.949020 0.529412
0.996078 0.952941 0.537255
0.447059 0.972549 0.443137
0.447059 0.972549 0.443137
0.447059 0.976471 0.431373
0.443137 0.972549 0.427451
0.454902 0.972549 0.435294
0.470588 0.972549 0.427451
0.490196 0.972549 0.423529
0.513725 0.968627 0.431373
0.533333 0.972549 0.439216
0.560784 0.976471 0.450980
0.580392 0.972549 0.454902
0.611765 0.968627 0.454902
0.643137 0.976471 0.466667
0.674510 0.972549 0.486275
0.705882 0.972549 0.490196
0.741176 0.980392 0.505882
0.768627 0.984314 0.525490
0.800000 0.984314 0.537255
0.831373 0.980392 0.545098
0.866667 0.980392 0.549020
0.894118 0.980392 0.556863
0.925490 0.972549 0.572549
0.956863 0.980392 0.596078
0.980392 0.976471 0.611765
1.000000 0.980392 0.619608
0.529412 1.000000 0.533333
0.537255 1.000000 0.521569
0.525490 0.996078 0.513725
0.533333 1.000000 0.517647
0.529412 1.000000 0.505882
0.549020 1.000000 0.513725
0.564706 1.000000 0.517647
0.576471 1.000000 0.521569
0.592157 0.996078 0.533333
0.611765 1.000000 0.541176
0.635294 1.000000 0.541176
0.670588 0.996078 0.549020
0.690196 0.996078 0.564706
0.725490 0.996078 0.576471
0.752941 1.000000 0.580392
0.776471 1.000000 0.596078
0.803922 1.000000 0.607843
0.827451 1.000000 0.615686
0.854902 1.000000 0.623529
0.882353 0.996078 0.631373
0.901961 0.996078 0.650980
0.929412 1.000000 0.662745
0.960784 0.996078 0.670588
0.984314 0.996078 0.686275
1.000000 1.000000 0.705882
0.149020 0.113725 0.133333
0.156863 0.113725 0.137255
0.164706 0.117647 0.133333
0.180392 0.113725 0.137255
0.196078 0.113725 0.133333
0.223529 0.117647 0.145098
0.243137 0.113725 0.141176
0.266667 0.109804 0.141176
0.282353 0.121569 0.152941
0.313725 0.117647 0.152941
0.345098 0.121569 0.149020
0.376471 0.121569 0.152941
0.419608 0.117647 0.156863
0.458824 0.117647 0.152941
0.501961 0.121569 0.156863
0.545098 0.125490 0.164706
0.600000 0.125490 0.152941
0.650980 0.125490 0.160784
0.701961 0.125490 0.164706
0.764706 0.133333 0.164706
0.819608 0.129412 0.168627
0.862745 0.137255 0.168627
0.909804 0.137255 0.172549
0.956863 0.145098 0.184314
0.984314 0.156863 0.184314
0.156863 0.121569 0.133333
0.160784 0.117647 0.149020
0.176471 0.125490 0.152941
0.188235 0.121569 0.145098
0.207843 0.117647 0.149020
0.223529 0.125490 0.149020
0.247059 0.125490 0.145098
0.254902 0.129412 0.149020
0.286275 0.125490 0.149020
0.321569 0.129412 0.145098
0.352941 0.129412 0.152941
0.392157 0.129412 0.156863
0.431373 0.129412 0.160784
0.470588 0.129412 0.160784
0.509804 0.129412 0.164706
0.560784 0.133333 0.156863
0.603922 0.133333 0.168627
0.662745 0.137255 0.164706
0.709804 0.141176 0.168627
0.764706 0.137255 0.168627
0.815686 0.145098 0.176471
0.870588 0.149020 0.180392
0.913725 0.152941 0.188235
0.956863 0.160784 0.176471
0.992157 0.164706 0.192157
0.156863 0.141176 0.129412
0.176471 0.145098 0.137255
0.188235 0.129412 0.141176
0.196078 0.137255 0.156863
0.215686 0.137255 0.141176
0.223529 0.137255 0.149020
0.254902 0.141176 0.149020
0.274510 0.141176 0.145098
0.301961 0.137255 0.145098
0.333333 0.141176 0.152941
0.364706 0.133333 0.149020
0.400000 0.141176 0.156863
0.435294 0.141176 0.156863
0.478431 0.145098 0.164706
0.517647 0.149020 0.152941
0.564706 0.149020 0.156863
0.619608 0.152941 0.160784
0.674510 0.152941 0.164706
0.729412 0.156863 0.168627
0.780392 0.156863 0.172549
0.831373 0.164706 0.176471
0.882353 0.164706 0.180392
0.921569 0.180392 0.172549
0.960784 0.176471 0.188235
1.000000 0.180392 0.200000
0.164706 0.160784 0.152941
0.168627 0.149020 0.137255
0.180392 0.160784 0.149020
0.203922 0.149020 0.145098
0.227451 0.156863 0.156863
0.231373 0.152941 0.149020
0.254902 0.152941 0.149020
0.286275 0.152941 0.149020
0.305882 0.149020 0.149020
0.341176 0.152941 0.152941
0.368627 0.156863 0.156863
0.400000 0.160784 0.156863
0.443137 0.160784 0.164706
0.494118 0.168627 0.152941
0.529412 0.172549 0.160784
0.580392 0.172549 0.160784
0.627451 0.176471 0.164706
0.682353 0.172549 0.164706
0.737255 0.180392 0.172549
0.792157 0.192157 0.172549
0.839216 0.192157 0.184314
0.878431 0.192157 0.172549
0.925490 0.200000 0.180392
0.972549 0.207843 0.200000
0.996078 0.215686 0.203922
0.172549 0.172549 0.141176
0.176471 0.172549 0.152941
0.188235 0.176471 0.156863
0.203922 0.176471 0.145098
0.223529 0.172549 0.149020
0.243137 0.176471 0.149020
0.266667 0.176471 0.152941
0.286275 0.172549 0.149020
0.313725 0.176471 0.160784
0.337255 0.176471 0.152941
0.372549 0.180392 0.160784
0.411765 0.180392 0.164706
0.454902 0.192157 0.168627
0.494118 0.192157 0.168627
0.541176 0.192157 0.160784
0.592157 0.196078 0.164706
0.647059 0.200000 0.160784
0.694118 0.207843 0.168627
0.749020 0.211765 0.172549
0.788235 0.211765 0.180392
0.843137 0.215686 0.168627
0.878431 0.219608 0.176471
0.925490 0.227451 0.180392
0.964706 0.235294 0.188235
0.996078 0.243137 0.200000
0.172549 0.184314 0.156863
0.176471 0.180392 0.149020
0.188235 0.188235 0.156863
0.203922 0.188235 0.152941
0.215686 0.188235 0.156863
0.231373 0.192157 0.156863
0.254902 0.188235 0.156863
0.282353 0.192157 0.160784
0.305882 0.192157 0.160784
0.337255 0.192157 0.160784
0.364706 0.196078 0.160784
0.396078 0.200000 0.156863
0.435294 0.207843 0.160784
0.478431 0.211765 0.160784
0.521569 0.219608 0.156863
0.564706 0.219608 0.164706
0.619608 0.227451 0.164706
0.666667 0.231373 0.164706
0.721569 0.239216 0.176471
0.776471 0.247059 0.172549
0.835294 0.247059 0.180392
0.878431 0.254902 0.180392
0.921569 0.258824 0.184314
0.964706 0.258824 0.192157
1.000000 0.266667 0.192157
0.176471 0.219608 0.152941
0.188235 0.223529 0.149020
0.196078 0.223529 0.160784
0.207843 0.219608 0.152941
0.223529 0.215686 0.156863
0.243137 0.223529 0.149020
0.270588 0.219608 0.156863
0.290196 0.223529 0.160784
0.321569 0.219608 0.160784
0.349020 0.227451 0.156863
0.376471 0.231373 0.160784
0.411765 0.235294 0.160784
0.447059 0.243137 0.160784
0.490196 0.247059 0.164706
0.533333 0.250980 0.164706
0.576471 0.254902 0.160784
0.631373 0.258824 0.172549
0.682353 0.266667 0.172549
0.737255 0.274510 0.172549
0.784314 0.274510 0.172549
0.831373 0.286275 0.172549
0.882353 0.290196 0.176471
0.925490 0.294118 0.184314
0.956863 0.298039 0.192157
1.000000 0.301961 0.203922
0.176471 0.254902 0.156863
0.188235 0.250980 0.149020
0.203922 0.250980 0.164706
0.215686 0.243137 0.172549
0.223529 0.258824 0.152941
0.258824 0.258824 0.164706
0.274510 0.258824 0.160784
0.301961 0.254902 0.160784
0.325490 0.254902 0.160784
0.360784 0.266667 0.164706
0.388235 0.266667 0.156863
0.415686 0.270588 0.164706
0.458824 0.274510 0.164706
0.501961 0.286275 0.168627
0.545098 0.290196 0.164706
0.592157 0.298039 0.172549
0.643137 0.305882 0.168627
0.694118 0.309804 0.172549
0.745098 0.313725 0.168627
0.792157 0.321569 0.176471
0.843137 0.325490 0.176471
0.882353 0.333333 0.192157
0.921569 0.333333 0.188235
0.972549 0.337255 0.188235
1.000000 0.337255 0.207843
0.192157 0.286275 0.152941
0.203922 0.286275 0.164706
0.207843 0.294118 0.152941
0.223529 0.290196 0.164706
0.235294 0.290196 0.152941
0.262745 0.290196 0.160784
0.286275 0.290196 0.164706
0.313725 0.298039 0.160784
0.337255 0.298039 0.160784
0.376471 0.305882 0.164706
0.403922 0.309804 0.160784
0.439216 0.313725 0.160784
0.482353 0.317647 0.168627
0.517647 0.325490 0.168627
0.564706 0.333333 0.176471
0.611765 0.341176 0.176471
0.666667 0.349020 0.180392
0.713725 0.349020 0.176471
0.760784 0.356863 0.180392
0.811765 0.360784 0.184314
0.847059 0.364706 0.192157
0.898039 0.368627 0.192157
0.945098 0.368627 0.196078
0.984314 0.388235 0.203922
1.000000 0.384314 0.223529
0.196078 0.337255 0.149020
0.203922 0.333333 0.164706
0.211765 0.333333 0.160784
0.231373 0.333333 0.156863
0.250980 0.337255 0.156863
0.270588 0.337255 0.160784
0.294118 0.341176 0.160784
0.321569 0.345098 0.164706
0.356863 0.349020 0.160784
0.380392 0.349020 0.156863
0.419608 0.356863 0.156863
0.462745 0.360784 0.168627
0.490196 0.364706 0.164706
0.533333 0.372549 0.168627
0.580392 0.380392 0.172549
0.627451 0.388235 0.172549
0.678431 0.392157 0.176471
0.721569 0.400000 0.180392
0.768627 0.403922 0.180392
0.807843 0.400000 0.184314
0.854902 0.403922 0.188235
0.890196 0.403922 0.192157
0.937255 0.407843 0.192157
0.976471 0.411765 0.203922
1.000000 0.423529 0.219608
0.196078 0.345098 0.152941
0.203922 0.352941 0.160784
0.215686 0.349020 0.152941
0.231373 0.345098 0.156863
0.247059 0.356863 0.164706
0.262745 0.356863 0.160784
0.286275 0.356863 0.152941
0.309804 0.364706 0.164706
0.337255 0.364706 0.160784
0.376471 0.372549 0.160784
0.403922 0.376471 0.160784
