loleis/其他/lut20种/Sports LUT #10.cube
TITLE "Sports LUT #10"
#LUT size
LUT_3D_SIZE 5
#LUT data points
0.133333 0.133333 0.125490
0.337255 0.137255 0.133333
0.615686 0.133333 0.141176
0.874510 0.133333 0.156863
0.996078 0.145098 0.180392
0.109804 0.329412 0.137255
0.325490 0.333333 0.137255
0.619608 0.337255 0.149020
0.870588 0.325490 0.164706
1.000000 0.325490 0.184314
0.003922 0.623529 0.141176
0.317647 0.643137 0.133333
0.615686 0.623529 0.133333
0.850980 0.584314 0.164706
0.992157 0.572549 0.203922
0.000000 0.854902 0.172549
0.298039 0.858824 0.200000
0.552941 0.847059 0.200000
0.807843 0.827451 0.192157
0.988235 0.815686 0.231373
0.247059 0.996078 0.305882
0.400000 1.000000 0.349020
0.572549 1.000000 0.337255
0.792157 1.000000 0.329412
0.992157 1.000000 0.360784
0.125490 0.129412 0.349020
0.325490 0.125490 0.349020
0.607843 0.101961 0.352941
0.854902 0.086275 0.337255
1.000000 0.133333 0.345098
0.066667 0.317647 0.352941
0.309804 0.309804 0.341176
0.600000 0.313725 0.356863
0.843137 0.305882 0.345098
1.000000 0.309804 0.349020
0.000000 0.603922 0.329412
0.262745 0.615686 0.333333
0.592157 0.603922 0.333333
0.823529 0.560784 0.345098
1.000000 0.556863 0.352941
0.011765 0.819608 0.333333
0.266667 0.839216 0.349020
0.533333 0.823529 0.333333
0.807843 0.811765 0.341176
1.000000 0.803922 0.352941
0.243137 1.000000 0.392157
0.360784 1.000000 0.407843
0.556863 1.000000 0.411765
0.788235 1.000000 0.427451
0.996078 1.000000 0.435294
0.113725 0.125490 0.647059
0.317647 0.105882 0.647059
0.600000 0.047059 0.650980
0.843137 0.015686 0.619608
0.996078 0.117647 0.607843
0.003922 0.278431 0.650980
0.286275 0.290196 0.650980
0.596078 0.282353 0.654902
0.835294 0.290196 0.615686
1.000000 0.317647 0.600000
0.000000 0.584314 0.639216
0.270588 0.600000 0.643137
0.572549 0.588235 0.635294
0.811765 0.576471 0.615686
0.996078 0.584314 0.611765
0.000000 0.831373 0.600000
0.294118 0.839216 0.615686
0.552941 0.823529 0.607843
0.800000 0.811765 0.588235
0.996078 0.811765 0.607843
0.258824 1.000000 0.600000
0.384314 0.996078 0.607843
0.564706 1.000000 0.596078
0.792157 0.996078 0.603922
1.000000 1.000000 0.615686
0.090196 0.105882 0.862745
0.290196 0.105882 0.866667
0.533333 0.054902 0.858824
0.796078 0.000000 0.847059
1.000000 0.000000 0.862745
0.000000 0.262745 0.843137
0.247059 0.258824 0.866667
0.517647 0.258824 0.854902
0.792157 0.254902 0.850980
1.000000 0.254902 0.870588
0.000000 0.525490 0.858824
0.243137 0.525490 0.847059
0.521569 0.533333 0.850980
0.792157 0.525490 0.850980
1.000000 0.533333 0.843137
0.000000 0.796078 0.854902
0.254902 0.796078 0.847059
0.517647 0.807843 0.858824
0.788235 0.796078 0.843137
1.000000 0.815686 0.847059
0.129412 1.000000 0.831373
0.305882 1.000000 0.827451
0.541176 1.000000 0.815686
0.815686 1.000000 0.835294
0.992157 1.000000 0.843137
0.086275 0.090196 1.000000
0.266667 0.086275 1.000000
0.501961 0.058824 1.000000
0.745098 0.019608 1.000000
1.000000 0.027451 0.996078
0.000000 0.243137 1.000000
0.243137 0.243137 0.996078
0.501961 0.243137 1.000000
0.741176 0.243137 1.000000
0.992157 0.262745 1.000000
0.000000 0.501961 0.992157
0.250980 0.501961 0.996078
0.494118 0.498039 0.996078
0.741176 0.498039 0.996078
1.000000 0.513725 1.000000
0.262745 0.756863 0.988235
0.360784 0.764706 0.996078
0.556863 0.768627 1.000000
0.772549 0.776471 1.000000
1.000000 0.788235 1.000000
0.450980 0.972549 1.000000
0.513725 0.972549 1.000000
0.666667 0.976471 1.000000
0.905882 0.988235 1.000000
1.000000 1.000000 0.992157
