loleis/其他/lut20种/Sports LUT #1.cube
TITLE "Sports LUT #1"
#LUT size
LUT_3D_SIZE 25
#LUT data points
0.125490 0.137255 0.164706
0.129412 0.141176 0.168627
0.156863 0.145098 0.172549
0.176471 0.141176 0.160784
0.203922 0.145098 0.164706
0.227451 0.145098 0.164706
0.258824 0.145098 0.164706
0.282353 0.145098 0.168627
0.301961 0.149020 0.168627
0.341176 0.149020 0.172549
0.372549 0.149020 0.176471
0.411765 0.156863 0.180392
0.450980 0.156863 0.184314
0.494118 0.160784 0.188235
0.537255 0.164706 0.188235
0.584314 0.164706 0.196078
0.631373 0.164706 0.188235
0.682353 0.168627 0.200000
0.733333 0.168627 0.203922
0.780392 0.172549 0.203922
0.835294 0.168627 0.203922
0.878431 0.172549 0.207843
0.929412 0.176471 0.219608
0.968627 0.180392 0.219608
0.996078 0.184314 0.223529
0.117647 0.156863 0.164706
0.129412 0.160784 0.168627
0.152941 0.156863 0.164706
0.180392 0.156863 0.164706
0.203922 0.156863 0.164706
0.231373 0.156863 0.164706
0.258824 0.160784 0.172549
0.274510 0.156863 0.164706
0.313725 0.160784 0.172549
0.341176 0.160784 0.172549
0.368627 0.164706 0.180392
0.411765 0.168627 0.188235
0.450980 0.168627 0.184314
0.494118 0.172549 0.188235
0.541176 0.168627 0.192157
0.588235 0.176471 0.192157
0.631373 0.172549 0.196078
0.682353 0.176471 0.196078
0.733333 0.180392 0.203922
0.788235 0.188235 0.207843
0.831373 0.184314 0.211765
0.878431 0.184314 0.215686
0.921569 0.188235 0.215686
0.964706 0.192157 0.231373
1.000000 0.196078 0.223529
0.121569 0.180392 0.168627
0.137255 0.180392 0.156863
0.156863 0.172549 0.176471
0.168627 0.176471 0.164706
0.203922 0.168627 0.172549
0.227451 0.172549 0.172549
0.247059 0.168627 0.172549
0.274510 0.172549 0.176471
0.309804 0.176471 0.172549
0.337255 0.180392 0.180392
0.376471 0.180392 0.184314
0.411765 0.180392 0.188235
0.458824 0.184314 0.192157
0.501961 0.188235 0.200000
0.541176 0.188235 0.188235
0.592157 0.188235 0.200000
0.639216 0.192157 0.192157
0.682353 0.196078 0.196078
0.729412 0.196078 0.203922
0.784314 0.200000 0.207843
0.831373 0.203922 0.211765
0.878431 0.200000 0.215686
0.921569 0.203922 0.219608
0.980392 0.211765 0.227451
1.000000 0.211765 0.223529
0.121569 0.196078 0.172549
0.129412 0.196078 0.172549
0.152941 0.196078 0.164706
0.176471 0.196078 0.180392
0.207843 0.196078 0.168627
0.227451 0.200000 0.176471
0.254902 0.196078 0.176471
0.278431 0.196078 0.176471
0.305882 0.196078 0.180392
0.349020 0.200000 0.188235
0.376471 0.200000 0.188235
0.415686 0.200000 0.188235
0.454902 0.203922 0.196078
0.501961 0.207843 0.188235
0.541176 0.207843 0.196078
0.592157 0.207843 0.203922
0.635294 0.211765 0.203922
0.690196 0.211765 0.207843
0.737255 0.219608 0.203922
0.788235 0.219608 0.207843
0.831373 0.223529 0.207843
0.886275 0.219608 0.219608
0.929412 0.223529 0.219608
0.968627 0.231373 0.227451
0.996078 0.235294 0.235294
0.129412 0.223529 0.168627
0.133333 0.227451 0.176471
0.149020 0.215686 0.176471
0.176471 0.223529 0.184314
0.203922 0.215686 0.172549
0.231373 0.223529 0.176471
0.254902 0.223529 0.180392
0.278431 0.223529 0.188235
0.313725 0.215686 0.188235
0.349020 0.219608 0.192157
0.380392 0.223529 0.192157
0.415686 0.223529 0.196078
0.458824 0.227451 0.196078
0.498039 0.227451 0.200000
0.545098 0.231373 0.196078
0.592157 0.239216 0.203922
0.639216 0.235294 0.207843
0.686275 0.239216 0.200000
0.741176 0.243137 0.207843
0.788235 0.243137 0.215686
0.839216 0.247059 0.219608
0.882353 0.250980 0.219608
0.925490 0.254902 0.223529
0.972549 0.254902 0.223529
1.000000 0.258824 0.235294
0.113725 0.250980 0.172549
0.133333 0.243137 0.184314
0.160784 0.243137 0.184314
0.176471 0.243137 0.180392
0.192157 0.247059 0.180392
0.215686 0.247059 0.188235
0.247059 0.250980 0.196078
0.274510 0.250980 0.188235
0.317647 0.247059 0.192157
0.352941 0.250980 0.192157
0.384314 0.254902 0.196078
0.419608 0.254902 0.192157
0.458824 0.254902 0.200000
0.501961 0.258824 0.200000
0.545098 0.258824 0.200000
0.592157 0.266667 0.203922
0.639216 0.262745 0.200000
0.686275 0.270588 0.215686
0.741176 0.270588 0.215686
0.788235 0.278431 0.223529
0.835294 0.278431 0.223529
0.878431 0.278431 0.223529
0.921569 0.282353 0.223529
0.972549 0.282353 0.231373
1.000000 0.286275 0.231373
0.125490 0.274510 0.192157
0.137255 0.274510 0.196078
0.156863 0.270588 0.184314
0.172549 0.270588 0.184314
0.196078 0.270588 0.192157
0.223529 0.274510 0.196078
0.243137 0.274510 0.192157
0.278431 0.274510 0.196078
0.317647 0.274510 0.196078
0.345098 0.274510 0.196078
0.384314 0.278431 0.196078
0.423529 0.278431 0.203922
0.458824 0.282353 0.200000
0.505882 0.290196 0.207843
0.552941 0.294118 0.207843
0.596078 0.290196 0.203922
0.643137 0.298039 0.211765
0.694118 0.301961 0.211765
0.741176 0.301961 0.215686
0.796078 0.305882 0.219608
0.839216 0.309804 0.223529
0.886275 0.313725 0.223529
0.925490 0.313725 0.223529
0.980392 0.317647 0.227451
1.000000 0.325490 0.231373
0.121569 0.301961 0.200000
0.137255 0.305882 0.196078
0.141176 0.309804 0.192157
0.172549 0.309804 0.192157
0.180392 0.309804 0.188235
0.215686 0.305882 0.196078
0.250980 0.309804 0.196078
0.286275 0.309804 0.200000
0.325490 0.309804 0.196078
0.356863 0.313725 0.203922
0.396078 0.313725 0.200000
0.431373 0.317647 0.200000
0.474510 0.321569 0.207843
0.513725 0.321569 0.203922
0.556863 0.325490 0.207843
0.603922 0.333333 0.211765
0.650980 0.333333 0.215686
0.701961 0.337255 0.215686
0.749020 0.337255 0.219608
0.792157 0.341176 0.219608
0.847059 0.349020 0.223529
0.886275 0.349020 0.223529
0.937255 0.352941 0.235294
0.972549 0.349020 0.235294
0.992157 0.364706 0.239216
0.117647 0.333333 0.207843
0.129412 0.345098 0.192157
0.145098 0.341176 0.203922
0.164706 0.345098 0.200000
0.188235 0.345098 0.207843
0.223529 0.349020 0.196078
0.262745 0.349020 0.200000
0.290196 0.345098 0.203922
0.321569 0.345098 0.196078
0.364706 0.349020 0.203922
0.400000 0.345098 0.200000
0.439216 0.352941 0.200000
0.482353 0.356863 0.207843
0.525490 0.356863 0.219608
0.568627 0.364706 0.219608
0.611765 0.368627 0.223529
0.658824 0.368627 0.215686
0.701961 0.376471 0.219608
0.752941 0.376471 0.219608
0.796078 0.380392 0.223529
0.843137 0.380392 0.231373
0.890196 0.392157 0.231373
0.933333 0.388235 0.227451
0.976471 0.396078 0.247059
1.000000 0.396078 0.239216
0.105882 0.376471 0.203922
0.121569 0.380392 0.200000
0.137255 0.384314 0.200000
0.164706 0.376471 0.184314
0.180392 0.384314 0.196078
0.219608 0.384314 0.203922
0.258824 0.380392 0.207843
0.294118 0.384314 0.203922
0.329412 0.392157 0.215686
0.364706 0.396078 0.211765
0.403922 0.396078 0.207843
0.447059 0.392157 0.207843
0.486275 0.400000 0.207843
0.525490 0.400000 0.215686
0.572549 0.400000 0.215686
0.615686 0.403922 0.219608
0.666667 0.407843 0.219608
0.709804 0.411765 0.219608
0.760784 0.415686 0.227451
0.803922 0.419608 0.227451
0.850980 0.419608 0.227451
0.890196 0.427451 0.231373
0.941176 0.431373 0.235294
0.972549 0.431373 0.239216
1.000000 0.431373 0.247059
0.101961 0.419608 0.200000
0.109804 0.419608 0.203922
0.133333 0.419608 0.203922
0.156863 0.419608 0.207843
0.184314 0.423529 0.200000
0.211765 0.419608 0.200000
0.254902 0.423529 0.211765
0.294118 0.423529 0.207843
0.321569 0.431373 0.203922
0.360784 0.427451 0.211765
0.403922 0.435294 0.211765
0.443137 0.435294 0.211765
0.494118 0.435294 0.219608
0.533333 0.435294 0.215686
0.576471 0.439216 0.219608
0.619608 0.443137 0.227451
0.662745 0.447059 0.223529
0.709804 0.447059 0.231373
0.752941 0.454902 0.227451
0.803922 0.454902 0.227451
0.847059 0.458824 0.227451
0.890196 0.462745 0.231373
0.933333 0.470588 0.231373
0.976471 0.470588 0.243137
1.000000 0.466667 0.262745
0.070588 0.474510 0.196078
0.078431 0.470588 0.196078
0.113725 0.470588 0.207843
0.149020 0.474510 0.207843
0.188235 0.466667 0.207843
0.219608 0.474510 0.215686
0.243137 0.474510 0.207843
0.290196 0.474510 0.207843
0.329412 0.474510 0.211765
0.372549 0.470588 0.211765
0.415686 0.474510 0.211765
0.458824 0.478431 0.215686
0.498039 0.478431 0.211765
0.537255 0.478431 0.207843
0.580392 0.486275 0.211765
0.623529 0.490196 0.211765
0.666667 0.490196 0.223529
0.721569 0.498039 0.227451
0.760784 0.498039 0.223529
0.803922 0.501961 0.227451
0.847059 0.505882 0.235294
0.890196 0.509804 0.239216
0.929412 0.509804 0.243137
0.972549 0.513725 0.243137
0.996078 0.505882 0.254902
0.039216 0.521569 0.207843
0.058824 0.517647 0.207843
0.098039 0.517647 0.203922
0.133333 0.521569 0.200000
0.172549 0.513725 0.203922
0.215686 0.517647 0.211765
0.239216 0.517647 0.203922
0.290196 0.521569 0.207843
0.333333 0.525490 0.207843
0.376471 0.521569 0.207843
0.415686 0.521569 0.211765
0.458824 0.525490 0.211765
0.501961 0.529412 0.215686
0.537255 0.533333 0.211765
0.588235 0.529412 0.211765
0.631373 0.533333 0.219608
0.674510 0.537255 0.219608
0.721569 0.537255 0.223529
0.764706 0.541176 0.223529
0.803922 0.541176 0.231373
0.854902 0.545098 0.235294
0.901961 0.549020 0.243137
0.929412 0.549020 0.239216
0.972549 0.556863 0.258824
1.000000 0.552941 0.278431
0.000000 0.568627 0.203922
0.015686 0.568627 0.207843
0.066667 0.568627 0.203922
0.117647 0.568627 0.203922
0.164706 0.568627 0.207843
0.203922 0.572549 0.203922
0.243137 0.568627 0.207843
0.290196 0.568627 0.207843
0.333333 0.572549 0.207843
0.380392 0.572549 0.211765
0.419608 0.572549 0.215686
0.458824 0.572549 0.207843
0.501961 0.576471 0.215686
0.549020 0.576471 0.211765
0.592157 0.576471 0.219608
0.639216 0.580392 0.215686
0.682353 0.584314 0.219608
0.725490 0.584314 0.215686
0.776471 0.584314 0.223529
0.819608 0.588235 0.235294
0.866667 0.588235 0.243137
0.894118 0.592157 0.247059
0.945098 0.592157 0.254902
0.976471 0.588235 0.254902
0.996078 0.600000 0.294118
0.003922 0.611765 0.203922
0.007843 0.615686 0.215686
0.023529 0.607843 0.200000
0.094118 0.611765 0.211765
0.145098 0.615686 0.200000
0.192157 0.619608 0.207843
0.239216 0.619608 0.207843
0.286275 0.619608 0.211765
0.333333 0.619608 0.207843
0.376471 0.615686 0.207843
0.419608 0.619608 0.207843
0.458824 0.619608 0.211765
0.513725 0.619608 0.215686
0.556863 0.623529 0.215686
0.600000 0.627451 0.219608
0.643137 0.631373 0.219608
0.690196 0.635294 0.223529
0.729412 0.635294 0.219608
0.768627 0.635294 0.215686
0.819608 0.635294 0.227451
0.866667 0.635294 0.243137
0.909804 0.635294 0.258824
0.945098 0.635294 0.262745
0.988235 0.631373 0.274510
0.992157 0.635294 0.286275
0.007843 0.650980 0.207843
0.000000 0.662745 0.207843
0.000000 0.662745 0.203922
0.066667 0.658824 0.203922
0.129412 0.650980 0.200000
0.188235 0.650980 0.203922
0.231373 0.658824 0.207843
0.278431 0.666667 0.211765
0.321569 0.662745 0.203922
0.368627 0.662745 0.200000
0.415686 0.662745 0.203922
0.458824 0.666667 0.211765
0.513725 0.666667 0.215686
0.552941 0.666667 0.211765
0.596078 0.670588 0.219608
0.639216 0.674510 0.223529
0.690196 0.670588 0.211765
0.733333 0.674510 0.223529
0.780392 0.674510 0.223529
0.823529 0.678431 0.231373
0.862745 0.674510 0.243137
0.898039 0.678431 0.250980
0.937255 0.674510 0.262745
0.976471 0.670588 0.274510
1.000000 0.674510 0.305882
0.007843 0.709804 0.207843
0.000000 0.713725 0.203922
0.000000 0.698039 0.211765
0.031373 0.709804 0.215686
0.121569 0.705882 0.211765
0.180392 0.709804 0.207843
0.235294 0.701961 0.200000
0.282353 0.709804 0.211765
0.325490 0.701961 0.207843
0.368627 0.705882 0.207843
0.415686 0.705882 0.215686
0.458824 0.713725 0.219608
0.509804 0.713725 0.219608
0.552941 0.717647 0.223529
0.592157 0.717647 0.227451
0.643137 0.717647 0.227451
0.682353 0.717647 0.227451
0.733333 0.717647 0.227451
0.772549 0.717647 0.235294
0.819608 0.717647 0.243137
0.862745 0.721569 0.250980
0.901961 0.717647 0.254902
0.941176 0.717647 0.262745
0.976471 0.713725 0.270588
1.000000 0.717647 0.313725
0.011765 0.749020 0.203922
0.000000 0.752941 0.215686
0.000000 0.752941 0.223529
0.015686 0.752941 0.207843
0.121569 0.749020 0.215686
0.160784 0.752941 0.215686
0.223529 0.752941 0.207843
0.274510 0.752941 0.215686
0.321569 0.756863 0.215686
0.368627 0.752941 0.215686
0.415686 0.752941 0.215686
0.466667 0.752941 0.227451
0.513725 0.756863 0.227451
0.552941 0.756863 0.231373
0.600000 0.756863 0.235294
0.639216 0.756863 0.231373
0.690196 0.760784 0.235294
0.733333 0.760784 0.243137
0.776471 0.756863 0.247059
0.819608 0.760784 0.254902
0.862745 0.764706 0.258824
0.909804 0.760784 0.262745
0.949020 0.760784 0.274510
0.984314 0.752941 0.290196
1.000000 0.760784 0.317647
0.003922 0.796078 0.223529
0.011765 0.792157 0.223529
0.003922 0.796078 0.223529
0.019608 0.796078 0.219608
0.101961 0.800000 0.227451
0.184314 0.796078 0.227451
0.223529 0.796078 0.235294
0.274510 0.796078 0.235294
0.321569 0.800000 0.231373
0.376471 0.800000 0.231373
0.423529 0.796078 0.231373
0.466667 0.800000 0.231373
0.509804 0.800000 0.231373
0.552941 0.800000 0.239216
0.600000 0.800000 0.247059
0.639216 0.800000 0.247059
0.682353 0.807843 0.247059
0.729412 0.803922 0.250980
0.772549 0.803922 0.262745
0.815686 0.807843 0.270588
0.854902 0.807843 0.274510
0.901961 0.807843 0.282353
0.941176 0.807843 0.286275
0.972549 0.803922 0.301961
1.000000 0.796078 0.333333
0.007843 0.847059 0.235294
0.000000 0.839216 0.231373
0.000000 0.835294 0.231373
0.058824 0.831373 0.235294
0.133333 0.843137 0.235294
0.184314 0.839216 0.243137
0.235294 0.835294 0.239216
0.278431 0.839216 0.243137
0.325490 0.835294 0.239216
0.368627 0.843137 0.243137
0.423529 0.839216 0.243137
0.474510 0.839216 0.250980
0.509804 0.839216 0.250980
0.552941 0.843137 0.258824
0.592157 0.835294 0.258824
0.635294 0.839216 0.270588
0.678431 0.843137 0.278431
0.729412 0.843137 0.286275
0.772549 0.847059 0.290196
0.815686 0.850980 0.298039
0.866667 0.847059 0.286275
0.901961 0.850980 0.301961
0.941176 0.847059 0.321569
0.976471 0.847059 0.341176
1.000000 0.843137 0.356863
0.000000 0.874510 0.250980
0.000000 0.878431 0.254902
0.043137 0.874510 0.247059
0.113725 0.874510 0.254902
0.164706 0.870588 0.254902
0.207843 0.878431 0.258824
0.250980 0.878431 0.258824
0.301961 0.870588 0.254902
0.341176 0.870588 0.262745
0.384314 0.874510 0.270588
0.423529 0.874510 0.266667
0.466667 0.878431 0.274510
0.509804 0.874510 0.274510
0.560784 0.874510 0.282353
0.600000 0.874510 0.282353
0.643137 0.874510 0.286275
0.674510 0.878431 0.301961
0.713725 0.878431 0.305882
0.764706 0.882353 0.309804
0.807843 0.882353 0.317647
0.850980 0.878431 0.329412
0.890196 0.878431 0.333333
0.933333 0.878431 0.349020
0.976471 0.882353 0.356863
1.000000 0.886275 0.376471
0.090196 0.905882 0.286275
0.129412 0.913725 0.282353
0.149020 0.909804 0.286275
0.164706 0.917647 0.278431
0.203922 0.909804 0.278431
0.239216 0.913725 0.286275
0.278431 0.909804 0.290196
0.325490 0.913725 0.298039
0.356863 0.909804 0.294118
0.400000 0.913725 0.301961
0.439216 0.913725 0.298039
0.478431 0.913725 0.301961
0.517647 0.913725 0.309804
0.564706 0.913725 0.309804
0.611765 0.909804 0.313725
0.647059 0.917647 0.325490
0.686275 0.917647 0.329412
0.725490 0.913725 0.333333
0.764706 0.913725 0.337255
0.807843 0.913725 0.352941
0.843137 0.917647 0.364706
0.882353 0.913725 0.376471
0.925490 0.917647 0.388235
0.964706 0.913725 0.400000
0.996078 0.921569 0.407843
0.188235 0.949020 0.325490
0.203922 0.949020 0.321569
0.211765 0.949020 0.333333
0.243137 0.949020 0.325490
0.243137 0.941176 0.313725
0.290196 0.949020 0.333333
0.317647 0.941176 0.333333
0.352941 0.945098 0.337255
0.384314 0.949020 0.333333
0.419608 0.952941 0.333333
0.458824 0.949020 0.337255
0.494118 0.952941 0.341176
0.533333 0.952941 0.345098
0.572549 0.949020 0.352941
0.607843 0.945098 0.360784
0.650980 0.949020 0.368627
0.690196 0.945098 0.372549
0.729412 0.945098 0.376471
0.768627 0.945098 0.388235
0.803922 0.949020 0.403922
0.847059 0.949020 0.415686
0.882353 0.945098 0.423529
0.917647 0.941176 0.447059
0.960784 0.949020 0.435294
0.980392 0.945098 0.439216
0.282353 0.984314 0.384314
0.278431 0.980392 0.380392
0.286275 0.984314 0.372549
0.309804 0.976471 0.388235
0.325490 0.980392 0.384314
0.333333 0.980392 0.376471
0.360784 0.976471 0.376471
0.396078 0.980392 0.384314
0.419608 0.980392 0.384314
0.458824 0.976471 0.396078
0.490196 0.976471 0.396078
0.529412 0.976471 0.400000
0.568627 0.972549 0.407843
0.592157 0.980392 0.411765
0.631373 0.980392 0.415686
0.670588 0.980392 0.427451
0.701961 0.980392 0.431373
0.737255 0.976471 0.439216
0.772549 0.976471 0.450980
0.811765 0.980392 0.458824
0.850980 0.980392 0.466667
0.890196 0.976471 0.482353
0.913725 0.968627 0.494118
0.945098 0.976471 0.501961
0.976471 0.976471 0.505882
0.368627 1.000000 0.443137
0.364706 1.000000 0.431373
0.368627 1.000000 0.423529
0.384314 0.996078 0.427451
0.384314 0.996078 0.435294
0.415686 1.000000 0.439216
0.423529 1.000000 0.439216
0.447059 1.000000 0.447059
0.478431 1.000000 0.447059
0.501961 1.000000 0.454902
0.525490 1.000000 0.454902
0.556863 1.000000 0.466667
0.592157 1.000000 0.462745
0.623529 1.000000 0.474510
0.662745 1.000000 0.478431
0.698039 1.000000 0.490196
0.725490 0.996078 0.498039
0.756863 1.000000 0.509804
0.784314 0.996078 0.509804
0.823529 0.996078 0.521569
0.843137 1.000000 0.541176
0.886275 1.000000 0.545098
0.913725 1.000000 0.556863
0.960784 0.992157 0.564706
0.972549 1.000000 0.576471
0.133333 0.145098 0.180392
0.133333 0.145098 0.180392
0.152941 0.141176 0.184314
0.180392 0.141176 0.176471
0.200000 0.137255 0.176471
0.227451 0.149020 0.192157
0.250980 0.149020 0.192157
0.274510 0.156863 0.188235
0.309804 0.152941 0.188235
0.341176 0.156863 0.196078
0.368627 0.160784 0.192157
0.403922 0.164706 0.196078
0.443137 0.164706 0.196078
0.490196 0.164706 0.203922
0.541176 0.164706 0.207843
0.584314 0.160784 0.211765
0.635294 0.164706 0.211765
0.678431 0.160784 0.211765
0.729412 0.160784 0.211765
0.780392 0.168627 0.219608
0.827451 0.172549 0.211765
0.874510 0.168627 0.215686
0.921569 0.176471 0.223529
0.972549 0.180392 0.235294
0.992157 0.184314 0.235294
0.125490 0.160784 0.180392
0.133333 0.152941 0.176471
0.152941 0.156863 0.176471
0.180392 0.160784 0.184314
0.196078 0.160784 0.180392
0.223529 0.156863 0.188235
0.258824 0.160784 0.184314
0.278431 0.164706 0.184314
0.305882 0.160784 0.188235
0.345098 0.168627 0.188235
0.372549 0.172549 0.192157
0.407843 0.168627 0.196078
0.450980 0.172549 0.203922
0.498039 0.172549 0.203922
0.537255 0.172549 0.211765
0.592157 0.180392 0.207843
0.639216 0.180392 0.215686
0.690196 0.180392 0.219608
0.733333 0.180392 0.215686
0.788235 0.176471 0.219608
0.831373 0.180392 0.219608
0.878431 0.184314 0.223529
0.925490 0.192157 0.235294
0.964706 0.188235 0.239216
0.996078 0.188235 0.235294
0.125490 0.180392 0.180392
0.133333 0.180392 0.180392
0.152941 0.172549 0.184314
0.172549 0.176471 0.192157
0.196078 0.180392 0.184314
0.223529 0.176471 0.192157
0.250980 0.176471 0.184314
0.282353 0.180392 0.192157
0.313725 0.176471 0.192157
0.345098 0.184314 0.200000
0.380392 0.180392 0.200000
0.415686 0.184314 0.200000
0.458824 0.180392 0.203922
0.501961 0.184314 0.211765
0.545098 0.184314 0.203922
0.596078 0.192157 0.207843
0.643137 0.192157 0.211765
0.686275 0.192157 0.207843
0.737255 0.192157 0.211765
0.788235 0.196078 0.215686
0.831373 0.200000 0.219608
0.878431 0.200000 0.223529
0.929412 0.203922 0.227451
0.968627 0.203922 0.235294
1.000000 0.211765 0.243137
0.117647 0.196078 0.192157
0.133333 0.200000 0.176471
0.156863 0.200000 0.184314
0.184314 0.203922 0.180392
0.211765 0.196078 0.184314
0.231373 0.200000 0.192157
0.258824 0.196078 0.196078
0.278431 0.196078 0.192157
0.309804 0.200000 0.196078
0.341176 0.200000 0.200000
0.376471 0.203922 0.207843
0.415686 0.203922 0.203922
0.454902 0.203922 0.207843
0.501961 0.203922 0.203922
0.541176 0.203922 0.207843
0.592157 0.207843 0.211765
0.643137 0.211765 0.215686
0.690196 0.207843 0.215686
0.741176 0.215686 0.219608
0.792157 0.219608 0.223529
0.831373 0.219608 0.223529
0.894118 0.215686 0.223529
0.937255 0.219608 0.227451
0.980392 0.223529 0.243137
0.996078 0.235294 0.239216
0.117647 0.223529 0.188235
0.137255 0.219608 0.184314
0.156863 0.215686 0.196078
0.168627 0.231373 0.192157
0.200000 0.219608 0.196078
0.227451 0.223529 0.203922
0.254902 0.219608 0.192157
0.282353 0.223529 0.196078
0.313725 0.223529 0.200000
0.345098 0.227451 0.196078
0.384314 0.223529 0.200000
0.423529 0.223529 0.207843
0.458824 0.235294 0.207843
0.501961 0.231373 0.211765
0.549020 0.235294 0.207843
0.592157 0.239216 0.207843
0.643137 0.231373 0.207843
0.690196 0.239216 0.211765
0.749020 0.243137 0.219608
0.792157 0.247059 0.219608
0.847059 0.239216 0.223529
0.886275 0.247059 0.227451
0.933333 0.247059 0.227451
0.972549 0.254902 0.231373
1.000000 0.258824 0.243137
0.117647 0.247059 0.180392
0.133333 0.243137 0.188235
0.156863 0.250980 0.196078
0.168627 0.250980 0.192157
0.196078 0.250980 0.192157
0.223529 0.247059 0.200000
0.254902 0.247059 0.200000
0.282353 0.243137 0.203922
0.309804 0.243137 0.203922
0.345098 0.250980 0.211765
0.380392 0.254902 0.211765
0.411765 0.254902 0.207843
0.450980 0.254902 0.211765
0.505882 0.262745 0.219608
0.549020 0.258824 0.215686
0.592157 0.262745 0.219608
0.643137 0.266667 0.211765
0.690196 0.266667 0.219608
0.745098 0.270588 0.227451
0.792157 0.274510 0.223529
0.839216 0.278431 0.223529
0.882353 0.278431 0.231373
0.929412 0.278431 0.231373
0.976471 0.282353 0.243137
1.000000 0.286275 0.235294
0.125490 0.270588 0.200000
0.125490 0.278431 0.203922
0.141176 0.278431 0.200000
0.168627 0.274510 0.200000
0.188235 0.270588 0.196078
0.227451 0.278431 0.211765
0.247059 0.282353 0.207843
0.282353 0.278431 0.207843
0.313725 0.282353 0.207843
0.349020 0.274510 0.207843
0.380392 0.282353 0.203922
0.423529 0.286275 0.211765
0.462745 0.286275 0.211765
0.505882 0.290196 0.211765
0.552941 0.298039 0.227451
0.596078 0.294118 0.215686
0.643137 0.298039 0.219608
0.698039 0.301961 0.223529
0.741176 0.301961 0.223529
0.792157 0.301961 0.223529
0.843137 0.305882 0.231373
0.886275 0.309804 0.231373
0.937255 0.313725 0.231373
0.976471 0.313725 0.231373
1.000000 0.325490 0.239216
0.113725 0.301961 0.207843
0.133333 0.305882 0.200000
0.141176 0.309804 0.203922
0.172549 0.305882 0.207843
0.196078 0.305882 0.207843
0.227451 0.305882 0.200000
0.250980 0.313725 0.207843
0.290196 0.313725 0.211765
0.317647 0.313725 0.203922
0.356863 0.317647 0.211765
0.392157 0.313725 0.207843
0.435294 0.317647 0.215686
0.474510 0.317647 0.215686
0.517647 0.321569 0.223529
0.560784 0.325490 0.223529
0.603922 0.329412 0.227451
0.650980 0.333333 0.227451
0.701961 0.333333 0.223529
0.752941 0.341176 0.227451
0.803922 0.341176 0.231373
0.850980 0.345098 0.231373
0.894118 0.345098 0.239216
0.937255 0.349020 0.243137
0.968627 0.345098 0.231373
0.992157 0.360784 0.247059
0.113725 0.337255 0.207843
0.133333 0.345098 0.211765
0.141176 0.345098 0.203922
0.156863 0.341176 0.200000
0.200000 0.345098 0.215686
0.223529 0.345098 0.211765
0.250980 0.345098 0.211765
0.286275 0.349020 0.207843
0.321569 0.349020 0.215686
0.360784 0.349020 0.211765
0.392157 0.352941 0.215686
0.435294 0.356863 0.219608
0.474510 0.356863 0.215686
0.521569 0.364706 0.223529
0.560784 0.364706 0.227451
0.611765 0.364706 0.227451
0.654902 0.372549 0.223529
0.701961 0.372549 0.227451
0.752941 0.376471 0.219608
0.800000 0.384314 0.227451
0.843137 0.380392 0.231373
0.882353 0.388235 0.239216
0.925490 0.392157 0.243137
0.980392 0.396078 0.239216
0.996078 0.392157 0.250980
0.101961 0.380392 0.207843
0.117647 0.384314 0.223529
0.137255 0.384314 0.215686
0.152941 0.384314 0.203922
0.188235 0.376471 0.211765
0.215686 0.384314 0.215686
0.247059 0.388235 0.215686
0.282353 0.388235 0.211765
0.325490 0.388235 0.211765
0.368627 0.392157 0.211765
0.403922 0.396078 0.207843
0.439216 0.396078 0.215686
0.486275 0.396078 0.223529
0.525490 0.396078 0.219608
0.572549 0.400000 0.223529
0.619608 0.407843 0.227451
0.662745 0.411765 0.231373
0.705882 0.415686 0.231373
0.756863 0.419608 0.235294
0.800000 0.419608 0.243137
0.854902 0.419608 0.239216
0.898039 0.423529 0.247059
0.933333 0.431373 0.247059
0.980392 0.427451 0.250980
0.992157 0.435294 0.254902
0.094118 0.419608 0.215686
0.101961 0.415686 0.215686
0.133333 0.423529 0.223529
0.156863 0.419608 0.211765
0.188235 0.423529 0.211765
0.211765 0.427451 0.211765
0.250980 0.423529 0.215686
0.282353 0.427451 0.223529
0.321569 0.427451 0.211765
0.364706 0.431373 0.219608
0.411765 0.431373 0.219608
