loleis/其他/lut20种/Sports LUT #10.cube
TITLE "Sports LUT #10"
#LUT size
LUT_3D_SIZE 25
#LUT data points
0.133333 0.133333 0.125490
0.164706 0.133333 0.125490
0.188235 0.133333 0.129412
0.219608 0.137255 0.133333
0.254902 0.137255 0.137255
0.294118 0.137255 0.137255
0.337255 0.137255 0.133333
0.376471 0.133333 0.137255
0.415686 0.137255 0.129412
0.466667 0.137255 0.137255
0.513725 0.137255 0.141176
0.560784 0.137255 0.137255
0.615686 0.133333 0.141176
0.662745 0.137255 0.141176
0.705882 0.133333 0.145098
0.745098 0.133333 0.145098
0.792157 0.129412 0.149020
0.835294 0.125490 0.152941
0.874510 0.133333 0.156863
0.913725 0.133333 0.160784
0.949020 0.129412 0.152941
0.980392 0.137255 0.164706
1.000000 0.133333 0.160784
1.000000 0.145098 0.176471
0.996078 0.145098 0.180392
0.133333 0.160784 0.129412
0.152941 0.156863 0.133333
0.188235 0.156863 0.145098
0.215686 0.156863 0.137255
0.250980 0.152941 0.137255
0.294118 0.156863 0.141176
0.333333 0.156863 0.145098
0.364706 0.156863 0.141176
0.415686 0.160784 0.145098
0.466667 0.160784 0.145098
0.509804 0.160784 0.137255
0.564706 0.160784 0.141176
0.600000 0.156863 0.141176
0.650980 0.149020 0.137255
0.701961 0.152941 0.149020
0.749020 0.152941 0.141176
0.792157 0.149020 0.145098
0.831373 0.149020 0.152941
0.874510 0.152941 0.152941
0.909804 0.152941 0.156863
0.949020 0.152941 0.164706
0.980392 0.156863 0.168627
1.000000 0.152941 0.164706
0.996078 0.160784 0.168627
1.000000 0.160784 0.180392
0.133333 0.188235 0.129412
0.152941 0.184314 0.133333
0.184314 0.184314 0.137255
0.211765 0.188235 0.141176
0.247059 0.180392 0.141176
0.286275 0.180392 0.137255
0.325490 0.180392 0.145098
0.368627 0.180392 0.141176
0.407843 0.180392 0.137255
0.450980 0.184314 0.141176
0.501961 0.180392 0.137255
0.549020 0.180392 0.141176
0.600000 0.180392 0.141176
0.643137 0.176471 0.145098
0.694118 0.172549 0.137255
0.737255 0.176471 0.145098
0.780392 0.172549 0.152941
0.819608 0.172549 0.149020
0.858824 0.172549 0.152941
0.901961 0.176471 0.156863
0.937255 0.172549 0.156863
0.976471 0.172549 0.152941
0.996078 0.176471 0.160784
0.996078 0.180392 0.172549
1.000000 0.176471 0.180392
0.141176 0.215686 0.137255
0.156863 0.207843 0.137255
0.180392 0.215686 0.141176
0.203922 0.215686 0.133333
0.243137 0.211765 0.137255
0.282353 0.207843 0.141176
0.321569 0.207843 0.145098
0.360784 0.207843 0.141176
0.400000 0.207843 0.141176
0.450980 0.211765 0.141176
0.498039 0.211765 0.145098
0.545098 0.207843 0.141176
0.592157 0.211765 0.149020
0.643137 0.207843 0.141176
0.690196 0.207843 0.149020
0.729412 0.207843 0.149020
0.772549 0.211765 0.149020
0.815686 0.203922 0.152941
0.843137 0.200000 0.152941
0.882353 0.200000 0.156863
0.921569 0.200000 0.160784
0.956863 0.196078 0.156863
0.996078 0.203922 0.164706
0.996078 0.203922 0.164706
1.000000 0.203922 0.176471
0.137255 0.247059 0.149020
0.152941 0.247059 0.145098
0.172549 0.250980 0.141176
0.219608 0.243137 0.141176
0.239216 0.250980 0.145098
0.278431 0.250980 0.141176
0.313725 0.247059 0.137255
0.352941 0.247059 0.141176
0.403922 0.247059 0.145098
0.447059 0.243137 0.149020
0.494118 0.243137 0.145098
0.541176 0.243137 0.152941
0.596078 0.243137 0.141176
0.635294 0.243137 0.149020
0.690196 0.243137 0.149020
0.733333 0.247059 0.152941
0.772549 0.239216 0.152941
0.803922 0.235294 0.152941
0.843137 0.235294 0.149020
0.878431 0.231373 0.152941
0.917647 0.231373 0.149020
0.949020 0.231373 0.160784
0.984314 0.227451 0.160784
1.000000 0.231373 0.164706
1.000000 0.231373 0.168627
0.121569 0.298039 0.145098
0.156863 0.298039 0.149020
0.180392 0.301961 0.141176
0.211765 0.301961 0.137255
0.254902 0.298039 0.141176
0.294118 0.298039 0.141176
0.341176 0.294118 0.137255
0.384314 0.298039 0.145098
0.427451 0.298039 0.137255
0.470588 0.294118 0.141176
0.521569 0.294118 0.145098
0.568627 0.298039 0.145098
0.623529 0.294118 0.152941
0.674510 0.298039 0.149020
0.721569 0.290196 0.145098
0.772549 0.290196 0.156863
0.800000 0.290196 0.156863
0.843137 0.282353 0.156863
0.874510 0.286275 0.156863
0.909804 0.282353 0.156863
0.949020 0.278431 0.160784
0.984314 0.282353 0.164706
1.000000 0.278431 0.168627
1.000000 0.278431 0.176471
1.000000 0.286275 0.184314
0.109804 0.329412 0.137255
0.156863 0.325490 0.145098
0.176471 0.341176 0.152941
0.192157 0.337255 0.133333
0.247059 0.333333 0.141176
0.290196 0.337255 0.141176
0.325490 0.333333 0.137255
0.376471 0.337255 0.137255
0.423529 0.337255 0.145098
0.466667 0.333333 0.145098
0.517647 0.337255 0.145098
0.572549 0.333333 0.149020
0.619608 0.337255 0.149020
0.666667 0.341176 0.145098
0.717647 0.341176 0.152941
0.752941 0.333333 0.152941
0.796078 0.329412 0.160784
0.843137 0.329412 0.164706
0.870588 0.325490 0.164706
0.917647 0.321569 0.168627
0.945098 0.321569 0.168627
0.984314 0.321569 0.168627
1.000000 0.317647 0.172549
1.000000 0.313725 0.180392
1.000000 0.325490 0.184314
0.113725 0.372549 0.133333
0.149020 0.376471 0.145098
0.164706 0.376471 0.133333
0.207843 0.380392 0.141176
0.243137 0.376471 0.141176
0.282353 0.376471 0.141176
0.333333 0.376471 0.141176
0.372549 0.376471 0.141176
0.423529 0.376471 0.141176
0.474510 0.380392 0.145098
0.521569 0.380392 0.145098
0.572549 0.380392 0.149020
0.619608 0.384314 0.149020
0.662745 0.380392 0.152941
0.713725 0.380392 0.164706
0.749020 0.376471 0.156863
0.788235 0.368627 0.156863
0.823529 0.364706 0.156863
0.858824 0.360784 0.160784
0.898039 0.356863 0.164706
0.937255 0.356863 0.168627
0.976471 0.356863 0.172549
1.000000 0.349020 0.172549
0.992157 0.356863 0.172549
1.000000 0.364706 0.184314
0.101961 0.415686 0.137255
0.125490 0.419608 0.149020
0.152941 0.415686 0.137255
0.196078 0.419608 0.141176
0.243137 0.427451 0.145098
0.278431 0.427451 0.133333
0.325490 0.427451 0.141176
0.376471 0.427451 0.145098
0.419608 0.427451 0.133333
0.474510 0.427451 0.137255
0.521569 0.427451 0.137255
0.572549 0.431373 0.141176
0.615686 0.427451 0.137255
0.662745 0.427451 0.152941
0.698039 0.423529 0.152941
0.741176 0.415686 0.156863
0.776471 0.407843 0.164706
0.811765 0.396078 0.160784
0.847059 0.400000 0.156863
0.882353 0.396078 0.160784
0.921569 0.392157 0.164706
0.960784 0.384314 0.172549
1.000000 0.388235 0.180392
1.000000 0.388235 0.180392
1.000000 0.388235 0.172549
0.078431 0.462745 0.129412
0.121569 0.466667 0.129412
0.149020 0.474510 0.129412
0.184314 0.474510 0.141176
0.243137 0.478431 0.141176
0.286275 0.474510 0.137255
0.325490 0.474510 0.133333
0.376471 0.478431 0.137255
0.419608 0.474510 0.133333
0.466667 0.478431 0.137255
0.513725 0.474510 0.133333
0.560784 0.474510 0.137255
0.611765 0.470588 0.133333
0.650980 0.470588 0.137255
0.690196 0.458824 0.145098
0.721569 0.458824 0.152941
0.756863 0.443137 0.156863
0.796078 0.439216 0.160784
0.831373 0.435294 0.160784
0.870588 0.435294 0.164706
0.913725 0.431373 0.164706
0.945098 0.431373 0.164706
0.984314 0.427451 0.168627
1.000000 0.423529 0.172549
1.000000 0.423529 0.180392
0.011765 0.580392 0.121569
0.066667 0.580392 0.125490
0.133333 0.576471 0.129412
0.192157 0.580392 0.125490
0.235294 0.576471 0.125490
0.286275 0.576471 0.125490
0.345098 0.572549 0.129412
0.400000 0.572549 0.137255
0.454902 0.568627 0.137255
0.501961 0.564706 0.137255
0.552941 0.560784 0.133333
0.603922 0.556863 0.133333
0.654902 0.549020 0.137255
0.690196 0.545098 0.137255
0.717647 0.529412 0.137255
0.756863 0.529412 0.149020
0.796078 0.517647 0.172549
0.827451 0.505882 0.168627
0.862745 0.501961 0.168627
0.905882 0.494118 0.168627
0.945098 0.494118 0.180392
0.972549 0.490196 0.184314
1.000000 0.486275 0.192157
1.000000 0.490196 0.196078
1.000000 0.486275 0.203922
0.000000 0.592157 0.137255
0.062745 0.592157 0.117647
0.121569 0.603922 0.117647
0.172549 0.611765 0.125490
0.223529 0.607843 0.133333
0.286275 0.603922 0.129412
0.333333 0.607843 0.121569
0.384314 0.600000 0.129412
0.431373 0.603922 0.129412
0.486275 0.600000 0.133333
0.529412 0.600000 0.129412
0.580392 0.592157 0.133333
0.631373 0.588235 0.137255
0.678431 0.576471 0.141176
0.717647 0.568627 0.141176
0.752941 0.560784 0.149020
0.796078 0.552941 0.156863
0.819608 0.545098 0.160784
0.862745 0.537255 0.168627
0.898039 0.541176 0.184314
0.945098 0.537255 0.188235
0.968627 0.537255 0.188235
1.000000 0.529412 0.192157
1.000000 0.533333 0.203922
1.000000 0.533333 0.203922
0.003922 0.623529 0.141176
0.023529 0.631373 0.129412
0.101961 0.639216 0.133333
0.156863 0.643137 0.133333
0.215686 0.643137 0.137255
0.278431 0.639216 0.141176
0.317647 0.643137 0.133333
0.364706 0.635294 0.137255
0.419608 0.635294 0.137255
0.466667 0.631373 0.137255
0.513725 0.627451 0.133333
0.568627 0.627451 0.137255
0.615686 0.623529 0.133333
0.654902 0.615686 0.133333
0.698039 0.611765 0.141176
0.741176 0.603922 0.141176
0.776471 0.600000 0.141176
0.815686 0.592157 0.149020
0.850980 0.584314 0.164706
0.886275 0.576471 0.172549
0.925490 0.576471 0.184314
0.960784 0.568627 0.192157
0.992157 0.564706 0.192157
1.000000 0.564706 0.196078
0.992157 0.572549 0.203922
0.000000 0.658824 0.129412
0.019608 0.662745 0.133333
0.082353 0.674510 0.129412
0.145098 0.662745 0.121569
0.200000 0.674510 0.129412
0.250980 0.666667 0.133333
0.305882 0.674510 0.141176
0.352941 0.666667 0.137255
0.403922 0.662745 0.137255
0.454902 0.658824 0.133333
0.501961 0.658824 0.137255
0.552941 0.654902 0.133333
0.592157 0.654902 0.133333
0.647059 0.650980 0.149020
0.682353 0.647059 0.149020
0.721569 0.639216 0.141176
0.760784 0.639216 0.149020
0.800000 0.627451 0.152941
0.835294 0.619608 0.160784
0.870588 0.611765 0.168627
0.909804 0.603922 0.176471
0.941176 0.600000 0.184314
0.976471 0.603922 0.188235
1.000000 0.603922 0.196078
1.000000 0.603922 0.207843
0.000000 0.682353 0.137255
0.003922 0.698039 0.137255
0.054902 0.705882 0.133333
0.133333 0.705882 0.145098
0.192157 0.709804 0.141176
0.239216 0.705882 0.141176
0.294118 0.705882 0.141176
0.341176 0.705882 0.145098
0.392157 0.701961 0.141176
0.443137 0.698039 0.141176
0.490196 0.690196 0.137255
0.529412 0.690196 0.137255
0.576471 0.682353 0.137255
0.627451 0.682353 0.145098
0.666667 0.674510 0.141176
0.717647 0.670588 0.137255
0.756863 0.662745 0.145098
0.788235 0.658824 0.145098
0.819608 0.650980 0.149020
0.858824 0.647059 0.152941
0.901961 0.643137 0.164706
0.941176 0.643137 0.172549
0.980392 0.639216 0.184314
0.996078 0.639216 0.188235
0.996078 0.635294 0.192157
0.027451 0.792157 0.180392
0.074510 0.800000 0.192157
0.117647 0.800000 0.184314
0.164706 0.796078 0.184314
0.211765 0.792157 0.180392
0.266667 0.788235 0.184314
0.325490 0.780392 0.180392
0.368627 0.780392 0.184314
0.411765 0.776471 0.176471
0.458824 0.772549 0.180392
0.505882 0.764706 0.176471
0.549020 0.760784 0.172549
0.600000 0.756863 0.176471
0.643137 0.752941 0.176471
0.690196 0.745098 0.176471
0.729412 0.741176 0.180392
0.784314 0.741176 0.176471
0.819608 0.729412 0.172549
0.854902 0.725490 0.172549
0.890196 0.721569 0.180392
0.933333 0.709804 0.188235
0.968627 0.705882 0.196078
0.996078 0.701961 0.211765
1.000000 0.701961 0.223529
0.992157 0.709804 0.235294
0.007843 0.784314 0.168627
0.039216 0.788235 0.172549
0.098039 0.803922 0.180392
0.152941 0.796078 0.172549
0.207843 0.800000 0.184314
0.254902 0.811765 0.184314
0.301961 0.803922 0.188235
0.356863 0.803922 0.184314
0.403922 0.800000 0.188235
0.447059 0.800000 0.184314
0.490196 0.792157 0.180392
0.537255 0.784314 0.184314
0.584314 0.784314 0.184314
0.631373 0.784314 0.184314
0.678431 0.780392 0.180392
0.717647 0.768627 0.172549
0.760784 0.772549 0.180392
0.807843 0.768627 0.184314
0.835294 0.768627 0.188235
0.894118 0.756863 0.200000
0.921569 0.752941 0.200000
0.968627 0.745098 0.200000
0.996078 0.749020 0.203922
0.992157 0.737255 0.227451
1.000000 0.749020 0.239216
0.000000 0.815686 0.172549
0.058824 0.823529 0.188235
0.094118 0.835294 0.192157
0.156863 0.831373 0.188235
0.207843 0.839216 0.196078
0.243137 0.835294 0.180392
0.298039 0.835294 0.188235
0.341176 0.831373 0.196078
0.392157 0.823529 0.192157
0.439216 0.823529 0.192157
0.482353 0.819608 0.188235
0.529412 0.823529 0.192157
0.572549 0.815686 0.184314
0.611765 0.807843 0.184314
0.662745 0.807843 0.192157
0.705882 0.803922 0.192157
0.745098 0.800000 0.184314
0.784314 0.800000 0.192157
0.831373 0.796078 0.188235
0.870588 0.796078 0.192157
0.913725 0.792157 0.196078
0.949020 0.788235 0.200000
1.000000 0.780392 0.203922
1.000000 0.776471 0.215686
1.000000 0.780392 0.235294
0.000000 0.854902 0.172549
0.062745 0.850980 0.192157
0.109804 0.854902 0.196078
0.164706 0.858824 0.196078
0.203922 0.862745 0.192157
0.250980 0.862745 0.192157
0.298039 0.858824 0.200000
0.341176 0.854902 0.196078
0.380392 0.858824 0.196078
0.431373 0.858824 0.203922
0.474510 0.854902 0.200000
0.513725 0.847059 0.203922
0.552941 0.847059 0.200000
0.600000 0.847059 0.192157
0.643137 0.843137 0.196078
0.690196 0.839216 0.192157
0.733333 0.835294 0.200000
0.768627 0.827451 0.188235
0.807843 0.827451 0.192157
0.854902 0.823529 0.192157
0.898039 0.819608 0.196078
0.945098 0.819608 0.192157
0.984314 0.811765 0.196078
1.000000 0.811765 0.207843
0.988235 0.815686 0.231373
0.023529 0.882353 0.184314
0.070588 0.878431 0.200000
0.125490 0.886275 0.203922
0.172549 0.894118 0.211765
0.215686 0.894118 0.200000
0.254902 0.890196 0.207843
0.298039 0.890196 0.211765
0.337255 0.890196 0.207843
0.384314 0.886275 0.215686
0.423529 0.886275 0.211765
0.466667 0.882353 0.211765
0.509804 0.874510 0.211765
0.556863 0.878431 0.203922
0.592157 0.874510 0.200000
0.635294 0.866667 0.200000
0.674510 0.866667 0.200000
0.717647 0.862745 0.203922
0.756863 0.858824 0.196078
0.803922 0.854902 0.196078
0.850980 0.854902 0.203922
0.898039 0.854902 0.200000
0.929412 0.854902 0.207843
0.976471 0.850980 0.211765
1.000000 0.850980 0.219608
1.000000 0.854902 0.231373
0.219608 0.964706 0.298039
0.247059 0.964706 0.298039
0.250980 0.964706 0.294118
0.266667 0.964706 0.290196
0.294118 0.960784 0.298039
0.321569 0.964706 0.290196
0.349020 0.960784 0.290196
0.380392 0.960784 0.286275
0.427451 0.952941 0.274510
0.462745 0.949020 0.274510
0.501961 0.945098 0.278431
0.537255 0.945098 0.274510
0.576471 0.945098 0.270588
0.615686 0.937255 0.262745
0.662745 0.937255 0.254902
0.701961 0.937255 0.258824
0.737255 0.925490 0.258824
0.780392 0.921569 0.262745
0.815686 0.917647 0.254902
0.862745 0.913725 0.254902
0.905882 0.913725 0.250980
0.945098 0.913725 0.250980
0.984314 0.909804 0.262745
0.988235 0.913725 0.266667
0.992157 0.913725 0.290196
0.160784 0.964706 0.262745
0.196078 0.972549 0.262745
0.219608 0.972549 0.262745
0.247059 0.984314 0.270588
0.286275 0.988235 0.286275
0.305882 0.984314 0.286275
0.345098 0.976471 0.286275
0.380392 0.980392 0.282353
0.415686 0.976471 0.286275
0.454902 0.976471 0.282353
0.494118 0.976471 0.282353
0.529412 0.972549 0.282353
0.564706 0.968627 0.266667
0.603922 0.968627 0.266667
0.650980 0.968627 0.262745
0.694118 0.960784 0.274510
0.733333 0.952941 0.278431
0.764706 0.952941 0.270588
0.815686 0.949020 0.266667
0.850980 0.956863 0.270588
0.901961 0.949020 0.274510
0.937255 0.952941 0.278431
0.976471 0.949020 0.290196
1.000000 0.949020 0.298039
0.996078 0.952941 0.298039
0.203922 0.996078 0.282353
0.211765 0.996078 0.274510
0.243137 0.996078 0.278431
0.266667 1.000000 0.290196
0.294118 0.996078 0.294118
0.329412 1.000000 0.305882
0.349020 1.000000 0.298039
0.384314 1.000000 0.298039
0.419608 1.000000 0.294118
0.454902 1.000000 0.290196
0.494118 1.000000 0.290196
0.529412 1.000000 0.294118
0.568627 1.000000 0.282353
0.603922 0.992157 0.282353
0.643137 0.992157 0.294118
0.682353 0.992157 0.290196
0.725490 0.988235 0.290196
0.768627 0.984314 0.282353
0.807843 0.984314 0.286275
0.847059 0.984314 0.286275
0.890196 0.980392 0.290196
0.929412 0.980392 0.290196
0.960784 0.976471 0.301961
0.996078 0.980392 0.317647
0.996078 0.988235 0.321569
0.215686 1.000000 0.278431
0.239216 0.996078 0.294118
0.266667 1.000000 0.309804
0.294118 0.992157 0.309804
0.309804 1.000000 0.321569
0.329412 1.000000 0.317647
0.368627 1.000000 0.317647
0.396078 0.996078 0.305882
0.431373 0.996078 0.309804
0.462745 1.000000 0.309804
0.498039 1.000000 0.313725
0.533333 1.000000 0.309804
0.572549 0.996078 0.313725
0.607843 1.000000 0.309804
0.650980 0.996078 0.313725
0.690196 0.996078 0.313725
0.725490 1.000000 0.309804
0.760784 0.996078 0.305882
0.792157 1.000000 0.294118
0.831373 1.000000 0.294118
0.870588 1.000000 0.298039
0.905882 1.000000 0.309804
0.960784 1.000000 0.317647
0.988235 1.000000 0.329412
0.996078 1.000000 0.333333
0.247059 0.996078 0.305882
0.286275 1.000000 0.321569
0.301961 1.000000 0.325490
0.333333 1.000000 0.337255
0.345098 1.000000 0.349020
0.372549 0.996078 0.349020
0.400000 1.000000 0.349020
0.423529 1.000000 0.341176
0.447059 1.000000 0.345098
0.470588 1.000000 0.345098
0.509804 1.000000 0.341176
0.545098 0.996078 0.345098
0.572549 1.000000 0.337255
0.607843 0.996078 0.337255
0.639216 1.000000 0.337255
0.678431 1.000000 0.333333
0.709804 1.000000 0.329412
0.752941 1.000000 0.329412
0.792157 1.000000 0.329412
0.831373 1.000000 0.333333
0.854902 1.000000 0.341176
0.894118 1.000000 0.345098
0.941176 1.000000 0.352941
0.972549 1.000000 0.352941
0.992157 1.000000 0.360784
0.125490 0.137255 0.156863
0.156863 0.137255 0.164706
0.184314 0.133333 0.160784
0.215686 0.133333 0.160784
0.250980 0.133333 0.164706
0.294118 0.141176 0.160784
0.337255 0.137255 0.156863
0.376471 0.137255 0.156863
0.419608 0.133333 0.160784
0.458824 0.137255 0.160784
0.513725 0.133333 0.160784
0.560784 0.133333 0.156863
0.611765 0.125490 0.164706
0.654902 0.121569 0.160784
0.698039 0.121569 0.160784
0.745098 0.117647 0.164706
0.792157 0.125490 0.160784
0.831373 0.117647 0.164706
0.866667 0.121569 0.168627
0.898039 0.121569 0.172549
0.933333 0.125490 0.172549
0.972549 0.125490 0.168627
1.000000 0.129412 0.180392
1.000000 0.133333 0.192157
1.000000 0.141176 0.200000
0.145098 0.152941 0.149020
0.152941 0.149020 0.168627
0.180392 0.160784 0.176471
0.203922 0.164706 0.160784
0.250980 0.152941 0.164706
0.290196 0.156863 0.160784
0.321569 0.156863 0.164706
0.364706 0.160784 0.168627
0.411765 0.156863 0.172549
0.462745 0.152941 0.164706
0.509804 0.156863 0.164706
0.556863 0.152941 0.164706
0.600000 0.149020 0.168627
0.654902 0.145098 0.176471
0.701961 0.149020 0.184314
0.749020 0.141176 0.164706
0.788235 0.145098 0.172549
0.831373 0.145098 0.172549
0.858824 0.149020 0.168627
0.905882 0.145098 0.176471
0.933333 0.145098 0.176471
0.976471 0.149020 0.184314
1.000000 0.145098 0.192157
1.000000 0.156863 0.188235
1.000000 0.156863 0.200000
0.125490 0.188235 0.149020
0.160784 0.188235 0.160784
0.188235 0.176471 0.156863
0.215686 0.188235 0.164706
0.254902 0.180392 0.164706
0.278431 0.188235 0.164706
0.329412 0.180392 0.168627
0.368627 0.180392 0.164706
0.411765 0.180392 0.164706
0.454902 0.184314 0.164706
0.498039 0.180392 0.168627
0.549020 0.176471 0.168627
0.600000 0.176471 0.168627
0.654902 0.176471 0.172549
0.698039 0.172549 0.168627
0.737255 0.172549 0.168627
0.776471 0.164706 0.168627
0.815686 0.164706 0.164706
0.854902 0.172549 0.176471
0.890196 0.168627 0.168627
0.929412 0.168627 0.172549
0.972549 0.172549 0.176471
1.000000 0.168627 0.176471
1.000000 0.172549 0.188235
1.000000 0.172549 0.196078
0.137255 0.207843 0.152941
0.152941 0.215686 0.164706
0.172549 0.215686 0.160784
0.219608 0.211765 0.164706
0.239216 0.207843 0.164706
0.282353 0.211765 0.172549
0.321569 0.211765 0.168627
0.360784 0.211765 0.168627
0.396078 0.207843 0.160784
0.443137 0.207843 0.164706
0.494118 0.211765 0.164706
0.549020 0.207843 0.168627
0.588235 0.203922 0.160784
0.643137 0.203922 0.160784
0.682353 0.200000 0.168627
0.725490 0.200000 0.164706
0.764706 0.200000 0.164706
0.803922 0.200000 0.168627
0.843137 0.196078 0.172549
0.882353 0.196078 0.176471
0.917647 0.192157 0.180392
0.960784 0.196078 0.180392
1.000000 0.184314 0.176471
1.000000 0.196078 0.184314
0.996078 0.200000 0.184314
0.133333 0.243137 0.156863
0.164706 0.239216 0.160784
0.172549 0.239216 0.164706
0.200000 0.247059 0.168627
0.247059 0.243137 0.164706
0.286275 0.243137 0.172549
0.321569 0.239216 0.164706
0.356863 0.247059 0.164706
0.403922 0.243137 0.164706
0.443137 0.243137 0.168627
0.490196 0.243137 0.172549
0.533333 0.239216 0.164706
0.592157 0.243137 0.172549
0.631373 0.243137 0.168627
0.682353 0.239216 0.168627
0.721569 0.239216 0.168627
0.764706 0.231373 0.168627
0.796078 0.235294 0.172549
0.831373 0.231373 0.176471
0.870588 0.227451 0.180392
0.905882 0.227451 0.164706
0.945098 0.227451 0.172549
0.984314 0.223529 0.176471
1.000000 0.223529 0.180392
1.000000 0.227451 0.184314
0.117647 0.290196 0.152941
0.149020 0.294118 0.160784
0.176471 0.298039 0.164706
0.203922 0.298039 0.164706
0.247059 0.290196 0.164706
0.286275 0.290196 0.164706
0.333333 0.290196 0.164706
0.376471 0.294118 0.172549
0.419608 0.290196 0.168627
0.462745 0.286275 0.164706
0.509804 0.286275 0.172549
0.556863 0.286275 0.172549
0.615686 0.286275 0.176471
0.670588 0.286275 0.172549
0.717647 0.290196 0.176471
0.768627 0.282353 0.180392
0.792157 0.286275 0.172549
0.827451 0.278431 0.172549
0.866667 0.278431 0.180392
0.901961 0.274510 0.180392
0.937255 0.270588 0.180392
0.976471 0.270588 0.180392
1.000000 0.266667 0.188235
1.000000 0.274510 0.192157
1.000000 0.278431 0.200000
0.113725 0.333333 0.156863
0.141176 0.333333 0.156863
0.168627 0.329412 0.156863
0.207843 0.329412 0.156863
0.239216 0.329412 0.164706
0.282353 0.333333 0.164706
0.341176 0.329412 0.168627
0.372549 0.325490 0.160784
0.415686 0.333333 0.164706
0.466667 0.329412 0.164706
0.517647 0.333333 0.168627
0.564706 0.333333 0.168627
0.615686 0.329412 0.168627
0.662745 0.333333 0.160784
0.713725 0.333333 0.168627
0.745098 0.329412 0.172549
0.788235 0.325490 0.176471
0.823529 0.321569 0.176471
0.858824 0.317647 0.176471
0.898039 0.317647 0.176471
0.941176 0.313725 0.180392
0.976471 0.313725 0.184314
1.000000 0.309804 0.180392
1.000000 0.309804 0.180392
1.000000 0.317647 0.196078
0.101961 0.372549 0.156863
0.121569 0.368627 0.160784
0.160784 0.372549 0.168627
0.196078 0.368627 0.160784
0.239216 0.376471 0.164706
0.286275 0.376471 0.164706
0.321569 0.372549 0.160784
0.364706 0.376471 0.160784
0.419608 0.376471 0.164706
0.462745 0.380392 0.164706
0.513725 0.376471 0.164706
0.560784 0.376471 0.164706
0.611765 0.376471 0.164706
0.654902 0.376471 0.172549
0.698039 0.372549 0.168627
0.745098 0.368627 0.172549
0.780392 0.364706 0.176471
0.815686 0.360784 0.176471
0.850980 0.352941 0.176471
0.886275 0.356863 0.180392
0.921569 0.352941 0.180392
0.960784 0.349020 0.188235
1.000000 0.352941 0.176471
1.000000 0.349020 0.184314
1.000000 0.349020 0.192157
0.094118 0.419608 0.152941
0.121569 0.415686 0.160784
0.152941 0.415686 0.152941
0.180392 0.419608 0.149020
0.231373 0.427451 0.156863
0.278431 0.423529 0.160784
0.325490 0.423529 0.164706
0.376471 0.423529 0.164706
0.415686 0.423529 0.164706
0.466667 0.423529 0.164706
0.513725 0.423529 0.160784
0.560784 0.423529 0.156863
0.603922 0.415686 0.156863
0.647059 0.419608 0.168627
0.686275 0.411765 0.168627
0.725490 0.403922 0.168627
0.768627 0.403922 0.172549
0.803922 0.392157 0.168627
0.839216 0.396078 0.176471
0.878431 0.388235 0.168627
0.913725 0.384314 0.168627
0.949020 0.384314 0.176471
0.988235 0.384314 0.172549
1.000000 0.392157 0.180392
1.000000 0.392157 0.192157
0.066667 0.462745 0.156863
0.098039 0.470588 0.152941
0.133333 0.474510 0.156863
0.180392 0.466667 0.145098
0.227451 0.474510 0.156863
0.270588 0.478431 0.156863
0.317647 0.470588 0.152941
0.364706 0.470588 0.152941
0.415686 0.474510 0.156863
0.458824 0.470588 0.152941
0.513725 0.470588 0.156863
0.556863 0.466667 0.160784
0.603922 0.458824 0.145098
0.639216 0.450980 0.152941
0.678431 0.450980 0.160784
0.713725 0.447059 0.168627
0.749020 0.439216 0.176471
0.784314 0.435294 0.176471
0.831373 0.431373 0.172549
0.870588 0.431373 0.180392
0.909804 0.423529 0.180392
0.949020 0.423529 0.184314
0.988235 0.423529 0.188235
1.000000 0.423529 0.188235
1.000000 0.423529 0.188235
0.003922 0.564706 0.152941
0.054902 0.560784 0.156863
0.117647 0.560784 0.152941
0.168627 0.564706 0.149020
0.227451 0.568627 0.156863
0.282353 0.568627 0.149020
0.337255 0.560784 0.149020
0.392157 0.556863 0.156863
0.435294 0.552941 0.160784
0.486275 0.549020 0.160784
0.541176 0.549020 0.152941
