loleis/其他/lut20种/Sports LUT #13.cube
TITLE "Sports LUT #13"
#LUT size
LUT_3D_SIZE 25
#LUT data points
0.000000 0.000000 0.000000
0.086275 0.000000 0.007843
0.164706 0.000000 0.003922
0.235294 0.000000 0.000000
0.305882 0.000000 0.000000
0.368627 0.000000 0.000000
0.427451 0.003922 0.003922
0.486275 0.003922 0.015686
0.541176 0.000000 0.015686
0.584314 0.000000 0.023529
0.627451 0.000000 0.031373
0.674510 0.007843 0.043137
0.721569 0.015686 0.058824
0.756863 0.035294 0.074510
0.792157 0.058824 0.094118
0.831373 0.070588 0.105882
0.858824 0.094118 0.125490
0.890196 0.109804 0.137255
0.925490 0.117647 0.156863
0.945098 0.133333 0.164706
0.976471 0.149020 0.176471
1.000000 0.160784 0.192157
1.000000 0.176471 0.203922
1.000000 0.188235 0.211765
0.992157 0.196078 0.219608
0.000000 0.094118 0.007843
0.090196 0.090196 0.000000
0.168627 0.101961 0.000000
0.239216 0.098039 0.003922
0.313725 0.101961 0.007843
0.372549 0.094118 0.007843
0.423529 0.101961 0.015686
0.470588 0.094118 0.007843
0.529412 0.094118 0.019608
0.584314 0.094118 0.023529
0.623529 0.090196 0.035294
0.670588 0.090196 0.050980
0.713725 0.094118 0.058824
0.752941 0.098039 0.074510
0.796078 0.105882 0.105882
0.835294 0.113725 0.113725
0.850980 0.121569 0.125490
0.882353 0.137255 0.137255
0.921569 0.152941 0.160784
0.956863 0.160784 0.172549
0.992157 0.172549 0.192157
1.000000 0.180392 0.200000
0.996078 0.196078 0.200000
1.000000 0.203922 0.215686
0.996078 0.211765 0.223529
0.003922 0.172549 0.003922
0.090196 0.172549 0.011765
0.176471 0.168627 0.007843
0.235294 0.168627 0.000000
0.309804 0.172549 0.015686
0.368627 0.164706 0.007843
0.419608 0.164706 0.015686
0.470588 0.156863 0.011765
0.533333 0.152941 0.023529
0.580392 0.152941 0.031373
0.623529 0.149020 0.043137
0.666667 0.149020 0.058824
0.709804 0.152941 0.074510
0.756863 0.145098 0.086275
0.784314 0.156863 0.101961
0.819608 0.160784 0.117647
0.850980 0.168627 0.133333
0.882353 0.172549 0.145098
0.921569 0.180392 0.164706
0.949020 0.192157 0.172549
0.972549 0.196078 0.184314
1.000000 0.203922 0.188235
0.992157 0.215686 0.203922
1.000000 0.215686 0.227451
0.996078 0.227451 0.231373
0.000000 0.239216 0.007843
0.082353 0.239216 0.000000
0.160784 0.247059 0.000000
0.243137 0.235294 0.011765
0.298039 0.235294 0.000000
0.368627 0.231373 0.019608
0.423529 0.227451 0.019608
0.478431 0.219608 0.023529
0.521569 0.215686 0.027451
0.572549 0.215686 0.043137
0.615686 0.215686 0.058824
0.670588 0.211765 0.074510
0.709804 0.203922 0.082353
0.749020 0.207843 0.105882
0.788235 0.203922 0.117647
0.823529 0.207843 0.133333
0.850980 0.211765 0.145098
0.886275 0.211765 0.156863
0.909804 0.219608 0.168627
0.945098 0.223529 0.176471
0.976471 0.227451 0.188235
0.992157 0.235294 0.207843
1.000000 0.239216 0.203922
1.000000 0.254902 0.215686
1.000000 0.250980 0.231373
0.000000 0.305882 0.007843
0.074510 0.301961 0.011765
0.160784 0.301961 0.011765
0.231373 0.301961 0.003922
0.298039 0.298039 0.015686
0.356863 0.298039 0.027451
0.407843 0.286275 0.031373
0.470588 0.282353 0.039216
0.521569 0.278431 0.054902
0.568627 0.270588 0.066667
0.615686 0.270588 0.082353
0.658824 0.262745 0.090196
0.705882 0.262745 0.098039
0.745098 0.258824 0.109804
0.780392 0.258824 0.129412
0.815686 0.262745 0.145098
0.843137 0.254902 0.156863
0.878431 0.254902 0.168627
0.905882 0.258824 0.180392
0.941176 0.266667 0.188235
0.976471 0.266667 0.200000
1.000000 0.274510 0.203922
1.000000 0.274510 0.215686
0.992157 0.278431 0.223529
0.996078 0.282353 0.231373
0.000000 0.364706 0.027451
0.074510 0.360784 0.039216
0.149020 0.364706 0.039216
0.223529 0.360784 0.039216
0.290196 0.356863 0.043137
0.345098 0.356863 0.047059
0.407843 0.352941 0.058824
0.462745 0.345098 0.062745
0.517647 0.341176 0.074510
0.564706 0.337255 0.086275
0.611765 0.329412 0.098039
0.662745 0.321569 0.109804
0.713725 0.321569 0.129412
0.749020 0.313725 0.137255
0.788235 0.309804 0.149020
0.815686 0.309804 0.156863
0.850980 0.309804 0.168627
0.874510 0.309804 0.176471
0.905882 0.305882 0.184314
0.941176 0.309804 0.200000
0.976471 0.309804 0.211765
0.996078 0.305882 0.215686
1.000000 0.309804 0.219608
0.996078 0.321569 0.235294
1.000000 0.321569 0.239216
0.000000 0.407843 0.074510
0.066667 0.411765 0.070588
0.141176 0.407843 0.074510
0.203922 0.407843 0.074510
0.270588 0.407843 0.078431
0.341176 0.411765 0.090196
0.396078 0.400000 0.086275
0.462745 0.400000 0.098039
0.509804 0.392157 0.105882
0.560784 0.388235 0.109804
0.603922 0.380392 0.117647
0.654902 0.376471 0.133333
0.690196 0.368627 0.141176
0.737255 0.368627 0.156863
0.768627 0.372549 0.168627
0.807843 0.356863 0.172549
0.835294 0.360784 0.184314
0.870588 0.356863 0.192157
0.901961 0.356863 0.203922
0.937255 0.349020 0.211765
0.972549 0.352941 0.215686
0.996078 0.349020 0.223529
1.000000 0.356863 0.231373
1.000000 0.356863 0.247059
1.000000 0.352941 0.250980
0.000000 0.454902 0.105882
0.090196 0.450980 0.109804
0.133333 0.458824 0.105882
0.211765 0.462745 0.094118
0.266667 0.458824 0.109804
0.333333 0.450980 0.105882
0.384314 0.454902 0.117647
0.443137 0.458824 0.125490
0.501961 0.454902 0.133333
0.556863 0.450980 0.141176
0.603922 0.439216 0.149020
0.647059 0.435294 0.152941
0.690196 0.427451 0.160784
0.729412 0.423529 0.164706
0.768627 0.415686 0.180392
0.803922 0.407843 0.188235
0.839216 0.403922 0.196078
0.870588 0.400000 0.203922
0.901961 0.400000 0.215686
0.933333 0.396078 0.223529
0.960784 0.400000 0.235294
1.000000 0.400000 0.239216
1.000000 0.392157 0.235294
0.988235 0.400000 0.254902
1.000000 0.396078 0.254902
0.019608 0.505882 0.137255
0.090196 0.501961 0.129412
0.141176 0.509804 0.141176
0.207843 0.501961 0.145098
0.262745 0.513725 0.145098
0.313725 0.509804 0.137255
0.368627 0.505882 0.145098
0.431373 0.505882 0.152941
0.490196 0.501961 0.152941
0.541176 0.494118 0.156863
0.596078 0.494118 0.164706
0.635294 0.486275 0.168627
0.682353 0.482353 0.172549
0.721569 0.470588 0.188235
0.756863 0.466667 0.188235
0.792157 0.458824 0.196078
0.823529 0.454902 0.203922
0.858824 0.447059 0.219608
0.894118 0.443137 0.227451
0.925490 0.439216 0.235294
0.952941 0.439216 0.235294
0.992157 0.435294 0.254902
1.000000 0.435294 0.250980
0.992157 0.435294 0.254902
1.000000 0.431373 0.270588
0.054902 0.552941 0.149020
0.113725 0.552941 0.168627
0.152941 0.545098 0.160784
0.207843 0.552941 0.160784
0.266667 0.549020 0.160784
0.317647 0.552941 0.176471
0.368627 0.549020 0.164706
0.427451 0.552941 0.172549
0.470588 0.549020 0.168627
0.525490 0.545098 0.176471
0.584314 0.541176 0.180392
0.635294 0.537255 0.184314
0.674510 0.525490 0.200000
0.709804 0.517647 0.207843
0.749020 0.505882 0.211765
0.788235 0.505882 0.215686
0.819608 0.494118 0.219608
0.854902 0.490196 0.227451
0.886275 0.486275 0.235294
0.925490 0.482353 0.247059
0.952941 0.482353 0.247059
0.988235 0.474510 0.254902
1.000000 0.470588 0.266667
1.000000 0.470588 0.274510
1.000000 0.470588 0.282353
0.098039 0.596078 0.184314
0.137255 0.596078 0.188235
0.172549 0.600000 0.188235
0.215686 0.603922 0.188235
0.266667 0.592157 0.184314
0.313725 0.596078 0.196078
0.368627 0.596078 0.196078
0.427451 0.592157 0.207843
0.462745 0.588235 0.192157
0.517647 0.588235 0.200000
0.572549 0.592157 0.200000
0.623529 0.584314 0.200000
0.670588 0.580392 0.211765
0.701961 0.568627 0.215686
0.741176 0.560784 0.223529
0.780392 0.552941 0.231373
0.815686 0.545098 0.239216
0.847059 0.541176 0.247059
0.878431 0.533333 0.250980
0.913725 0.525490 0.258824
0.952941 0.525490 0.262745
0.988235 0.517647 0.270588
1.000000 0.521569 0.286275
1.000000 0.521569 0.286275
1.000000 0.513725 0.286275
0.117647 0.635294 0.203922
0.149020 0.635294 0.203922
0.172549 0.631373 0.211765
0.219608 0.639216 0.223529
0.270588 0.635294 0.215686
0.317647 0.631373 0.196078
0.360784 0.631373 0.215686
0.403922 0.627451 0.207843
0.458824 0.627451 0.207843
0.505882 0.627451 0.219608
0.560784 0.631373 0.231373
0.603922 0.623529 0.231373
0.654902 0.623529 0.235294
0.701961 0.611765 0.235294
0.737255 0.607843 0.243137
0.772549 0.592157 0.247059
0.807843 0.588235 0.254902
0.847059 0.580392 0.254902
0.878431 0.576471 0.262745
0.913725 0.572549 0.262745
0.945098 0.568627 0.270588
0.980392 0.560784 0.278431
1.000000 0.556863 0.282353
1.000000 0.556863 0.290196
1.000000 0.560784 0.301961
0.149020 0.670588 0.219608
0.172549 0.670588 0.227451
0.203922 0.658824 0.239216
0.227451 0.666667 0.235294
0.274510 0.662745 0.247059
0.305882 0.674510 0.243137
0.356863 0.662745 0.231373
0.403922 0.662745 0.239216
0.454902 0.662745 0.239216
0.498039 0.662745 0.239216
0.541176 0.654902 0.231373
0.588235 0.654902 0.239216
0.635294 0.658824 0.243137
0.678431 0.650980 0.243137
0.721569 0.643137 0.254902
0.764706 0.635294 0.254902
0.800000 0.631373 0.262745
0.835294 0.623529 0.270588
0.870588 0.619608 0.274510
0.905882 0.615686 0.282353
0.945098 0.607843 0.282353
0.980392 0.600000 0.290196
0.996078 0.603922 0.298039
1.000000 0.596078 0.294118
1.000000 0.596078 0.301961
0.172549 0.690196 0.250980
0.196078 0.698039 0.254902
0.211765 0.694118 0.239216
0.243137 0.701961 0.254902
0.270588 0.701961 0.250980
0.317647 0.698039 0.254902
0.356863 0.694118 0.258824
0.403922 0.694118 0.250980
0.443137 0.694118 0.254902
0.486275 0.690196 0.254902
0.533333 0.686275 0.258824
0.580392 0.690196 0.258824
0.619608 0.690196 0.266667
0.670588 0.682353 0.262745
0.709804 0.682353 0.266667
0.752941 0.678431 0.274510
0.788235 0.674510 0.282353
0.831373 0.662745 0.290196
0.866667 0.658824 0.290196
0.901961 0.654902 0.290196
0.933333 0.643137 0.294118
0.972549 0.643137 0.298039
1.000000 0.639216 0.298039
1.000000 0.639216 0.305882
1.000000 0.639216 0.313725
0.200000 0.729412 0.258824
0.211765 0.725490 0.270588
0.219608 0.725490 0.270588
0.258824 0.725490 0.270588
0.282353 0.733333 0.274510
0.321569 0.725490 0.274510
0.360784 0.725490 0.274510
0.400000 0.725490 0.270588
0.435294 0.721569 0.270588
0.478431 0.725490 0.274510
0.529412 0.725490 0.282353
0.572549 0.721569 0.286275
0.615686 0.721569 0.278431
0.650980 0.717647 0.278431
0.690196 0.713725 0.282353
0.741176 0.717647 0.286275
0.784314 0.713725 0.290196
0.819608 0.709804 0.290196
0.858824 0.694118 0.294118
0.894118 0.690196 0.301961
0.925490 0.690196 0.305882
0.960784 0.686275 0.309804
0.988235 0.678431 0.313725
0.996078 0.678431 0.321569
1.000000 0.674510 0.321569
0.219608 0.768627 0.290196
0.239216 0.764706 0.290196
0.243137 0.768627 0.294118
0.266667 0.768627 0.294118
0.309804 0.760784 0.301961
0.333333 0.760784 0.294118
0.356863 0.764706 0.290196
0.396078 0.764706 0.286275
0.447059 0.764706 0.301961
0.482353 0.756863 0.301961
0.525490 0.756863 0.301961
0.564706 0.756863 0.298039
0.607843 0.752941 0.298039
0.647059 0.752941 0.294118
0.694118 0.749020 0.301961
0.733333 0.749020 0.305882
0.776471 0.749020 0.301961
0.815686 0.752941 0.317647
0.854902 0.745098 0.317647
0.886275 0.737255 0.317647
0.917647 0.733333 0.317647
0.960784 0.729412 0.321569
0.992157 0.725490 0.329412
1.000000 0.717647 0.329412
0.996078 0.717647 0.356863
0.239216 0.788235 0.298039
0.247059 0.796078 0.305882
0.278431 0.788235 0.309804
0.294118 0.788235 0.305882
0.305882 0.792157 0.313725
0.345098 0.792157 0.317647
0.376471 0.792157 0.313725
0.407843 0.792157 0.309804
0.439216 0.784314 0.305882
0.486275 0.792157 0.313725
0.509804 0.788235 0.309804
0.556863 0.792157 0.313725
0.596078 0.784314 0.305882
0.650980 0.788235 0.317647
0.686275 0.784314 0.321569
0.721569 0.792157 0.321569
0.764706 0.784314 0.321569
0.807843 0.780392 0.325490
0.843137 0.776471 0.329412
0.882353 0.776471 0.325490
0.929412 0.772549 0.329412
0.964706 0.764706 0.337255
0.996078 0.768627 0.349020
1.000000 0.760784 0.345098
1.000000 0.756863 0.352941
0.262745 0.823529 0.329412
0.266667 0.827451 0.325490
0.278431 0.831373 0.329412
0.301961 0.823529 0.321569
0.317647 0.831373 0.329412
0.341176 0.823529 0.325490
0.380392 0.819608 0.325490
0.411765 0.819608 0.329412
0.447059 0.823529 0.329412
0.474510 0.823529 0.329412
0.517647 0.815686 0.321569
0.560784 0.819608 0.333333
0.603922 0.815686 0.329412
0.639216 0.811765 0.329412
0.670588 0.823529 0.325490
0.717647 0.819608 0.329412
0.756863 0.819608 0.333333
0.792157 0.815686 0.337255
0.835294 0.811765 0.341176
0.874510 0.811765 0.337255
0.917647 0.815686 0.349020
0.949020 0.803922 0.352941
0.996078 0.800000 0.356863
1.000000 0.788235 0.360784
1.000000 0.803922 0.352941
0.282353 0.858824 0.349020
0.274510 0.866667 0.329412
0.294118 0.847059 0.337255
0.313725 0.862745 0.341176
0.325490 0.858824 0.341176
0.356863 0.854902 0.341176
0.384314 0.850980 0.341176
0.411765 0.854902 0.337255
0.443137 0.858824 0.341176
0.482353 0.854902 0.345098
0.517647 0.850980 0.345098
0.556863 0.850980 0.345098
0.596078 0.850980 0.349020
0.631373 0.854902 0.349020
0.670588 0.854902 0.352941
0.713725 0.850980 0.349020
0.745098 0.847059 0.349020
0.784314 0.843137 0.345098
0.823529 0.843137 0.349020
0.866667 0.847059 0.352941
0.905882 0.847059 0.356863
0.945098 0.843137 0.360784
0.964706 0.839216 0.356863
0.996078 0.835294 0.372549
1.000000 0.831373 0.380392
0.294118 0.890196 0.360784
0.298039 0.890196 0.352941
0.313725 0.886275 0.356863
0.321569 0.890196 0.352941
0.352941 0.886275 0.352941
0.368627 0.886275 0.356863
0.392157 0.886275 0.352941
0.419608 0.894118 0.356863
0.454902 0.886275 0.356863
0.486275 0.886275 0.356863
0.517647 0.886275 0.352941
0.549020 0.886275 0.356863
0.600000 0.886275 0.364706
0.623529 0.882353 0.364706
0.662745 0.882353 0.360784
0.701961 0.882353 0.356863
0.737255 0.878431 0.352941
0.780392 0.882353 0.360784
0.819608 0.882353 0.364706
0.854902 0.882353 0.372549
0.890196 0.878431 0.364706
0.945098 0.878431 0.368627
0.984314 0.878431 0.372549
1.000000 0.870588 0.376471
1.000000 0.862745 0.380392
0.309804 0.929412 0.384314
0.329412 0.921569 0.376471
0.337255 0.917647 0.368627
0.341176 0.921569 0.372549
0.360784 0.921569 0.368627
0.384314 0.921569 0.376471
0.403922 0.925490 0.372549
0.439216 0.921569 0.372549
0.458824 0.921569 0.372549
0.486275 0.921569 0.376471
0.525490 0.921569 0.380392
0.556863 0.921569 0.372549
0.596078 0.917647 0.380392
0.631373 0.913725 0.380392
0.666667 0.917647 0.376471
0.698039 0.917647 0.380392
0.737255 0.921569 0.380392
0.776471 0.917647 0.384314
0.819608 0.909804 0.384314
0.858824 0.913725 0.384314
0.890196 0.913725 0.388235
0.933333 0.905882 0.384314
0.976471 0.909804 0.400000
0.996078 0.917647 0.403922
0.996078 0.905882 0.388235
0.325490 0.949020 0.376471
0.329412 0.945098 0.384314
0.337255 0.960784 0.396078
0.356863 0.952941 0.388235
0.380392 0.952941 0.384314
0.384314 0.956863 0.388235
0.407843 0.952941 0.384314
0.435294 0.949020 0.392157
0.474510 0.949020 0.396078
0.501961 0.945098 0.388235
0.533333 0.952941 0.396078
0.560784 0.949020 0.388235
0.596078 0.956863 0.388235
0.627451 0.949020 0.384314
0.666667 0.952941 0.392157
0.701961 0.949020 0.388235
0.737255 0.949020 0.400000
0.780392 0.949020 0.396078
0.815686 0.945098 0.400000
0.854902 0.945098 0.396078
0.894118 0.941176 0.400000
0.929412 0.937255 0.403922
0.952941 0.945098 0.415686
1.000000 0.941176 0.403922
1.000000 0.941176 0.403922
0.345098 0.980392 0.400000
0.356863 0.984314 0.396078
0.356863 0.984314 0.396078
0.368627 0.980392 0.407843
0.380392 0.988235 0.388235
0.407843 0.984314 0.396078
0.419608 0.984314 0.400000
0.447059 0.984314 0.403922
0.474510 0.984314 0.403922
0.501961 0.980392 0.403922
0.533333 0.980392 0.403922
0.568627 0.984314 0.403922
0.596078 0.980392 0.403922
0.631373 0.984314 0.407843
0.662745 0.972549 0.403922
0.694118 0.976471 0.411765
0.733333 0.976471 0.407843
0.768627 0.976471 0.411765
0.807843 0.972549 0.407843
0.843137 0.972549 0.411765
0.886275 0.976471 0.415686
0.917647 0.976471 0.415686
0.937255 0.972549 0.419608
0.992157 0.968627 0.419608
1.000000 0.972549 0.423529
0.356863 1.000000 0.407843
0.372549 1.000000 0.419608
0.384314 1.000000 0.415686
0.384314 1.000000 0.415686
0.411765 1.000000 0.423529
0.411765 1.000000 0.415686
0.435294 1.000000 0.415686
0.454902 0.996078 0.415686
0.478431 0.996078 0.415686
0.505882 1.000000 0.419608
0.537255 1.000000 0.419608
0.560784 1.000000 0.423529
0.596078 1.000000 0.419608
0.623529 1.000000 0.415686
0.654902 1.000000 0.419608
0.694118 1.000000 0.427451
0.733333 1.000000 0.423529
0.764706 1.000000 0.423529
0.796078 1.000000 0.423529
0.835294 1.000000 0.427451
0.870588 0.996078 0.427451
0.898039 0.996078 0.431373
0.937255 0.996078 0.427451
0.980392 0.992157 0.439216
0.996078 0.992157 0.427451
0.380392 1.000000 0.423529
0.380392 1.000000 0.415686
0.396078 1.000000 0.427451
0.411765 0.996078 0.431373
0.407843 1.000000 0.435294
0.423529 1.000000 0.431373
0.443137 1.000000 0.427451
0.462745 1.000000 0.427451
0.490196 0.996078 0.427451
0.517647 0.996078 0.427451
0.537255 1.000000 0.427451
0.564706 1.000000 0.431373
0.596078 1.000000 0.427451
0.631373 1.000000 0.427451
0.662745 0.996078 0.427451
0.690196 1.000000 0.431373
0.717647 1.000000 0.435294
0.752941 1.000000 0.439216
0.788235 1.000000 0.435294
0.827451 1.000000 0.447059
0.854902 1.000000 0.443137
0.901961 1.000000 0.439216
0.929412 0.996078 0.443137
0.956863 1.000000 0.447059
0.984314 1.000000 0.447059
0.003922 0.003922 0.105882
0.090196 0.000000 0.113725
0.172549 0.000000 0.109804
0.235294 0.000000 0.101961
0.309804 0.003922 0.105882
0.372549 0.003922 0.109804
0.427451 0.000000 0.113725
0.478431 0.000000 0.117647
0.541176 0.000000 0.109804
0.588235 0.011765 0.125490
0.627451 0.031373 0.129412
0.670588 0.043137 0.137255
0.713725 0.058824 0.137255
0.752941 0.074510 0.149020
0.788235 0.086275 0.160784
0.827451 0.101961 0.164706
0.858824 0.121569 0.176471
0.882353 0.129412 0.188235
0.917647 0.141176 0.200000
0.952941 0.160784 0.215686
0.976471 0.168627 0.215686
0.992157 0.180392 0.219608
0.996078 0.188235 0.227451
0.992157 0.203922 0.235294
1.000000 0.211765 0.250980
0.000000 0.094118 0.094118
0.098039 0.086275 0.121569
0.164706 0.086275 0.090196
0.250980 0.090196 0.105882
0.301961 0.086275 0.109804
0.364706 0.090196 0.121569
0.427451 0.086275 0.117647
0.474510 0.098039 0.113725
0.529412 0.094118 0.117647
0.584314 0.101961 0.121569
0.619608 0.094118 0.121569
0.674510 0.109804 0.145098
0.713725 0.109804 0.141176
0.756863 0.125490 0.156863
0.788235 0.133333 0.164706
0.823529 0.145098 0.168627
0.854902 0.149020 0.184314
0.886275 0.160784 0.192157
0.913725 0.172549 0.200000
0.941176 0.180392 0.211765
0.972549 0.192157 0.219608
0.988235 0.200000 0.223529
1.000000 0.207843 0.231373
1.000000 0.219608 0.239216
1.000000 0.219608 0.262745
0.000000 0.172549 0.101961
0.086275 0.168627 0.109804
0.176471 0.160784 0.113725
0.243137 0.168627 0.113725
0.305882 0.164706 0.101961
0.372549 0.168627 0.125490
0.427451 0.160784 0.117647
0.470588 0.156863 0.121569
0.521569 0.156863 0.125490
0.576471 0.156863 0.133333
0.623529 0.156863 0.141176
0.662745 0.164706 0.141176
0.705882 0.164706 0.152941
0.749020 0.168627 0.160784
0.788235 0.168627 0.164706
0.819608 0.176471 0.180392
0.847059 0.180392 0.184314
0.878431 0.188235 0.196078
0.917647 0.196078 0.203922
0.941176 0.203922 0.207843
0.972549 0.211765 0.215686
1.000000 0.219608 0.227451
1.000000 0.231373 0.235294
0.996078 0.227451 0.235294
1.000000 0.239216 0.254902
0.000000 0.239216 0.117647
0.074510 0.235294 0.109804
0.149020 0.239216 0.125490
0.231373 0.235294 0.109804
0.298039 0.231373 0.113725
0.368627 0.231373 0.121569
0.411765 0.227451 0.125490
0.466667 0.223529 0.125490
0.517647 0.219608 0.129412
0.572549 0.215686 0.141176
0.615686 0.211765 0.137255
0.666667 0.215686 0.145098
0.705882 0.211765 0.152941
0.752941 0.219608 0.164706
0.780392 0.219608 0.164706
0.815686 0.219608 0.176471
0.843137 0.223529 0.180392
0.870588 0.227451 0.192157
0.905882 0.235294 0.207843
0.937255 0.235294 0.215686
0.972549 0.235294 0.227451
1.000000 0.243137 0.223529
1.000000 0.250980 0.231373
1.000000 0.258824 0.250980
1.000000 0.262745 0.254902
0.000000 0.298039 0.117647
0.074510 0.298039 0.121569
0.156863 0.298039 0.125490
0.219608 0.301961 0.133333
0.298039 0.294118 0.113725
0.349020 0.298039 0.125490
0.407843 0.294118 0.137255
0.462745 0.282353 0.141176
0.517647 0.282353 0.141176
0.568627 0.282353 0.152941
0.607843 0.274510 0.152941
0.654902 0.270588 0.156863
0.709804 0.274510 0.168627
0.745098 0.266667 0.176471
0.776471 0.266667 0.180392
0.811765 0.266667 0.192157
0.843137 0.266667 0.203922
0.878431 0.266667 0.207843
0.909804 0.266667 0.219608
0.945098 0.270588 0.223529
0.972549 0.274510 0.235294
0.996078 0.282353 0.239216
1.000000 0.286275 0.243137
1.000000 0.290196 0.254902
1.000000 0.290196 0.262745
0.000000 0.356863 0.125490
0.082353 0.360784 0.141176
0.152941 0.360784 0.141176
0.215686 0.364706 0.133333
0.282353 0.356863 0.137255
0.345098 0.356863 0.141176
0.403922 0.352941 0.145098
0.470588 0.345098 0.152941
0.513725 0.341176 0.149020
0.560784 0.341176 0.156863
0.600000 0.333333 0.156863
0.647059 0.325490 0.168627
0.701961 0.325490 0.176471
0.741176 0.321569 0.180392
0.780392 0.321569 0.192157
0.815686 0.317647 0.192157
0.843137 0.309804 0.207843
0.866667 0.309804 0.215686
0.905882 0.317647 0.223529
0.937255 0.313725 0.227451
0.976471 0.313725 0.239216
1.000000 0.317647 0.243137
1.000000 0.321569 0.254902
0.996078 0.325490 0.254902
0.996078 0.329412 0.278431
0.000000 0.415686 0.149020
0.078431 0.411765 0.156863
0.164706 0.407843 0.160784
0.207843 0.407843 0.149020
0.274510 0.411765 0.152941
0.337255 0.400000 0.152941
0.400000 0.407843 0.149020
0.447059 0.400000 0.164706
0.501961 0.400000 0.168627
0.552941 0.396078 0.164706
0.607843 0.392157 0.180392
0.654902 0.380392 0.180392
0.694118 0.380392 0.188235
0.733333 0.372549 0.188235
0.768627 0.372549 0.200000
0.815686 0.360784 0.215686
0.839216 0.360784 0.215686
0.870588 0.360784 0.227451
0.901961 0.356863 0.227451
0.937255 0.356863 0.239216
0.964706 0.356863 0.239216
0.992157 0.360784 0.250980
1.000000 0.352941 0.250980
1.000000 0.352941 0.258824
1.000000 0.364706 0.266667
0.019608 0.458824 0.160784
0.098039 0.450980 0.160784
0.156863 0.462745 0.168627
0.207843 0.458824 0.168627
0.266667 0.462745 0.176471
0.329412 0.458824 0.188235
0.388235 0.450980 0.164706
0.443137 0.454902 0.176471
0.501961 0.450980 0.176471
0.556863 0.450980 0.188235
0.600000 0.439216 0.188235
0.639216 0.439216 0.192157
0.690196 0.431373 0.196078
0.729412 0.431373 0.203922
0.768627 0.415686 0.211765
0.796078 0.411765 0.219608
0.831373 0.407843 0.223529
0.862745 0.403922 0.231373
0.898039 0.400000 0.239216
0.929412 0.396078 0.239216
0.960784 0.396078 0.250980
0.996078 0.400000 0.254902
0.996078 0.388235 0.266667
1.000000 0.400000 0.266667
0.992157 0.403922 0.274510
0.054902 0.498039 0.176471
0.117647 0.505882 0.184314
0.160784 0.505882 0.176471
0.219608 0.505882 0.188235
0.262745 0.501961 0.188235
0.317647 0.501961 0.184314
0.372549 0.501961 0.192157
0.435294 0.501961 0.196078
0.490196 0.501961 0.200000
0.545098 0.498039 0.207843
0.584314 0.490196 0.200000
0.635294 0.486275 0.207843
0.678431 0.482353 0.211765
0.721569 0.470588 0.219608
0.756863 0.466667 0.219608
0.792157 0.462745 0.227451
0.827451 0.454902 0.235294
0.862745 0.447059 0.243137
0.894118 0.447059 0.250980
0.929412 0.439216 0.258824
0.956863 0.435294 0.258824
0.988235 0.427451 0.254902
1.000000 0.435294 0.262745
0.996078 0.439216 0.282353
1.000000 0.443137 0.286275
0.082353 0.545098 0.207843
0.133333 0.549020 0.203922
0.164706 0.552941 0.200000
0.203922 0.552941 0.192157
0.274510 0.541176 0.200000
0.325490 0.545098 0.203922
0.376471 0.541176 0.203922
0.427451 0.545098 0.207843
0.474510 0.545098 0.207843
0.529412 0.545098 0.211765
0.580392 0.541176 0.207843
0.635294 0.537255 0.215686
0.674510 0.525490 0.231373
0.705882 0.517647 0.227451
0.741176 0.513725 0.227451
0.776471 0.505882 0.235294
0.815686 0.498039 0.243137
0.843137 0.490196 0.243137
0.878431 0.494118 0.254902
0.913725 0.486275 0.262745
0.952941 0.486275 0.266667
0.980392 0.482353 0.266667
0.996078 0.482353 0.278431
0.996078 0.478431 0.286275
1.000000 0.474510 0.290196
0.105882 0.600000 0.219608
0.145098 0.600000 0.219608
0.176471 0.596078 0.219608
0.223529 0.600000 0.219608
0.274510 0.592157 0.227451
0.317647 0.596078 0.227451
0.360784 0.596078 0.219608
0.419608 0.592157 0.219608
0.466667 0.588235 0.223529
0.521569 0.588235 0.227451
0.576471 0.588235 0.231373
