loleis/其他/lut20种/Sports LUT #15.cube
TITLE "Sports LUT #15"
#LUT size
LUT_3D_SIZE 9
#LUT data points
0.000000 0.000000 0.000000
0.156863 0.000000 0.003922
0.329412 0.019608 0.000000
0.490196 0.043137 0.003922
0.662745 0.062745 0.000000
0.823529 0.082353 0.003922
0.952941 0.109804 0.000000
1.000000 0.137255 0.011765
1.000000 0.160784 0.078431
0.003922 0.192157 0.000000
0.133333 0.196078 0.011765
0.309804 0.203922 0.000000
0.474510 0.200000 0.000000
0.639216 0.203922 0.000000
0.803922 0.211765 0.003922
0.937255 0.219608 0.000000
0.996078 0.215686 0.000000
0.996078 0.231373 0.058824
0.003922 0.360784 0.000000
0.062745 0.360784 0.003922
0.286275 0.368627 0.000000
0.482353 0.360784 0.003922
0.662745 0.372549 0.000000
0.815686 0.372549 0.011765
0.937255 0.360784 0.000000
1.000000 0.352941 0.039216
1.000000 0.345098 0.090196
0.000000 0.529412 0.000000
0.000000 0.541176 0.000000
0.290196 0.541176 0.007843
0.474510 0.541176 0.000000
0.650980 0.537255 0.003922
0.788235 0.521569 0.000000
0.901961 0.498039 0.000000
0.996078 0.486275 0.039216
1.000000 0.462745 0.074510
0.000000 0.709804 0.000000
0.000000 0.713725 0.007843
0.250980 0.713725 0.000000
0.458824 0.709804 0.000000
0.635294 0.705882 0.000000
0.784314 0.682353 0.003922
0.898039 0.654902 0.015686
1.000000 0.627451 0.094118
1.000000 0.603922 0.141176
0.000000 0.858824 0.058824
0.000000 0.854902 0.066667
0.203922 0.854902 0.054902
0.415686 0.843137 0.039216
0.592157 0.835294 0.023529
0.749020 0.823529 0.023529
0.878431 0.800000 0.050980
0.980392 0.768627 0.109804
0.992157 0.737255 0.172549
0.000000 0.929412 0.109804
0.000000 0.933333 0.113725
0.145098 0.925490 0.129412
0.368627 0.929412 0.129412
0.533333 0.913725 0.113725
0.682353 0.905882 0.109804
0.819608 0.905882 0.101961
0.949020 0.886275 0.113725
1.000000 0.854902 0.164706
0.011765 1.000000 0.227451
0.000000 1.000000 0.239216
0.180392 1.000000 0.247059
0.356863 1.000000 0.243137
0.494118 1.000000 0.243137
0.631373 0.996078 0.243137
0.764706 0.988235 0.231373
0.901961 0.976471 0.239216
1.000000 0.960784 0.262745
0.003922 1.000000 0.290196
0.043137 1.000000 0.321569
0.223529 1.000000 0.313725
0.341176 1.000000 0.321569
0.458824 1.000000 0.301961
0.588235 1.000000 0.294118
0.705882 1.000000 0.298039
0.823529 1.000000 0.298039
0.925490 1.000000 0.309804
0.000000 0.000000 0.192157
0.149020 0.000000 0.192157
0.325490 0.000000 0.180392
0.478431 0.039216 0.188235
0.650980 0.050980 0.172549
0.815686 0.086275 0.180392
0.929412 0.113725 0.176471
1.000000 0.137255 0.172549
1.000000 0.168627 0.192157
0.000000 0.192157 0.180392
0.109804 0.196078 0.184314
0.290196 0.192157 0.176471
0.458824 0.196078 0.172549
0.647059 0.203922 0.188235
0.796078 0.203922 0.168627
0.905882 0.207843 0.168627
1.000000 0.211765 0.172549
1.000000 0.223529 0.180392
0.003922 0.360784 0.188235
0.035294 0.360784 0.188235
0.294118 0.364706 0.176471
0.478431 0.356863 0.176471
0.647059 0.364706 0.176471
0.796078 0.364706 0.172549
0.913725 0.356863 0.168627
1.000000 0.349020 0.176471
1.000000 0.349020 0.184314
0.007843 0.505882 0.149020
0.000000 0.521569 0.172549
0.266667 0.521569 0.152941
0.458824 0.517647 0.160784
0.627451 0.513725 0.152941
0.764706 0.509804 0.156863
0.886275 0.490196 0.168627
0.984314 0.470588 0.164706
1.000000 0.458824 0.172549
0.007843 0.694118 0.149020
0.007843 0.694118 0.149020
0.231373 0.698039 0.141176
0.450980 0.698039 0.149020
0.619608 0.686275 0.145098
0.764706 0.670588 0.145098
0.882353 0.647059 0.176471
0.992157 0.619608 0.188235
1.000000 0.607843 0.215686
0.003922 0.839216 0.172549
0.000000 0.839216 0.192157
0.203922 0.835294 0.192157
0.411765 0.831373 0.180392
0.584314 0.823529 0.176471
0.733333 0.815686 0.176471
0.874510 0.796078 0.180392
0.976471 0.760784 0.196078
1.000000 0.733333 0.227451
0.000000 0.913725 0.180392
0.000000 0.917647 0.192157
0.133333 0.913725 0.203922
0.356863 0.913725 0.196078
0.525490 0.909804 0.200000
0.670588 0.901961 0.196078
0.811765 0.894118 0.184314
0.937255 0.878431 0.184314
1.000000 0.847059 0.227451
0.000000 1.000000 0.274510
0.003922 0.996078 0.294118
0.196078 0.996078 0.301961
0.360784 1.000000 0.305882
0.494118 0.996078 0.286275
0.639216 0.988235 0.282353
0.756863 0.984314 0.278431
0.898039 0.976471 0.282353
1.000000 0.960784 0.301961
0.007843 0.996078 0.317647
0.003922 0.996078 0.333333
0.211765 0.996078 0.337255
0.337255 1.000000 0.341176
0.458824 1.000000 0.329412
0.592157 1.000000 0.329412
0.701961 1.000000 0.333333
0.815686 1.000000 0.329412
0.925490 1.000000 0.345098
0.003922 0.000000 0.364706
0.129412 0.000000 0.356863
0.309804 0.000000 0.356863
0.482353 0.027451 0.352941
0.658824 0.043137 0.352941
0.815686 0.062745 0.364706
0.937255 0.117647 0.345098
1.000000 0.164706 0.329412
1.000000 0.207843 0.337255
0.003922 0.180392 0.341176
0.086275 0.184314 0.345098
0.290196 0.192157 0.349020
0.462745 0.196078 0.341176
0.643137 0.192157 0.345098
0.796078 0.192157 0.341176
0.909804 0.207843 0.325490
1.000000 0.227451 0.333333
1.000000 0.250980 0.325490
0.000000 0.356863 0.345098
0.000000 0.356863 0.360784
0.278431 0.356863 0.349020
0.470588 0.352941 0.345098
0.650980 0.360784 0.349020
0.796078 0.356863 0.349020
0.905882 0.360784 0.341176
1.000000 0.360784 0.341176
1.000000 0.368627 0.337255
0.003922 0.513725 0.325490
0.000000 0.521569 0.345098
0.250980 0.521569 0.337255
0.454902 0.517647 0.333333
0.623529 0.513725 0.325490
0.768627 0.498039 0.333333
0.882353 0.498039 0.321569
0.992157 0.474510 0.321569
0.996078 0.470588 0.325490
0.000000 0.698039 0.317647
0.007843 0.694118 0.329412
0.207843 0.701961 0.321569
0.439216 0.694118 0.325490
0.611765 0.686275 0.325490
0.760784 0.666667 0.321569
0.874510 0.643137 0.329412
0.984314 0.627451 0.341176
1.000000 0.603922 0.345098
0.000000 0.835294 0.349020
0.000000 0.831373 0.345098
0.196078 0.831373 0.352941
0.411765 0.827451 0.349020
0.584314 0.815686 0.345098
0.729412 0.811765 0.345098
0.866667 0.792157 0.329412
0.968627 0.760784 0.345098
1.000000 0.737255 0.364706
0.011765 0.909804 0.349020
0.003922 0.909804 0.352941
0.176471 0.917647 0.352941
0.368627 0.913725 0.345098
0.521569 0.901961 0.345098
0.670588 0.901961 0.337255
0.811765 0.898039 0.337255
0.929412 0.878431 0.337255
1.000000 0.843137 0.356863
0.000000 1.000000 0.415686
0.090196 1.000000 0.403922
0.243137 1.000000 0.407843
0.384314 1.000000 0.415686
0.509804 0.992157 0.403922
0.643137 0.980392 0.388235
0.752941 0.984314 0.396078
0.898039 0.976471 0.392157
0.988235 0.960784 0.400000
0.050980 0.988235 0.419608
0.168627 1.000000 0.427451
0.262745 0.996078 0.435294
0.384314 1.000000 0.439216
0.482353 1.000000 0.427451
0.611765 1.000000 0.439216
0.705882 1.000000 0.431373
0.823529 1.000000 0.423529
0.925490 1.000000 0.435294
0.000000 0.000000 0.537255
0.070588 0.000000 0.533333
0.298039 0.000000 0.525490
0.482353 0.011765 0.533333
0.662745 0.019608 0.533333
0.815686 0.050980 0.529412
0.933333 0.117647 0.494118
1.000000 0.200000 0.494118
1.000000 0.298039 0.486275
0.000000 0.188235 0.513725
0.007843 0.188235 0.533333
0.286275 0.188235 0.517647
0.470588 0.180392 0.521569
0.650980 0.180392 0.529412
0.796078 0.184314 0.509804
0.909804 0.215686 0.490196
1.000000 0.250980 0.482353
1.000000 0.333333 0.486275
0.003922 0.352941 0.517647
0.000000 0.349020 0.521569
0.262745 0.356863 0.529412
0.478431 0.349020 0.533333
0.654902 0.352941 0.525490
0.803922 0.352941 0.505882
0.905882 0.376471 0.501961
1.000000 0.403922 0.513725
1.000000 0.431373 0.513725
0.000000 0.521569 0.505882
0.000000 0.525490 0.521569
0.223529 0.529412 0.529412
0.447059 0.521569 0.513725
0.627451 0.517647 0.505882
0.756863 0.517647 0.505882
0.878431 0.505882 0.490196
0.976471 0.509804 0.494118
1.000000 0.501961 0.482353
0.000000 0.694118 0.509804
0.003922 0.694118 0.513725
0.207843 0.701961 0.513725
0.443137 0.690196 0.513725
0.615686 0.690196 0.513725
0.756863 0.670588 0.509804
0.870588 0.658824 0.509804
0.968627 0.643137 0.509804
1.000000 0.639216 0.517647
0.000000 0.839216 0.537255
0.058824 0.835294 0.541176
0.274510 0.831373 0.533333
0.431373 0.823529 0.537255
0.592157 0.819608 0.529412
0.733333 0.811765 0.529412
0.850980 0.796078 0.517647
0.960784 0.764706 0.517647
1.000000 0.756863 0.533333
0.007843 0.901961 0.517647
0.145098 0.909804 0.533333
0.282353 0.909804 0.525490
0.407843 0.913725 0.517647
0.552941 0.905882 0.513725
0.682353 0.901961 0.513725
0.815686 0.894118 0.505882
0.925490 0.874510 0.498039
1.000000 0.858824 0.513725
0.200000 0.996078 0.545098
0.266667 0.988235 0.552941
0.352941 0.996078 0.556863
0.450980 0.992157 0.556863
0.541176 0.988235 0.545098
0.654902 0.984314 0.537255
0.772549 0.976471 0.541176
0.898039 0.976471 0.541176
0.984314 0.968627 0.549020
0.262745 1.000000 0.556863
0.305882 0.996078 0.560784
0.364706 1.000000 0.560784
0.435294 1.000000 0.556863
0.525490 1.000000 0.556863
0.623529 1.000000 0.552941
0.729412 0.996078 0.552941
0.827451 1.000000 0.549020
0.925490 1.000000 0.549020
0.000000 0.000000 0.701961
0.000000 0.003922 0.682353
0.270588 0.003922 0.682353
0.470588 0.015686 0.694118
0.647059 0.019608 0.694118
0.807843 0.023529 0.686275
0.921569 0.117647 0.654902
0.996078 0.188235 0.615686
1.000000 0.286275 0.611765
0.000000 0.188235 0.678431
0.000000 0.188235 0.690196
0.278431 0.180392 0.690196
0.462745 0.180392 0.682353
0.631373 0.176471 0.674510
0.784314 0.176471 0.674510
0.901961 0.203922 0.635294
0.996078 0.247059 0.611765
1.000000 0.321569 0.615686
0.007843 0.341176 0.694118
0.000000 0.345098 0.682353
0.243137 0.352941 0.682353
0.462745 0.345098 0.698039
0.635294 0.345098 0.694118
0.788235 0.352941 0.662745
0.901961 0.372549 0.643137
1.000000 0.403922 0.635294
0.984314 0.462745 0.639216
0.000000 0.509804 0.690196
0.000000 0.513725 0.686275
0.215686 0.505882 0.682353
0.435294 0.501961 0.674510
0.611765 0.505882 0.666667
0.756863 0.513725 0.658824
0.870588 0.521569 0.639216
0.964706 0.533333 0.639216
1.000000 0.549020 0.623529
0.000000 0.682353 0.678431
0.003922 0.694118 0.686275
0.219608 0.690196 0.682353
0.447059 0.690196 0.678431
0.607843 0.686275 0.682353
0.725490 0.682353 0.674510
0.854902 0.678431 0.666667
0.945098 0.670588 0.662745
0.996078 0.678431 0.666667
0.000000 0.831373 0.682353
0.105882 0.835294 0.682353
0.305882 0.823529 0.678431
0.466667 0.819608 0.678431
0.600000 0.819608 0.682353
0.725490 0.811765 0.670588
0.847059 0.796078 0.670588
0.929412 0.784314 0.670588
1.000000 0.780392 0.682353
0.145098 0.905882 0.666667
0.247059 0.917647 0.658824
0.364706 0.913725 0.666667
0.462745 0.909804 0.674510
0.576471 0.905882 0.662745
0.698039 0.901961 0.658824
0.811765 0.898039 0.654902
0.921569 0.882353 0.650980
1.000000 0.862745 0.674510
0.329412 0.992157 0.674510
0.376471 0.992157 0.690196
0.431373 0.988235 0.690196
0.494118 0.984314 0.678431
0.580392 0.984314 0.674510
0.678431 0.984314 0.686275
0.776471 0.976471 0.666667
0.882353 0.972549 0.666667
0.976471 0.964706 0.662745
0.380392 1.000000 0.674510
0.415686 1.000000 0.678431
0.447059 1.000000 0.682353
0.505882 1.000000 0.682353
0.572549 1.000000 0.674510
0.650980 1.000000 0.678431
0.745098 1.000000 0.670588
0.831373 1.000000 0.678431
0.913725 1.000000 0.674510
0.000000 0.027451 0.819608
0.000000 0.027451 0.807843
0.254902 0.047059 0.807843
0.435294 0.054902 0.811765
0.600000 0.070588 0.815686
0.749020 0.082353 0.807843
0.905882 0.094118 0.796078
0.992157 0.180392 0.768627
1.000000 0.274510 0.733333
0.000000 0.172549 0.803922
0.000000 0.184314 0.803922
0.231373 0.188235 0.800000
0.415686 0.180392 0.800000
0.588235 0.180392 0.796078
0.737255 0.184314 0.796078
0.882353 0.188235 0.776471
0.992157 0.235294 0.741176
0.996078 0.298039 0.729412
0.000000 0.337255 0.811765
0.003922 0.337255 0.803922
0.219608 0.337255 0.807843
0.419608 0.337255 0.803922
0.592157 0.341176 0.811765
0.745098 0.341176 0.800000
0.878431 0.352941 0.788235
0.984314 0.392157 0.756863
1.000000 0.439216 0.749020
0.000000 0.474510 0.784314
0.007843 0.482353 0.792157
0.223529 0.482353 0.780392
0.419608 0.486275 0.792157
0.564706 0.494118 0.784314
0.729412 0.494118 0.784314
0.850980 0.501961 0.768627
0.956863 0.517647 0.749020
1.000000 0.537255 0.741176
0.000000 0.643137 0.792157
0.000000 0.654902 0.800000
0.250980 0.654902 0.792157
0.439216 0.658824 0.788235
0.584314 0.666667 0.788235
0.717647 0.666667 0.784314
0.843137 0.666667 0.780392
0.929412 0.678431 0.772549
0.996078 0.686275 0.760784
0.003922 0.811765 0.811765
0.125490 0.815686 0.807843
0.301961 0.811765 0.803922
0.458824 0.807843 0.800000
0.592157 0.807843 0.796078
0.701961 0.800000 0.784314
0.815686 0.796078 0.780392
0.913725 0.792157 0.780392
0.992157 0.796078 0.800000
0.105882 0.894118 0.768627
0.211765 0.901961 0.760784
0.321569 0.901961 0.768627
0.450980 0.898039 0.768627
0.572549 0.898039 0.780392
0.690196 0.890196 0.768627
0.796078 0.886275 0.776471
0.894118 0.878431 0.764706
0.984314 0.874510 0.780392
0.321569 0.984314 0.760784
0.372549 0.996078 0.784314
0.439216 0.980392 0.776471
0.521569 0.980392 0.776471
0.603922 0.980392 0.792157
0.694118 0.976471 0.780392
0.784314 0.972549 0.776471
0.878431 0.972549 0.784314
0.952941 0.960784 0.776471
0.443137 1.000000 0.772549
0.470588 1.000000 0.780392
0.517647 1.000000 0.784314
0.572549 1.000000 0.776471
0.615686 1.000000 0.788235
0.690196 1.000000 0.776471
0.760784 1.000000 0.776471
0.839216 1.000000 0.780392
0.909804 1.000000 0.780392
0.000000 0.070588 0.917647
0.000000 0.074510 0.921569
0.219608 0.094118 0.909804
0.396078 0.098039 0.921569
0.556863 0.121569 0.917647
0.698039 0.129412 0.909804
0.843137 0.149020 0.901961
0.984314 0.176471 0.905882
0.996078 0.274510 0.862745
0.003922 0.184314 0.905882
0.011765 0.192157 0.913725
0.207843 0.192157 0.901961
0.392157 0.200000 0.905882
0.549020 0.200000 0.905882
0.690196 0.207843 0.898039
0.835294 0.215686 0.890196
0.972549 0.231373 0.878431
1.000000 0.305882 0.870588
0.000000 0.329412 0.905882
0.000000 0.333333 0.925490
0.211765 0.337255 0.905882
0.392157 0.337255 0.913725
0.545098 0.341176 0.905882
0.694118 0.345098 0.901961
0.835294 0.360784 0.905882
0.972549 0.380392 0.886275
0.996078 0.439216 0.862745
0.000000 0.474510 0.890196
0.000000 0.482353 0.890196
0.235294 0.482353 0.898039
0.396078 0.486275 0.894118
0.552941 0.486275 0.894118
0.682353 0.494118 0.886275
0.827451 0.498039 0.882353
0.945098 0.509804 0.882353
1.000000 0.529412 0.854902
0.000000 0.623529 0.890196
0.101961 0.627451 0.905882
0.290196 0.643137 0.890196
0.439216 0.650980 0.894118
0.568627 0.654902 0.890196
0.694118 0.654902 0.894118
0.815686 0.654902 0.890196
0.925490 0.658824 0.882353
1.000000 0.678431 0.866667
0.149020 0.780392 0.894118
0.231373 0.776471 0.898039
0.345098 0.780392 0.898039
0.462745 0.780392 0.898039
0.588235 0.780392 0.898039
0.698039 0.784314 0.878431
0.803922 0.788235 0.894118
0.901961 0.788235 0.874510
0.984314 0.800000 0.878431
0.141176 0.886275 0.886275
0.227451 0.886275 0.890196
0.329412 0.890196 0.882353
0.458824 0.890196 0.886275
0.576471 0.890196 0.878431
0.694118 0.890196 0.878431
0.788235 0.886275 0.870588
0.878431 0.886275 0.874510
0.960784 0.890196 0.882353
0.313725 0.980392 0.874510
0.360784 0.984314 0.874510
0.431373 0.972549 0.870588
0.513725 0.972549 0.866667
0.611765 0.980392 0.878431
0.705882 0.972549 0.882353
0.784314 0.972549 0.878431
0.878431 0.960784 0.886275
0.952941 0.956863 0.886275
0.447059 0.996078 0.843137
0.474510 1.000000 0.854902
0.513725 1.000000 0.858824
0.576471 1.000000 0.858824
0.650980 1.000000 0.874510
0.729412 1.000000 0.878431
0.784314 1.000000 0.878431
0.843137 1.000000 0.878431
0.917647 1.000000 0.878431
0.003922 0.113725 0.992157
0.000000 0.113725 0.992157
0.192157 0.129412 0.996078
0.356863 0.137255 0.996078
0.509804 0.156863 0.988235
0.650980 0.172549 0.992157
0.792157 0.200000 0.996078
0.921569 0.227451 0.980392
1.000000 0.282353 0.988235
0.003922 0.196078 0.972549
0.000000 0.200000 0.988235
0.180392 0.211765 0.992157
0.360784 0.211765 0.984314
0.509804 0.223529 0.988235
0.639216 0.235294 0.984314
0.784314 0.250980 0.980392
0.913725 0.270588 0.988235
1.000000 0.309804 0.972549
0.003922 0.329412 0.988235
0.000000 0.333333 0.992157
0.207843 0.345098 0.996078
0.372549 0.345098 0.992157
0.501961 0.352941 0.984314
0.658824 0.360784 0.980392
0.784314 0.380392 0.980392
0.921569 0.403922 0.984314
1.000000 0.435294 0.972549
0.000000 0.474510 0.972549
0.098039 0.482353 0.980392
0.250980 0.490196 0.980392
0.388235 0.486275 0.980392
0.529412 0.498039 0.976471
0.650980 0.494118 0.972549
0.776471 0.505882 0.964706
0.898039 0.509804 0.964706
1.000000 0.525490 0.968627
0.152941 0.619608 0.988235
0.239216 0.635294 0.980392
0.341176 0.639216 0.968627
0.454902 0.643137 0.972549
0.549020 0.647059 0.968627
0.666667 0.650980 0.980392
0.784314 0.654902 0.972549
0.901961 0.662745 0.976471
1.000000 0.670588 0.972549
0.270588 0.752941 0.976471
0.309804 0.752941 0.980392
0.384314 0.764706 0.980392
0.486275 0.764706 0.968627
0.588235 0.776471 0.968627
0.690196 0.784314 0.972549
0.788235 0.780392 0.964706
0.886275 0.784314 0.968627
0.980392 0.792157 0.956863
0.266667 0.862745 0.956863
0.333333 0.866667 0.968627
0.396078 0.858824 0.960784
0.498039 0.866667 0.968627
0.592157 0.866667 0.968627
0.694118 0.878431 0.956863
0.784314 0.882353 0.960784
0.870588 0.882353 0.956863
0.945098 0.890196 0.956863
0.360784 0.972549 0.956863
0.392157 0.976471 0.968627
0.450980 0.972549 0.960784
0.525490 0.968627 0.952941
0.619608 0.964706 0.968627
0.709804 0.968627 0.960784
0.792157 0.968627 0.956863
0.870588 0.968627 0.956863
0.941176 0.964706 0.949020
0.466667 1.000000 0.925490
0.490196 1.000000 0.941176
0.529412 1.000000 0.937255
0.584314 1.000000 0.941176
0.658824 1.000000 0.937255
0.733333 1.000000 0.941176
0.803922 1.000000 0.952941
0.854902 1.000000 0.952941
0.913725 0.996078 0.960784
0.000000 0.152941 1.000000
0.000000 0.149020 1.000000
0.156863 0.160784 1.000000
0.325490 0.176471 1.000000
0.470588 0.188235 0.996078
0.603922 0.207843 1.000000
0.725490 0.223529 0.996078
0.854902 0.254902 0.996078
0.972549 0.309804 1.000000
0.003922 0.211765 0.996078
0.000000 0.219608 1.000000
0.152941 0.223529 1.000000
0.329412 0.227451 1.000000
0.474510 0.239216 1.000000
0.600000 0.247059 1.000000
0.733333 0.266667 1.000000
0.850980 0.298039 0.992157
0.972549 0.345098 1.000000
0.003922 0.337255 0.996078
0.000000 0.341176 0.996078
0.196078 0.349020 0.996078
0.341176 0.345098 0.996078
0.466667 0.356863 0.996078
0.603922 0.368627 0.996078
0.733333 0.380392 1.000000
0.854902 0.403922 1.000000
0.968627 0.447059 1.000000
0.027451 0.474510 0.996078
0.137255 0.474510 1.000000
0.262745 0.474510 1.000000
0.368627 0.478431 1.000000
0.494118 0.482353 0.996078
0.611765 0.490196 0.996078
0.733333 0.501961 0.996078
0.850980 0.521569 1.000000
0.964706 0.541176 1.000000
0.274510 0.623529 1.000000
0.325490 0.635294 1.000000
0.380392 0.635294 1.000000
0.462745 0.639216 1.000000
0.541176 0.639216 1.000000
0.643137 0.639216 1.000000
0.749020 0.647059 1.000000
0.850980 0.662745 1.000000
0.952941 0.682353 0.996078
0.356863 0.741176 0.996078
0.384314 0.752941 1.000000
0.447059 0.752941 1.000000
0.525490 0.760784 1.000000
0.607843 0.772549 1.000000
0.674510 0.772549 0.996078
0.768627 0.776471 1.000000
0.854902 0.788235 1.000000
0.941176 0.796078 1.000000
0.384314 0.839216 0.992157
0.435294 0.843137 0.996078
0.482353 0.843137 0.996078
0.541176 0.847059 0.996078
0.631373 0.858824 1.000000
0.701961 0.870588 1.000000
0.780392 0.878431 1.000000
0.854902 0.878431 1.000000
0.925490 0.890196 0.996078
0.458824 0.933333 1.000000
0.494118 0.937255 1.000000
0.533333 0.937255 0.996078
0.592157 0.941176 1.000000
0.658824 0.949020 1.000000
0.729412 0.949020 1.000000
0.800000 0.956863 1.000000
0.870588 0.964706 1.000000
0.909804 0.968627 0.996078
0.525490 0.996078 1.000000
0.545098 1.000000 1.000000
0.576471 1.000000 0.992157
0.623529 1.000000 0.996078
0.678431 0.996078 1.000000
0.749020 1.000000 1.000000
0.819608 1.000000 1.000000
0.874510 0.996078 1.000000
0.913725 0.996078 1.000000
