loleis/其他/lut20种/Sports LUT #14.cube
TITLE "Sports LUT #14"
#LUT size
LUT_3D_SIZE 25
#LUT data points
0.098039 0.101961 0.082353
0.129412 0.098039 0.086275
0.168627 0.098039 0.082353
0.211765 0.098039 0.082353
0.254902 0.101961 0.082353
0.301961 0.101961 0.086275
0.349020 0.101961 0.082353
0.396078 0.101961 0.082353
0.450980 0.094118 0.082353
0.505882 0.098039 0.086275
0.564706 0.098039 0.074510
0.619608 0.098039 0.070588
0.678431 0.094118 0.066667
0.733333 0.101961 0.070588
0.780392 0.098039 0.062745
0.827451 0.094118 0.066667
0.870588 0.101961 0.054902
0.909804 0.098039 0.058824
0.952941 0.105882 0.062745
0.976471 0.105882 0.054902
1.000000 0.105882 0.054902
1.000000 0.109804 0.066667
0.996078 0.117647 0.070588
0.996078 0.129412 0.066667
1.000000 0.133333 0.070588
0.094118 0.137255 0.074510
0.129412 0.129412 0.090196
0.172549 0.133333 0.086275
0.203922 0.137255 0.074510
0.254902 0.125490 0.090196
0.294118 0.125490 0.090196
0.341176 0.133333 0.078431
0.396078 0.129412 0.078431
0.447059 0.137255 0.086275
0.505882 0.129412 0.074510
0.564706 0.133333 0.074510
0.615686 0.133333 0.074510
0.666667 0.129412 0.066667
0.721569 0.129412 0.062745
0.768627 0.129412 0.062745
0.823529 0.129412 0.058824
0.866667 0.133333 0.058824
0.913725 0.133333 0.058824
0.945098 0.137255 0.054902
0.980392 0.137255 0.054902
1.000000 0.137255 0.050980
1.000000 0.141176 0.054902
1.000000 0.141176 0.066667
0.996078 0.149020 0.066667
0.996078 0.152941 0.082353
0.098039 0.168627 0.082353
0.133333 0.164706 0.074510
0.172549 0.160784 0.086275
0.207843 0.164706 0.086275
0.250980 0.164706 0.074510
0.290196 0.164706 0.082353
0.341176 0.164706 0.082353
0.388235 0.164706 0.086275
0.447059 0.168627 0.082353
0.498039 0.168627 0.074510
0.556863 0.164706 0.070588
0.603922 0.164706 0.070588
0.662745 0.168627 0.070588
0.709804 0.168627 0.066667
0.772549 0.164706 0.054902
0.815686 0.164706 0.062745
0.854902 0.168627 0.054902
0.894118 0.168627 0.058824
0.941176 0.164706 0.058824
0.980392 0.164706 0.054902
0.992157 0.164706 0.050980
1.000000 0.160784 0.050980
1.000000 0.172549 0.058824
1.000000 0.172549 0.066667
1.000000 0.172549 0.066667
0.105882 0.211765 0.074510
0.129412 0.203922 0.078431
0.164706 0.203922 0.070588
0.215686 0.203922 0.074510
0.243137 0.200000 0.082353
0.294118 0.203922 0.078431
0.341176 0.203922 0.078431
0.388235 0.207843 0.078431
0.439216 0.207843 0.074510
0.498039 0.207843 0.070588
0.556863 0.207843 0.074510
0.611765 0.207843 0.070588
0.662745 0.203922 0.066667
0.713725 0.207843 0.054902
0.764706 0.207843 0.058824
0.807843 0.203922 0.054902
0.854902 0.203922 0.054902
0.890196 0.200000 0.047059
0.929412 0.200000 0.050980
0.960784 0.200000 0.058824
0.996078 0.196078 0.058824
1.000000 0.196078 0.050980
1.000000 0.192157 0.058824
0.992157 0.200000 0.058824
0.996078 0.203922 0.054902
0.105882 0.247059 0.074510
0.141176 0.247059 0.078431
0.172549 0.243137 0.078431
0.211765 0.247059 0.078431
0.243137 0.247059 0.074510
0.298039 0.247059 0.074510
0.345098 0.239216 0.070588
0.396078 0.243137 0.074510
0.447059 0.247059 0.070588
0.494118 0.247059 0.074510
0.549020 0.247059 0.066667
0.607843 0.250980 0.074510
0.666667 0.250980 0.054902
0.709804 0.247059 0.050980
0.760784 0.250980 0.047059
0.807843 0.254902 0.047059
0.850980 0.247059 0.050980
0.886275 0.243137 0.043137
0.925490 0.243137 0.047059
0.964706 0.235294 0.050980
0.988235 0.235294 0.043137
1.000000 0.235294 0.047059
1.000000 0.231373 0.043137
1.000000 0.227451 0.058824
1.000000 0.231373 0.066667
0.105882 0.301961 0.070588
0.141176 0.301961 0.074510
0.172549 0.305882 0.070588
0.207843 0.301961 0.066667
0.247059 0.301961 0.062745
0.298039 0.301961 0.066667
0.349020 0.301961 0.066667
0.407843 0.305882 0.074510
0.454902 0.305882 0.058824
0.509804 0.309804 0.062745
0.568627 0.313725 0.062745
0.623529 0.313725 0.050980
0.678431 0.313725 0.050980
0.733333 0.313725 0.047059
0.784314 0.309804 0.039216
0.827451 0.305882 0.043137
0.870588 0.301961 0.039216
0.901961 0.294118 0.043137
0.937255 0.286275 0.043137
0.972549 0.290196 0.050980
1.000000 0.286275 0.050980
1.000000 0.282353 0.047059
1.000000 0.274510 0.050980
1.000000 0.278431 0.058824
1.000000 0.282353 0.070588
0.101961 0.341176 0.066667
0.137255 0.349020 0.054902
0.172549 0.341176 0.062745
0.215686 0.349020 0.050980
0.262745 0.349020 0.062745
0.301961 0.349020 0.058824
0.356863 0.349020 0.054902
0.400000 0.345098 0.050980
0.454902 0.352941 0.058824
0.505882 0.352941 0.050980
0.564706 0.356863 0.043137
0.623529 0.356863 0.039216
0.674510 0.360784 0.027451
0.733333 0.356863 0.019608
0.784314 0.356863 0.023529
0.819608 0.352941 0.023529
0.858824 0.345098 0.023529
0.898039 0.345098 0.031373
0.937255 0.337255 0.031373
0.972549 0.333333 0.031373
1.000000 0.333333 0.039216
1.000000 0.329412 0.047059
0.996078 0.325490 0.050980
1.000000 0.313725 0.050980
1.000000 0.317647 0.054902
0.098039 0.392157 0.058824
0.129412 0.400000 0.043137
0.168627 0.400000 0.047059
0.207843 0.400000 0.039216
0.250980 0.403922 0.039216
0.301961 0.400000 0.039216
0.345098 0.396078 0.035294
0.396078 0.400000 0.035294
0.454902 0.403922 0.027451
0.505882 0.403922 0.023529
0.568627 0.403922 0.011765
0.619608 0.403922 0.007843
0.678431 0.407843 0.003922
0.721569 0.400000 0.000000
0.764706 0.403922 0.007843
0.807843 0.403922 0.007843
0.858824 0.396078 0.011765
0.890196 0.384314 0.015686
0.929412 0.376471 0.023529
0.960784 0.376471 0.023529
0.984314 0.372549 0.031373
1.000000 0.368627 0.035294
0.996078 0.364706 0.047059
1.000000 0.352941 0.062745
1.000000 0.352941 0.062745
0.098039 0.447059 0.023529
0.129412 0.450980 0.019608
0.160784 0.450980 0.007843
0.196078 0.458824 0.015686
0.262745 0.458824 0.007843
0.309804 0.454902 0.007843
0.360784 0.454902 0.007843
0.415686 0.454902 0.011765
0.458824 0.454902 0.000000
0.513725 0.454902 0.003922
0.564706 0.458824 0.000000
0.619608 0.458824 0.000000
0.662745 0.458824 0.000000
0.725490 0.454902 0.000000
0.764706 0.450980 0.000000
0.811765 0.443137 0.000000
0.847059 0.439216 0.000000
0.882353 0.427451 0.000000
0.913725 0.423529 0.000000
0.949020 0.419608 0.000000
0.980392 0.407843 0.003922
0.992157 0.407843 0.015686
1.000000 0.400000 0.015686
1.000000 0.396078 0.035294
1.000000 0.388235 0.054902
0.082353 0.513725 0.000000
0.113725 0.509804 0.000000
0.152941 0.513725 0.000000
0.200000 0.513725 0.000000
0.250980 0.513725 0.000000
0.309804 0.517647 0.007843
0.352941 0.513725 0.003922
0.407843 0.513725 0.000000
0.462745 0.513725 0.000000
0.509804 0.517647 0.000000
0.568627 0.513725 0.000000
0.615686 0.509804 0.000000
0.666667 0.509804 0.000000
0.709804 0.501961 0.000000
0.760784 0.494118 0.003922
0.792157 0.486275 0.000000
0.835294 0.482353 0.003922
0.866667 0.474510 0.003922
0.909804 0.466667 0.000000
0.941176 0.458824 0.000000
0.976471 0.450980 0.000000
0.996078 0.447059 0.003922
0.996078 0.439216 0.000000
0.996078 0.439216 0.015686
1.000000 0.435294 0.023529
0.074510 0.596078 0.000000
0.109804 0.600000 0.003922
0.156863 0.600000 0.003922
0.211765 0.600000 0.003922
0.262745 0.592157 0.003922
0.317647 0.592157 0.000000
0.376471 0.596078 0.000000
0.431373 0.600000 0.003922
0.490196 0.592157 0.007843
0.533333 0.588235 0.003922
0.588235 0.588235 0.007843
0.639216 0.584314 0.003922
0.694118 0.576471 0.003922
0.733333 0.568627 0.003922
0.776471 0.552941 0.000000
0.815686 0.545098 0.000000
0.847059 0.545098 0.003922
0.878431 0.533333 0.000000
0.917647 0.521569 0.000000
0.952941 0.517647 0.003922
0.984314 0.509804 0.000000
1.000000 0.498039 0.000000
1.000000 0.494118 0.023529
1.000000 0.486275 0.050980
1.000000 0.486275 0.058824
0.050980 0.631373 0.007843
0.105882 0.627451 0.023529
0.152941 0.631373 0.000000
0.200000 0.643137 0.000000
0.254902 0.639216 0.000000
0.309804 0.643137 0.000000
0.356863 0.643137 0.000000
0.415686 0.631373 0.000000
0.466667 0.631373 0.003922
0.521569 0.631373 0.003922
0.572549 0.627451 0.007843
0.623529 0.623529 0.003922
0.674510 0.619608 0.000000
0.725490 0.611765 0.000000
0.772549 0.603922 0.000000
0.807843 0.588235 0.003922
0.839216 0.580392 0.000000
0.874510 0.576471 0.000000
0.905882 0.568627 0.000000
0.945098 0.556863 0.000000
0.980392 0.549020 0.003922
1.000000 0.545098 0.015686
1.000000 0.533333 0.019608
1.000000 0.537255 0.043137
1.000000 0.513725 0.050980
0.058824 0.678431 0.000000
0.101961 0.662745 0.000000
0.145098 0.670588 0.000000
0.211765 0.674510 0.000000
0.247059 0.674510 0.003922
0.305882 0.674510 0.000000
0.352941 0.674510 0.000000
0.400000 0.670588 0.000000
0.450980 0.670588 0.000000
0.501961 0.666667 0.000000
0.556863 0.666667 0.000000
0.607843 0.658824 0.003922
0.662745 0.658824 0.007843
0.705882 0.647059 0.000000
0.756863 0.643137 0.000000
0.800000 0.635294 0.000000
0.835294 0.623529 0.000000
0.862745 0.619608 0.000000
0.898039 0.603922 0.000000
0.933333 0.600000 0.000000
0.976471 0.592157 0.000000
1.000000 0.580392 0.000000
1.000000 0.576471 0.000000
0.992157 0.572549 0.023529
1.000000 0.560784 0.043137
0.062745 0.701961 0.007843
0.105882 0.709804 0.000000
0.145098 0.705882 0.000000
0.188235 0.713725 0.000000
0.239216 0.705882 0.000000
0.298039 0.709804 0.000000
0.341176 0.705882 0.003922
0.396078 0.705882 0.000000
0.447059 0.701961 0.000000
0.501961 0.698039 0.003922
0.545098 0.698039 0.003922
0.596078 0.690196 0.000000
0.639216 0.690196 0.000000
0.690196 0.686275 0.000000
0.737255 0.686275 0.003922
0.780392 0.678431 0.000000
0.819608 0.670588 0.000000
0.858824 0.658824 0.003922
0.894118 0.647059 0.000000
0.925490 0.639216 0.000000
0.964706 0.623529 0.000000
0.976471 0.623529 0.000000
0.996078 0.615686 0.000000
0.996078 0.607843 0.000000
1.000000 0.596078 0.039216
0.054902 0.733333 0.003922
0.113725 0.741176 0.019608
0.152941 0.745098 0.003922
0.192157 0.737255 0.003922
0.247059 0.741176 0.003922
0.286275 0.741176 0.007843
0.333333 0.745098 0.003922
0.384314 0.737255 0.007843
0.435294 0.733333 0.003922
0.482353 0.733333 0.007843
0.537255 0.733333 0.007843
0.576471 0.725490 0.003922
0.627451 0.721569 0.000000
0.674510 0.721569 0.000000
0.717647 0.717647 0.000000
0.764706 0.717647 0.000000
0.803922 0.705882 0.000000
0.843137 0.698039 0.003922
0.878431 0.682353 0.003922
0.909804 0.674510 0.000000
0.945098 0.666667 0.000000
0.980392 0.662745 0.000000
0.996078 0.647059 0.000000
1.000000 0.639216 0.000000
1.000000 0.631373 0.003922
0.125490 0.803922 0.000000
0.149020 0.807843 0.000000
0.184314 0.807843 0.000000
0.219608 0.803922 0.003922
0.258824 0.803922 0.007843
0.301961 0.800000 0.003922
0.352941 0.796078 0.000000
0.407843 0.792157 0.003922
0.450980 0.792157 0.003922
0.494118 0.784314 0.003922
0.537255 0.780392 0.000000
0.580392 0.780392 0.000000
0.635294 0.776471 0.000000
0.682353 0.776471 0.000000
0.721569 0.768627 0.000000
0.760784 0.768627 0.000000
0.815686 0.760784 0.003922
0.862745 0.756863 0.000000
0.894118 0.745098 0.003922
0.929412 0.733333 0.007843
0.960784 0.717647 0.000000
0.984314 0.709804 0.000000
1.000000 0.705882 0.003922
1.000000 0.694118 0.023529
1.000000 0.686275 0.066667
0.121569 0.811765 0.000000
0.145098 0.819608 0.000000
0.180392 0.819608 0.000000
0.223529 0.819608 0.015686
0.243137 0.819608 0.000000
0.294118 0.819608 0.000000
0.341176 0.819608 0.007843
0.388235 0.819608 0.000000
0.431373 0.815686 0.003922
0.478431 0.811765 0.000000
0.521569 0.811765 0.000000
0.564706 0.807843 0.003922
0.611765 0.803922 0.000000
0.658824 0.803922 0.003922
0.701961 0.800000 0.000000
0.749020 0.796078 0.000000
0.796078 0.784314 0.000000
0.847059 0.784314 0.000000
0.886275 0.784314 0.003922
0.917647 0.776471 0.000000
0.952941 0.764706 0.000000
0.980392 0.749020 0.000000
1.000000 0.745098 0.000000
1.000000 0.733333 0.015686
0.996078 0.729412 0.058824
0.125490 0.847059 0.000000
0.160784 0.847059 0.003922
0.192157 0.850980 0.000000
0.219608 0.850980 0.000000
0.266667 0.847059 0.000000
0.294118 0.843137 0.007843
0.337255 0.843137 0.000000
0.384314 0.839216 0.003922
0.423529 0.839216 0.000000
0.466667 0.839216 0.000000
0.509804 0.835294 0.003922
0.549020 0.835294 0.000000
0.600000 0.831373 0.000000
0.639216 0.827451 0.003922
0.690196 0.823529 0.003922
0.733333 0.819608 0.000000
0.780392 0.819608 0.003922
0.819608 0.819608 0.003922
0.862745 0.815686 0.000000
0.905882 0.807843 0.000000
0.937255 0.800000 0.000000
0.968627 0.792157 0.000000
1.000000 0.776471 0.000000
1.000000 0.772549 0.000000
0.996078 0.760784 0.047059
0.152941 0.866667 0.000000
0.180392 0.870588 0.007843
0.196078 0.870588 0.000000
0.243137 0.862745 0.000000
0.262745 0.874510 0.000000
0.290196 0.874510 0.000000
0.333333 0.866667 0.000000
0.372549 0.866667 0.000000
0.419608 0.870588 0.000000
0.462745 0.870588 0.003922
0.505882 0.866667 0.000000
0.545098 0.858824 0.000000
0.592157 0.854902 0.000000
0.631373 0.854902 0.003922
0.674510 0.858824 0.003922
0.717647 0.850980 0.000000
0.756863 0.850980 0.003922
0.800000 0.843137 0.000000
0.843137 0.839216 0.000000
0.886275 0.831373 0.000000
0.925490 0.831373 0.000000
0.964706 0.815686 0.003922
0.992157 0.815686 0.003922
0.996078 0.807843 0.000000
1.000000 0.792157 0.007843
0.176471 0.894118 0.000000
0.196078 0.890196 0.003922
0.211765 0.894118 0.000000
0.247059 0.894118 0.003922
0.270588 0.898039 0.003922
0.301961 0.894118 0.000000
0.341176 0.894118 0.003922
0.380392 0.894118 0.000000
0.415686 0.890196 0.000000
0.462745 0.886275 0.000000
0.501961 0.890196 0.000000
0.537255 0.882353 0.000000
0.580392 0.886275 0.007843
0.615686 0.874510 0.000000
0.662745 0.878431 0.000000
0.694118 0.870588 0.000000
0.749020 0.874510 0.000000
0.780392 0.866667 0.000000
0.827451 0.866667 0.000000
0.866667 0.866667 0.000000
0.905882 0.858824 0.000000
0.949020 0.850980 0.000000
0.984314 0.847059 0.000000
0.996078 0.839216 0.007843
1.000000 0.835294 0.015686
0.266667 0.937255 0.090196
0.278431 0.937255 0.086275
0.294118 0.937255 0.082353
0.305882 0.937255 0.086275
0.317647 0.937255 0.086275
0.345098 0.937255 0.078431
0.368627 0.933333 0.070588
0.415686 0.933333 0.066667
0.439216 0.933333 0.062745
0.474510 0.929412 0.062745
0.513725 0.925490 0.047059
0.549020 0.921569 0.043137
0.588235 0.921569 0.039216
0.627451 0.921569 0.031373
0.662745 0.917647 0.023529
0.709804 0.917647 0.031373
0.741176 0.909804 0.019608
0.784314 0.913725 0.015686
0.823529 0.909804 0.003922
0.862745 0.905882 0.015686
0.913725 0.898039 0.027451
0.949020 0.894118 0.035294
0.980392 0.898039 0.062745
1.000000 0.890196 0.086275
0.992157 0.878431 0.133333
0.235294 0.949020 0.027451
0.274510 0.952941 0.050980
0.270588 0.945098 0.066667
0.301961 0.952941 0.082353
0.325490 0.949020 0.098039
0.345098 0.949020 0.078431
0.380392 0.945098 0.086275
0.403922 0.952941 0.086275
0.439216 0.949020 0.086275
0.478431 0.949020 0.086275
0.513725 0.945098 0.078431
0.549020 0.941176 0.078431
0.580392 0.941176 0.074510
0.623529 0.937255 0.070588
0.662745 0.937255 0.074510
0.694118 0.945098 0.090196
0.737255 0.937255 0.086275
0.776471 0.933333 0.078431
0.807843 0.929412 0.078431
0.850980 0.925490 0.078431
0.890196 0.925490 0.082353
0.933333 0.929412 0.098039
0.968627 0.925490 0.117647
0.992157 0.921569 0.145098
1.000000 0.921569 0.156863
0.274510 0.956863 0.086275
0.294118 0.968627 0.090196
0.305882 0.972549 0.105882
0.313725 0.972549 0.113725
0.325490 0.976471 0.113725
0.372549 0.976471 0.121569
0.384314 0.968627 0.121569
0.415686 0.968627 0.113725
0.454902 0.968627 0.121569
0.478431 0.968627 0.113725
0.509804 0.968627 0.113725
0.537255 0.968627 0.109804
0.572549 0.964706 0.109804
0.611765 0.964706 0.105882
0.650980 0.960784 0.113725
0.690196 0.964706 0.109804
0.721569 0.960784 0.109804
0.756863 0.956863 0.113725
0.800000 0.952941 0.117647
0.847059 0.949020 0.121569
0.890196 0.952941 0.129412
0.917647 0.949020 0.137255
0.952941 0.949020 0.141176
0.980392 0.945098 0.149020
0.992157 0.956863 0.168627
0.298039 0.980392 0.109804
0.305882 0.996078 0.133333
0.325490 0.988235 0.152941
0.333333 0.988235 0.156863
0.360784 0.992157 0.137255
0.376471 0.992157 0.156863
0.403922 0.988235 0.152941
0.435294 0.984314 0.149020
0.450980 0.988235 0.149020
0.486275 0.988235 0.160784
0.505882 0.988235 0.156863
0.541176 0.984314 0.152941
0.584314 0.988235 0.160784
0.607843 0.984314 0.145098
0.647059 0.984314 0.149020
0.686275 0.976471 0.149020
0.721569 0.980392 0.149020
0.756863 0.976471 0.149020
0.796078 0.976471 0.152941
0.835294 0.976471 0.152941
0.870588 0.972549 0.152941
0.898039 0.972549 0.172549
0.937255 0.972549 0.176471
0.976471 0.968627 0.188235
0.996078 0.968627 0.207843
0.329412 1.000000 0.145098
0.333333 1.000000 0.172549
0.345098 0.996078 0.180392
0.368627 1.000000 0.188235
0.380392 1.000000 0.188235
0.403922 1.000000 0.188235
0.419608 1.000000 0.184314
0.443137 1.000000 0.184314
0.466667 1.000000 0.192157
0.494118 1.000000 0.192157
0.521569 1.000000 0.196078
0.552941 0.996078 0.188235
0.576471 1.000000 0.188235
0.619608 1.000000 0.200000
0.654902 1.000000 0.192157
0.690196 1.000000 0.196078
0.713725 0.996078 0.196078
0.752941 1.000000 0.196078
0.784314 1.000000 0.196078
0.823529 1.000000 0.200000
0.862745 0.996078 0.211765
0.894118 1.000000 0.219608
0.933333 0.996078 0.231373
0.968627 0.996078 0.247059
0.992157 0.996078 0.254902
0.098039 0.101961 0.109804
0.133333 0.098039 0.109804
0.172549 0.098039 0.113725
0.211765 0.098039 0.113725
0.258824 0.098039 0.113725
0.298039 0.101961 0.113725
0.345098 0.101961 0.105882
0.396078 0.105882 0.109804
0.454902 0.101961 0.109804
0.505882 0.094118 0.109804
0.564706 0.098039 0.113725
0.615686 0.094118 0.105882
0.674510 0.090196 0.098039
0.729412 0.090196 0.101961
0.776471 0.086275 0.094118
0.827451 0.086275 0.101961
0.874510 0.090196 0.098039
0.909804 0.094118 0.086275
0.941176 0.098039 0.086275
0.976471 0.105882 0.094118
0.996078 0.113725 0.098039
1.000000 0.109804 0.082353
0.992157 0.121569 0.078431
0.996078 0.121569 0.090196
1.000000 0.125490 0.094118
0.101961 0.125490 0.109804
0.125490 0.129412 0.105882
0.188235 0.133333 0.129412
0.203922 0.133333 0.094118
0.247059 0.125490 0.113725
0.298039 0.137255 0.121569
0.333333 0.137255 0.109804
0.400000 0.129412 0.109804
0.443137 0.125490 0.109804
0.501961 0.129412 0.113725
0.556863 0.129412 0.109804
0.615686 0.133333 0.105882
0.670588 0.133333 0.101961
0.721569 0.129412 0.094118
0.768627 0.129412 0.094118
0.815686 0.121569 0.090196
0.862745 0.125490 0.090196
0.905882 0.129412 0.094118
0.941176 0.129412 0.090196
0.980392 0.129412 0.094118
1.000000 0.137255 0.090196
1.000000 0.137255 0.090196
1.000000 0.141176 0.094118
1.000000 0.149020 0.090196
1.000000 0.145098 0.098039
0.109804 0.160784 0.121569
0.141176 0.164706 0.109804
0.172549 0.164706 0.117647
0.200000 0.160784 0.121569
0.250980 0.164706 0.109804
0.294118 0.160784 0.113725
0.345098 0.164706 0.105882
0.388235 0.160784 0.105882
0.443137 0.160784 0.105882
0.501961 0.164706 0.105882
0.560784 0.160784 0.101961
0.615686 0.160784 0.101961
0.674510 0.164706 0.101961
0.725490 0.164706 0.101961
0.760784 0.164706 0.082353
0.811765 0.164706 0.086275
0.854902 0.160784 0.090196
0.894118 0.160784 0.086275
0.941176 0.160784 0.086275
0.968627 0.160784 0.078431
0.992157 0.164706 0.082353
1.000000 0.164706 0.086275
1.000000 0.164706 0.094118
1.000000 0.164706 0.094118
0.992157 0.168627 0.078431
0.109804 0.203922 0.109804
0.125490 0.196078 0.101961
0.168627 0.207843 0.109804
0.219608 0.203922 0.098039
0.247059 0.203922 0.117647
0.290196 0.203922 0.113725
0.341176 0.203922 0.117647
0.384314 0.203922 0.109804
0.431373 0.207843 0.101961
0.494118 0.203922 0.098039
0.545098 0.203922 0.094118
0.607843 0.200000 0.086275
0.662745 0.200000 0.090196
0.725490 0.200000 0.086275
0.768627 0.200000 0.086275
0.807843 0.200000 0.082353
0.847059 0.200000 0.082353
0.886275 0.200000 0.086275
0.917647 0.200000 0.078431
0.949020 0.203922 0.078431
0.984314 0.196078 0.078431
1.000000 0.188235 0.078431
1.000000 0.188235 0.078431
0.996078 0.200000 0.082353
1.000000 0.200000 0.086275
0.098039 0.247059 0.101961
0.133333 0.239216 0.101961
0.164706 0.239216 0.113725
0.200000 0.243137 0.109804
0.254902 0.243137 0.105882
0.294118 0.243137 0.109804
0.341176 0.247059 0.105882
0.384314 0.247059 0.098039
0.443137 0.247059 0.101961
0.494118 0.250980 0.098039
0.545098 0.250980 0.098039
0.596078 0.250980 0.101961
0.666667 0.250980 0.086275
0.705882 0.247059 0.078431
0.756863 0.250980 0.086275
0.796078 0.243137 0.066667
0.839216 0.247059 0.078431
0.874510 0.243137 0.078431
0.917647 0.239216 0.082353
0.952941 0.231373 0.082353
0.984314 0.231373 0.078431
1.000000 0.231373 0.074510
1.000000 0.227451 0.074510
1.000000 0.227451 0.074510
1.000000 0.223529 0.082353
0.105882 0.301961 0.101961
0.133333 0.298039 0.101961
0.168627 0.301961 0.101961
0.207843 0.301961 0.098039
0.250980 0.298039 0.101961
0.301961 0.301961 0.098039
0.352941 0.301961 0.098039
0.407843 0.298039 0.101961
0.450980 0.305882 0.090196
0.501961 0.301961 0.086275
0.560784 0.305882 0.086275
0.615686 0.305882 0.082353
0.674510 0.301961 0.074510
0.725490 0.309804 0.082353
0.776471 0.305882 0.070588
0.823529 0.301961 0.078431
0.850980 0.298039 0.078431
0.894118 0.290196 0.078431
0.933333 0.286275 0.074510
0.972549 0.286275 0.070588
1.000000 0.282353 0.070588
1.000000 0.278431 0.066667
1.000000 0.278431 0.082353
1.000000 0.278431 0.094118
1.000000 0.278431 0.082353
0.101961 0.345098 0.098039
0.133333 0.349020 0.094118
0.176471 0.341176 0.094118
0.207843 0.352941 0.090196
0.250980 0.349020 0.094118
0.305882 0.341176 0.078431
0.349020 0.352941 0.094118
0.400000 0.349020 0.082353
0.443137 0.345098 0.082353
0.501961 0.349020 0.086275
0.556863 0.349020 0.074510
0.619608 0.349020 0.078431
0.670588 0.356863 0.078431
0.721569 0.352941 0.070588
0.772549 0.349020 0.066667
0.819608 0.345098 0.066667
0.858824 0.345098 0.070588
0.894118 0.341176 0.062745
0.925490 0.333333 0.062745
0.964706 0.325490 0.062745
1.000000 0.325490 0.066667
1.000000 0.325490 0.066667
1.000000 0.321569 0.074510
1.000000 0.317647 0.078431
1.000000 0.325490 0.082353
0.098039 0.388235 0.078431
0.129412 0.400000 0.074510
0.164706 0.396078 0.066667
0.200000 0.403922 0.070588
0.250980 0.396078 0.082353
0.298039 0.403922 0.086275
0.349020 0.396078 0.074510
0.400000 0.396078 0.074510
0.450980 0.403922 0.074510
0.505882 0.403922 0.070588
0.560784 0.403922 0.062745
0.615686 0.403922 0.058824
0.666667 0.403922 0.054902
0.717647 0.403922 0.054902
0.772549 0.400000 0.047059
0.807843 0.392157 0.047059
0.850980 0.388235 0.047059
0.886275 0.380392 0.050980
0.925490 0.380392 0.062745
0.956863 0.372549 0.058824
0.980392 0.372549 0.058824
0.996078 0.360784 0.066667
0.996078 0.360784 0.066667
0.996078 0.352941 0.074510
0.996078 0.360784 0.074510
0.086275 0.447059 0.058824
0.117647 0.447059 0.062745
0.156863 0.458824 0.050980
0.200000 0.454902 0.062745
0.250980 0.454902 0.062745
0.305882 0.450980 0.047059
0.349020 0.454902 0.050980
0.407843 0.458824 0.047059
0.450980 0.458824 0.039216
0.509804 0.454902 0.035294
0.560784 0.458824 0.027451
0.619608 0.454902 0.023529
0.662745 0.450980 0.023529
0.709804 0.447059 0.027451
0.749020 0.447059 0.031373
0.796078 0.435294 0.031373
0.839216 0.435294 0.039216
0.874510 0.427451 0.047059
0.905882 0.419608 0.043137
0.941176 0.411765 0.050980
0.976471 0.407843 0.050980
1.000000 0.396078 0.043137
1.000000 0.392157 0.050980
1.000000 0.396078 0.070588
0.996078 0.384314 0.082353
0.078431 0.505882 0.015686
0.117647 0.501961 0.019608
0.152941 0.505882 0.019608
0.200000 0.509804 0.019608
0.250980 0.509804 0.023529
0.298039 0.509804 0.023529
0.352941 0.509804 0.019608
0.403922 0.505882 0.007843
0.454902 0.501961 0.007843
0.509804 0.505882 0.007843
0.560784 0.501961 0.000000
0.615686 0.501961 0.000000
0.658824 0.498039 0.000000
0.705882 0.494118 0.007843
0.745098 0.486275 0.007843
0.792157 0.482353 0.015686
0.827451 0.470588 0.019608
0.866667 0.470588 0.023529
0.898039 0.458824 0.019608
0.933333 0.454902 0.019608
0.972549 0.454902 0.031373
0.992157 0.447059 0.035294
1.000000 0.439216 0.039216
1.000000 0.435294 0.047059
1.000000 0.427451 0.054902
0.054902 0.592157 0.000000
0.094118 0.592157 0.000000
0.149020 0.592157 0.000000
0.207843 0.596078 0.000000
0.258824 0.588235 0.000000
0.313725 0.588235 0.000000
0.368627 0.588235 0.000000
0.419608 0.588235 0.000000
0.478431 0.576471 0.003922
0.525490 0.580392 0.003922
0.580392 0.572549 0.003922
