loleis/其他/lut20种/Sports LUT #5.cube
TITLE "Sports LUT #5"
#LUT size
LUT_3D_SIZE 5
#LUT data points
0.070588 0.070588 0.070588
0.282353 0.070588 0.070588
0.552941 0.058824 0.070588
0.850980 0.019608 0.066667
1.000000 0.000000 0.062745
0.019608 0.282353 0.082353
0.270588 0.278431 0.082353
0.568627 0.298039 0.066667
0.854902 0.298039 0.054902
1.000000 0.274510 0.062745
0.000000 0.607843 0.000000
0.231373 0.603922 0.000000
0.564706 0.600000 0.000000
0.835294 0.576471 0.003922
1.000000 0.552941 0.035294
0.007843 0.850980 0.007843
0.054902 0.854902 0.000000
0.501961 0.843137 0.000000
0.788235 0.827451 0.000000
1.000000 0.800000 0.000000
0.000000 1.000000 0.121569
0.117647 0.992157 0.164706
0.458824 1.000000 0.145098
0.721569 1.000000 0.133333
0.960784 0.996078 0.152941
0.058824 0.066667 0.305882
0.282353 0.062745 0.317647
0.556863 0.003922 0.313725
0.854902 0.000000 0.309804
0.988235 0.000000 0.286275
0.000000 0.282353 0.305882
0.258824 0.270588 0.305882
0.564706 0.266667 0.305882
0.847059 0.250980 0.301961
1.000000 0.254902 0.294118
0.000000 0.592157 0.298039
0.101961 0.600000 0.290196
0.552941 0.584314 0.282353
0.831373 0.560784 0.290196
0.996078 0.545098 0.290196
0.000000 0.835294 0.278431
0.000000 0.847059 0.278431
0.486275 0.831373 0.286275
0.780392 0.823529 0.278431
1.000000 0.800000 0.282353
0.000000 1.000000 0.317647
0.176471 1.000000 0.337255
0.466667 1.000000 0.325490
0.729412 1.000000 0.321569
0.960784 0.996078 0.325490
0.000000 0.031373 0.639216
0.290196 0.000000 0.635294
0.576471 0.003922 0.643137
0.854902 0.000000 0.615686
0.996078 0.007843 0.592157
0.000000 0.262745 0.635294
0.207843 0.254902 0.639216
0.572549 0.231373 0.639216
0.854902 0.231373 0.623529
1.000000 0.274510 0.600000
0.000000 0.588235 0.631373
0.023529 0.588235 0.631373
0.533333 0.580392 0.643137
0.815686 0.580392 0.619608
1.000000 0.592157 0.619608
0.007843 0.839216 0.607843
0.101961 0.839216 0.600000
0.521569 0.831373 0.607843
0.788235 0.823529 0.600000
1.000000 0.819608 0.615686
0.258824 1.000000 0.600000
0.372549 1.000000 0.615686
0.533333 1.000000 0.592157
0.752941 0.996078 0.600000
0.968627 1.000000 0.592157
0.000000 0.000000 0.862745
0.247059 0.003922 0.878431
0.525490 0.000000 0.866667
0.796078 0.000000 0.862745
1.000000 0.000000 0.862745
0.000000 0.231373 0.866667
0.188235 0.235294 0.878431
0.505882 0.219608 0.866667
0.780392 0.211765 0.858824
1.000000 0.219608 0.878431
0.000000 0.529412 0.858824
0.156863 0.529412 0.858824
0.509804 0.533333 0.862745
0.780392 0.537255 0.862745
1.000000 0.545098 0.850980
0.000000 0.800000 0.854902
0.176471 0.803922 0.858824
0.509804 0.811765 0.850980
0.776471 0.807843 0.850980
0.996078 0.827451 0.854902
0.141176 1.000000 0.823529
0.321569 1.000000 0.819608
0.556863 1.000000 0.819608
0.811765 1.000000 0.835294
0.980392 1.000000 0.839216
0.000000 0.000000 0.996078
0.223529 0.000000 1.000000
0.470588 0.000000 1.000000
0.709804 0.000000 1.000000
0.945098 0.000000 0.988235
0.003922 0.211765 0.996078
0.192157 0.231373 1.000000
0.462745 0.223529 1.000000
0.705882 0.219608 0.996078
0.956863 0.250980 1.000000
0.125490 0.509804 1.000000
0.282353 0.509804 1.000000
0.494118 0.509804 1.000000
0.725490 0.513725 1.000000
0.952941 0.545098 0.988235
0.298039 0.768627 1.000000
0.403922 0.768627 1.000000
0.584314 0.784314 1.000000
0.780392 0.792157 1.000000
0.968627 0.803922 0.992157
0.337255 0.996078 1.000000
0.427451 1.000000 0.996078
0.600000 1.000000 1.000000
0.835294 1.000000 0.996078
1.000000 1.000000 1.000000
