loleis/其他/lut20种/Sports LUT #2.cube
TITLE "Sports LUT #2"
#LUT size
LUT_3D_SIZE 5
#LUT data points
0.145098 0.129412 0.133333
0.305882 0.109804 0.121569
0.615686 0.094118 0.105882
0.952941 0.047059 0.070588
0.996078 0.000000 0.007843
0.164706 0.294118 0.109804
0.325490 0.294118 0.109804
0.635294 0.325490 0.062745
0.956863 0.329412 0.000000
1.000000 0.294118 0.000000
0.003922 0.658824 0.000000
0.325490 0.662745 0.000000
0.658824 0.654902 0.000000
0.933333 0.619608 0.000000
1.000000 0.564706 0.007843
0.000000 0.905882 0.003922
0.219608 0.909804 0.003922
0.580392 0.898039 0.000000
0.890196 0.886275 0.000000
0.988235 0.831373 0.000000
0.000000 0.996078 0.000000
0.211765 1.000000 0.000000
0.505882 0.996078 0.000000
0.776471 1.000000 0.000000
0.996078 0.996078 0.000000
0.152941 0.121569 0.282353
0.321569 0.098039 0.298039
0.635294 0.000000 0.313725
0.964706 0.000000 0.270588
1.000000 0.000000 0.227451
0.094118 0.286275 0.301961
0.313725 0.290196 0.290196
0.650980 0.274510 0.278431
0.952941 0.254902 0.254902
1.000000 0.231373 0.207843
0.000000 0.662745 0.192157
0.223529 0.658824 0.188235
0.654902 0.647059 0.180392
0.929412 0.600000 0.211765
1.000000 0.552941 0.203922
0.000000 0.905882 0.098039
0.145098 0.909804 0.125490
0.564706 0.898039 0.101961
0.894118 0.886275 0.105882
1.000000 0.823529 0.141176
0.003922 0.996078 0.192157
0.207843 0.996078 0.200000
0.501961 1.000000 0.211765
0.772549 1.000000 0.211765
1.000000 0.996078 0.254902
0.145098 0.074510 0.639216
0.341176 0.019608 0.647059
0.654902 0.000000 0.650980
0.964706 0.003922 0.619608
0.992157 0.000000 0.556863
0.003922 0.250980 0.654902
0.262745 0.235294 0.650980
0.666667 0.180392 0.658824
0.952941 0.184314 0.607843
1.000000 0.254902 0.564706
0.000000 0.650980 0.650980
0.007843 0.650980 0.658824
0.639216 0.647059 0.643137
0.909804 0.627451 0.631373
0.988235 0.603922 0.600000
0.003922 0.901961 0.576471
0.207843 0.901961 0.584314
0.576471 0.898039 0.568627
0.882353 0.886275 0.572549
0.996078 0.843137 0.580392
0.266667 1.000000 0.564706
0.388235 1.000000 0.568627
0.564706 1.000000 0.564706
0.796078 1.000000 0.568627
1.000000 1.000000 0.584314
0.094118 0.003922 0.905882
0.301961 0.000000 0.901961
0.603922 0.003922 0.905882
0.905882 0.000000 0.901961
1.000000 0.000000 0.847059
0.000000 0.211765 0.909804
0.235294 0.207843 0.905882
0.584314 0.164706 0.909804
0.898039 0.101961 0.901961
1.000000 0.192157 0.858824
0.003922 0.560784 0.898039
0.129412 0.560784 0.894118
0.576471 0.568627 0.894118
0.898039 0.572549 0.894118
0.988235 0.611765 0.862745
0.003922 0.890196 0.886275
0.239216 0.882353 0.878431
0.596078 0.886275 0.882353
0.882353 0.874510 0.878431
1.000000 0.878431 0.870588
0.415686 1.000000 0.835294
0.505882 1.000000 0.815686
0.694118 1.000000 0.847059
0.858824 1.000000 0.858824
0.996078 1.000000 0.866667
0.047059 0.000000 1.000000
0.274510 0.000000 0.996078
0.521569 0.000000 1.000000
0.784314 0.000000 1.000000
1.000000 0.000000 0.996078
0.000000 0.200000 1.000000
0.223529 0.192157 1.000000
0.509804 0.180392 0.996078
0.788235 0.172549 1.000000
1.000000 0.207843 1.000000
0.019608 0.525490 0.996078
0.282353 0.525490 1.000000
0.533333 0.537255 1.000000
0.800000 0.545098 1.000000
0.996078 0.580392 1.000000
0.321569 0.792157 1.000000
0.423529 0.800000 1.000000
0.639216 0.823529 0.996078
0.850980 0.847059 1.000000
1.000000 0.858824 1.000000
0.552941 1.000000 1.000000
0.619608 0.996078 0.992157
0.756863 1.000000 0.996078
0.921569 1.000000 1.000000
1.000000 1.000000 1.000000
