loleis/其他/lut20种/Sports LUT #2.cube
TITLE "Sports LUT #2"
#LUT size
LUT_3D_SIZE 9
#LUT data points
0.145098 0.129412 0.133333
0.207843 0.121569 0.129412
0.305882 0.109804 0.121569
0.439216 0.101961 0.113725
0.615686 0.094118 0.105882
0.796078 0.074510 0.082353
0.952941 0.047059 0.070588
1.000000 0.023529 0.039216
0.996078 0.000000 0.007843
0.152941 0.176471 0.121569
0.211765 0.184314 0.113725
0.317647 0.176471 0.121569
0.443137 0.180392 0.117647
0.619608 0.184314 0.105882
0.796078 0.188235 0.078431
0.949020 0.176471 0.050980
1.000000 0.160784 0.019608
1.000000 0.152941 0.000000
0.164706 0.294118 0.109804
0.215686 0.282353 0.109804
0.325490 0.294118 0.109804
0.458824 0.305882 0.090196
0.635294 0.325490 0.062745
0.807843 0.333333 0.015686
0.956863 0.329412 0.000000
1.000000 0.309804 0.003922
1.000000 0.294118 0.000000
0.113725 0.458824 0.027451
0.203922 0.466667 0.015686
0.333333 0.470588 0.007843
0.482353 0.474510 0.007843
0.654902 0.482353 0.007843
0.807843 0.478431 0.000000
0.941176 0.466667 0.007843
1.000000 0.447059 0.000000
1.000000 0.431373 0.000000
0.003922 0.658824 0.000000
0.145098 0.650980 0.003922
0.325490 0.662745 0.000000
0.494118 0.654902 0.000000
0.658824 0.654902 0.000000
0.811765 0.643137 0.000000
0.933333 0.619608 0.000000
1.000000 0.596078 0.000000
1.000000 0.564706 0.007843
0.000000 0.815686 0.000000
0.000000 0.815686 0.000000
0.278431 0.811765 0.000000
0.462745 0.807843 0.000000
0.635294 0.800000 0.000000
0.784314 0.796078 0.000000
0.937255 0.772549 0.003922
1.000000 0.737255 0.003922
1.000000 0.705882 0.003922
0.000000 0.905882 0.003922
0.003922 0.913725 0.003922
0.219608 0.909804 0.003922
0.427451 0.905882 0.000000
0.580392 0.898039 0.000000
0.737255 0.898039 0.003922
0.890196 0.886275 0.000000
1.000000 0.862745 0.000000
0.988235 0.831373 0.000000
0.000000 0.996078 0.000000
0.000000 1.000000 0.003922
0.207843 0.996078 0.000000
0.388235 0.996078 0.000000
0.541176 0.992157 0.000000
0.694118 0.988235 0.000000
0.827451 0.980392 0.000000
0.972549 0.976471 0.000000
1.000000 0.956863 0.000000
0.000000 0.996078 0.000000
0.000000 1.000000 0.000000
0.211765 1.000000 0.000000
0.368627 1.000000 0.003922
0.505882 0.996078 0.000000
0.647059 1.000000 0.003922
0.776471 1.000000 0.000000
0.894118 1.000000 0.000000
0.996078 0.996078 0.000000
0.152941 0.129412 0.184314
0.200000 0.117647 0.184314
0.301961 0.113725 0.176471
0.447059 0.086275 0.184314
0.619608 0.007843 0.164706
0.811765 0.003922 0.156863
0.952941 0.000000 0.137255
1.000000 0.000000 0.117647
1.000000 0.000000 0.094118
0.152941 0.172549 0.188235
0.211765 0.176471 0.180392
0.305882 0.172549 0.176471
0.447059 0.164706 0.176471
0.623529 0.156863 0.164706
0.800000 0.137255 0.149020
0.949020 0.125490 0.137255
0.996078 0.109804 0.113725
1.000000 0.101961 0.101961
0.117647 0.290196 0.160784
0.200000 0.294118 0.168627
0.317647 0.294118 0.152941
0.458824 0.301961 0.160784
0.639216 0.313725 0.149020
0.807843 0.313725 0.117647
0.949020 0.298039 0.101961
1.000000 0.286275 0.090196
1.000000 0.266667 0.078431
0.007843 0.454902 0.113725
0.164706 0.462745 0.117647
0.313725 0.466667 0.101961
0.478431 0.466667 0.094118
0.643137 0.474510 0.062745
0.807843 0.470588 0.066667
0.941176 0.458824 0.054902
1.000000 0.439216 0.031373
1.000000 0.411765 0.015686
0.000000 0.654902 0.000000
0.039216 0.650980 0.015686
0.298039 0.654902 0.003922
0.482353 0.650980 0.000000
0.654902 0.650980 0.000000
0.803922 0.631373 0.000000
0.941176 0.607843 0.000000
1.000000 0.584314 0.000000
1.000000 0.564706 0.000000
0.000000 0.807843 0.003922
0.011765 0.807843 0.007843
0.247059 0.803922 0.000000
0.450980 0.800000 0.000000
0.623529 0.792157 0.000000
0.784314 0.788235 0.000000
0.921569 0.764706 0.000000
1.000000 0.733333 0.003922
0.996078 0.701961 0.007843
0.000000 0.913725 0.003922
0.000000 0.901961 0.000000
0.207843 0.905882 0.000000
0.407843 0.901961 0.000000
0.576471 0.901961 0.007843
0.733333 0.894118 0.000000
0.882353 0.886275 0.000000
1.000000 0.866667 0.000000
0.996078 0.835294 0.000000
0.000000 0.996078 0.000000
0.003922 1.000000 0.000000
0.192157 1.000000 0.000000
0.380392 0.996078 0.000000
0.541176 0.992157 0.000000
0.694118 0.988235 0.000000
0.827451 0.980392 0.000000
0.972549 0.972549 0.000000
0.996078 0.952941 0.003922
0.003922 1.000000 0.003922
0.000000 0.996078 0.000000
0.192157 0.996078 0.003922
0.356863 1.000000 0.000000
0.505882 0.996078 0.000000
0.639216 0.996078 0.000000
0.772549 0.996078 0.000000
0.894118 1.000000 0.007843
0.996078 0.996078 0.000000
0.152941 0.121569 0.282353
0.219608 0.109804 0.298039
0.321569 0.098039 0.298039
0.454902 0.062745 0.298039
0.635294 0.000000 0.313725
0.815686 0.000000 0.298039
0.964706 0.000000 0.270588
1.000000 0.000000 0.250980
1.000000 0.000000 0.227451
0.145098 0.172549 0.286275
0.200000 0.160784 0.294118
0.313725 0.156863 0.290196
0.458824 0.145098 0.298039
0.639216 0.078431 0.298039
0.819608 0.000000 0.274510
0.956863 0.000000 0.250980
0.996078 0.000000 0.235294
0.996078 0.000000 0.239216
0.094118 0.286275 0.301961
0.172549 0.290196 0.290196
0.313725 0.290196 0.290196
0.470588 0.282353 0.282353
0.650980 0.274510 0.278431
0.827451 0.258824 0.270588
0.952941 0.254902 0.254902
1.000000 0.239216 0.239216
1.000000 0.231373 0.207843
0.003922 0.466667 0.262745
0.003922 0.470588 0.258824
0.274510 0.474510 0.250980
0.474510 0.474510 0.239216
0.654902 0.462745 0.243137
0.807843 0.454902 0.247059
0.952941 0.439216 0.235294
1.000000 0.423529 0.223529
1.000000 0.403922 0.219608
0.000000 0.662745 0.192157
0.011765 0.658824 0.196078
0.223529 0.658824 0.188235
0.466667 0.654902 0.192157
0.654902 0.647059 0.180392
0.811765 0.627451 0.172549
0.929412 0.600000 0.211765
1.000000 0.576471 0.211765
1.000000 0.552941 0.203922
0.000000 0.811765 0.160784
0.000000 0.807843 0.156863
0.176471 0.800000 0.164706
0.431373 0.792157 0.152941
0.611765 0.796078 0.137255
0.788235 0.780392 0.141176
0.929412 0.760784 0.117647
1.000000 0.729412 0.164706
0.996078 0.701961 0.203922
0.000000 0.905882 0.098039
0.000000 0.901961 0.129412
0.145098 0.909804 0.125490
0.384314 0.905882 0.109804
0.564706 0.898039 0.101961
0.729412 0.890196 0.098039
0.894118 0.886275 0.105882
1.000000 0.866667 0.109804
1.000000 0.823529 0.141176
0.000000 0.996078 0.133333
0.000000 1.000000 0.152941
0.160784 0.996078 0.149020
0.380392 1.000000 0.149020
0.533333 0.992157 0.145098
0.686275 0.988235 0.141176
0.823529 0.976471 0.133333
0.972549 0.972549 0.149020
0.996078 0.949020 0.164706
0.003922 0.996078 0.192157
0.000000 1.000000 0.200000
0.207843 0.996078 0.200000
0.368627 1.000000 0.207843
0.501961 1.000000 0.211765
0.643137 1.000000 0.211765
0.772549 1.000000 0.211765
0.894118 1.000000 0.227451
1.000000 0.996078 0.254902
0.152941 0.101961 0.454902
0.223529 0.090196 0.462745
0.345098 0.070588 0.458824
0.482353 0.007843 0.462745
0.647059 0.003922 0.478431
0.835294 0.000000 0.482353
0.956863 0.007843 0.450980
1.000000 0.000000 0.423529
0.992157 0.003922 0.407843
0.105882 0.160784 0.454902
0.200000 0.152941 0.450980
0.325490 0.129412 0.462745
0.466667 0.101961 0.450980
0.654902 0.000000 0.470588
0.819608 0.000000 0.466667
0.956863 0.000000 0.443137
1.000000 0.000000 0.419608
1.000000 0.000000 0.400000
0.000000 0.294118 0.458824
0.074510 0.278431 0.474510
0.290196 0.262745 0.474510
0.482353 0.243137 0.478431
0.674510 0.235294 0.466667
0.823529 0.219608 0.454902
0.964706 0.223529 0.443137
1.000000 0.235294 0.423529
0.996078 0.247059 0.419608
0.003922 0.466667 0.474510
0.000000 0.478431 0.466667
0.215686 0.466667 0.466667
0.462745 0.458824 0.450980
0.662745 0.447059 0.458824
0.803922 0.450980 0.450980
0.945098 0.435294 0.435294
0.996078 0.423529 0.423529
0.996078 0.407843 0.403922
0.003922 0.666667 0.450980
0.000000 0.662745 0.443137
0.000000 0.662745 0.431373
0.431373 0.658824 0.419608
0.654902 0.647059 0.407843
0.815686 0.619608 0.411765
0.933333 0.607843 0.443137
1.000000 0.584314 0.427451
1.000000 0.560784 0.427451
0.000000 0.811765 0.396078
0.003922 0.807843 0.403922
0.082353 0.807843 0.400000
0.400000 0.800000 0.400000
0.615686 0.792157 0.396078
0.796078 0.788235 0.396078
0.929412 0.756863 0.376471
1.000000 0.729412 0.415686
1.000000 0.709804 0.431373
0.000000 0.909804 0.380392
0.000000 0.909804 0.380392
0.117647 0.905882 0.388235
0.380392 0.905882 0.376471
0.564706 0.898039 0.388235
0.729412 0.894118 0.368627
0.886275 0.886275 0.368627
1.000000 0.862745 0.364706
0.992157 0.831373 0.376471
0.000000 1.000000 0.388235
0.000000 0.992157 0.392157
0.219608 0.996078 0.388235
0.392157 0.996078 0.384314
0.545098 0.988235 0.384314
0.686275 0.988235 0.384314
0.831373 0.976471 0.368627
0.964706 0.976471 0.376471
0.996078 0.956863 0.380392
0.039216 1.000000 0.384314
0.160784 1.000000 0.396078
0.278431 1.000000 0.396078
0.396078 1.000000 0.388235
0.529412 1.000000 0.403922
0.650980 1.000000 0.396078
0.780392 1.000000 0.407843
0.898039 1.000000 0.415686
1.000000 1.000000 0.419608
0.145098 0.074510 0.639216
0.231373 0.062745 0.650980
0.341176 0.019608 0.647059
0.486275 0.000000 0.639216
0.654902 0.000000 0.650980
0.827451 0.000000 0.647059
0.964706 0.003922 0.619608
1.000000 0.003922 0.592157
0.992157 0.000000 0.556863
0.062745 0.129412 0.647059
0.188235 0.125490 0.647059
0.329412 0.105882 0.650980
0.490196 0.047059 0.650980
0.654902 0.000000 0.658824
0.819608 0.000000 0.639216
0.956863 0.000000 0.611765
0.996078 0.000000 0.588235
1.000000 0.000000 0.560784
0.003922 0.250980 0.654902
0.000000 0.247059 0.650980
0.262745 0.235294 0.650980
0.478431 0.215686 0.658824
0.666667 0.180392 0.658824
0.831373 0.168627 0.635294
0.952941 0.184314 0.607843
1.000000 0.215686 0.592157
1.000000 0.254902 0.564706
0.000000 0.454902 0.654902
0.000000 0.450980 0.666667
0.137255 0.431373 0.654902
0.427451 0.423529 0.650980
0.654902 0.403922 0.643137
0.815686 0.423529 0.619608
0.933333 0.443137 0.607843
1.000000 0.447059 0.596078
1.000000 0.458824 0.592157
0.000000 0.650980 0.650980
0.003922 0.654902 0.654902
0.007843 0.650980 0.658824
0.419608 0.647059 0.654902
0.639216 0.647059 0.643137
0.788235 0.631373 0.635294
0.909804 0.627451 0.631373
1.000000 0.619608 0.615686
0.988235 0.603922 0.600000
0.000000 0.811765 0.619608
0.000000 0.811765 0.607843
0.109804 0.800000 0.619608
0.419608 0.803922 0.619608
0.611765 0.792157 0.611765
0.784314 0.780392 0.592157
0.913725 0.760784 0.600000
1.000000 0.752941 0.615686
0.996078 0.737255 0.603922
0.003922 0.901961 0.576471
0.000000 0.909804 0.576471
0.207843 0.901961 0.584314
0.407843 0.901961 0.580392
0.576471 0.898039 0.568627
0.729412 0.894118 0.572549
0.882353 0.886275 0.572549
1.000000 0.862745 0.564706
0.996078 0.843137 0.580392
0.078431 0.992157 0.564706
0.200000 0.988235 0.580392
0.317647 0.988235 0.580392
0.443137 0.992157 0.572549
0.572549 0.984314 0.572549
0.705882 0.984314 0.576471
0.831373 0.976471 0.560784
0.972549 0.964706 0.560784
1.000000 0.949020 0.568627
0.266667 1.000000 0.564706
0.313725 1.000000 0.576471
0.388235 1.000000 0.568627
0.478431 1.000000 0.572549
0.564706 1.000000 0.564706
0.678431 1.000000 0.568627
0.796078 1.000000 0.568627
0.898039 1.000000 0.572549
1.000000 1.000000 0.584314
0.121569 0.047059 0.784314
0.207843 0.027451 0.788235
0.341176 0.000000 0.788235
0.478431 0.000000 0.788235
0.635294 0.000000 0.784314
0.788235 0.000000 0.784314
0.949020 0.007843 0.780392
1.000000 0.000000 0.745098
1.000000 0.000000 0.709804
0.003922 0.113725 0.780392
0.176471 0.113725 0.784314
0.309804 0.078431 0.768627
0.462745 0.007843 0.780392
0.631373 0.000000 0.784314
0.792157 0.000000 0.792157
0.949020 0.000000 0.784314
1.000000 0.000000 0.760784
1.000000 0.000000 0.713725
0.000000 0.231373 0.792157
0.003922 0.231373 0.796078
0.247059 0.215686 0.792157
0.447059 0.200000 0.792157
0.615686 0.168627 0.788235
0.784314 0.125490 0.796078
0.956863 0.101961 0.784314
1.000000 0.168627 0.733333
0.996078 0.231373 0.701961
0.000000 0.411765 0.796078
0.000000 0.407843 0.788235
0.090196 0.396078 0.788235
0.396078 0.396078 0.780392
0.603922 0.388235 0.788235
0.792157 0.380392 0.784314
0.945098 0.396078 0.772549
1.000000 0.427451 0.741176
1.000000 0.443137 0.717647
0.000000 0.596078 0.792157
0.003922 0.603922 0.776471
0.000000 0.607843 0.788235
0.396078 0.600000 0.788235
0.600000 0.603922 0.784314
0.780392 0.592157 0.780392
0.917647 0.611765 0.768627
1.000000 0.619608 0.756863
1.000000 0.627451 0.752941
0.000000 0.792157 0.788235
0.000000 0.784314 0.784314
0.125490 0.792157 0.788235
0.411765 0.780392 0.780392
0.603922 0.776471 0.772549
0.768627 0.768627 0.768627
0.901961 0.768627 0.764706
0.996078 0.760784 0.760784
1.000000 0.752941 0.752941
0.000000 0.905882 0.741176
0.000000 0.901961 0.737255
0.203922 0.905882 0.741176
0.423529 0.894118 0.745098
0.600000 0.894118 0.741176
0.745098 0.886275 0.745098
0.882353 0.882353 0.741176
1.000000 0.862745 0.737255
1.000000 0.858824 0.756863
0.105882 0.996078 0.725490
0.223529 0.992157 0.709804
0.341176 0.988235 0.717647
0.486275 0.980392 0.729412
0.619608 0.980392 0.733333
0.725490 0.976471 0.737255
0.850980 0.968627 0.717647
0.964706 0.968627 0.733333
0.996078 0.949020 0.713725
0.384314 0.996078 0.709804
0.423529 1.000000 0.713725
0.478431 1.000000 0.725490
0.552941 1.000000 0.725490
0.639216 0.996078 0.725490
0.725490 1.000000 0.717647
0.815686 0.992157 0.721569
0.913725 0.996078 0.725490
0.996078 1.000000 0.741176
0.094118 0.003922 0.905882
0.192157 0.000000 0.898039
0.301961 0.000000 0.901961
0.454902 0.000000 0.905882
0.603922 0.003922 0.905882
0.745098 0.000000 0.909804
0.905882 0.000000 0.901961
1.000000 0.000000 0.898039
1.000000 0.000000 0.847059
0.007843 0.090196 0.894118
0.137255 0.090196 0.898039
0.290196 0.058824 0.898039
0.443137 0.000000 0.901961
0.588235 0.000000 0.898039
0.749020 0.000000 0.894118
0.905882 0.000000 0.901961
1.000000 0.000000 0.886275
1.000000 0.000000 0.847059
0.000000 0.211765 0.909804
0.003922 0.207843 0.921569
0.235294 0.207843 0.905882
0.411765 0.184314 0.898039
0.584314 0.164706 0.909804
0.741176 0.133333 0.909804
0.898039 0.101961 0.901961
0.996078 0.082353 0.890196
1.000000 0.192157 0.858824
0.003922 0.372549 0.905882
0.003922 0.372549 0.898039
0.125490 0.364706 0.913725
0.384314 0.372549 0.894118
0.572549 0.368627 0.905882
0.737255 0.368627 0.901961
0.901961 0.368627 0.901961
1.000000 0.384314 0.890196
1.000000 0.415686 0.858824
0.003922 0.560784 0.898039
0.003922 0.560784 0.898039
0.129412 0.560784 0.894118
0.392157 0.564706 0.905882
0.576471 0.568627 0.894118
0.741176 0.568627 0.901961
0.898039 0.572549 0.894118
1.000000 0.588235 0.882353
0.988235 0.611765 0.862745
0.003922 0.729412 0.901961
0.000000 0.741176 0.898039
0.188235 0.733333 0.901961
0.411765 0.737255 0.901961
0.588235 0.741176 0.894118
0.749020 0.741176 0.894118
0.886275 0.745098 0.886275
0.988235 0.749020 0.870588
1.000000 0.752941 0.858824
0.003922 0.890196 0.886275
0.003922 0.890196 0.886275
0.239216 0.882353 0.878431
0.435294 0.890196 0.886275
0.596078 0.886275 0.882353
0.756863 0.878431 0.886275
0.882353 0.874510 0.878431
0.968627 0.882353 0.890196
1.000000 0.878431 0.870588
0.160784 0.984314 0.847059
0.239216 0.992157 0.847059
0.356863 0.984314 0.850980
0.494118 0.976471 0.854902
0.623529 0.980392 0.858824
0.760784 0.984314 0.858824
0.866667 0.968627 0.862745
0.960784 0.972549 0.866667
1.000000 0.960784 0.862745
0.415686 1.000000 0.835294
0.439216 1.000000 0.827451
0.505882 1.000000 0.815686
0.596078 0.996078 0.839216
0.694118 1.000000 0.847059
0.784314 0.996078 0.854902
0.858824 1.000000 0.858824
0.933333 1.000000 0.866667
0.996078 1.000000 0.866667
0.062745 0.003922 0.988235
0.156863 0.000000 0.996078
0.282353 0.000000 0.988235
0.427451 0.000000 0.996078
0.560784 0.000000 0.988235
0.701961 0.000000 0.988235
0.858824 0.000000 0.992157
0.984314 0.000000 0.984314
1.000000 0.000000 0.996078
0.000000 0.078431 0.996078
0.117647 0.066667 1.000000
0.274510 0.031373 1.000000
0.403922 0.000000 1.000000
0.552941 0.000000 0.996078
0.701961 0.000000 0.996078
0.847059 0.003922 0.992157
0.996078 0.000000 0.996078
0.996078 0.000000 0.996078
0.000000 0.200000 0.996078
0.003922 0.203922 1.000000
0.223529 0.196078 0.996078
0.388235 0.184314 0.992157
0.549020 0.164706 0.992157
0.694118 0.149020 1.000000
0.850980 0.129412 1.000000
0.992157 0.121569 0.996078
1.000000 0.133333 0.984314
0.003922 0.352941 0.996078
0.000000 0.360784 0.984314
0.152941 0.356863 0.992157
0.376471 0.356863 0.992157
0.529412 0.364706 0.992157
0.690196 0.360784 0.988235
0.843137 0.364706 0.992157
0.980392 0.368627 0.992157
1.000000 0.380392 0.988235
0.000000 0.529412 0.992157
0.007843 0.537255 0.988235
0.207843 0.537255 0.984314
0.396078 0.541176 0.988235
0.556863 0.549020 0.980392
0.698039 0.549020 0.992157
0.843137 0.556863 0.980392
0.988235 0.564706 0.992157
1.000000 0.576471 0.964706
0.000000 0.694118 0.984314
0.000000 0.701961 0.988235
0.258824 0.698039 0.988235
0.431373 0.698039 0.976471
0.592157 0.713725 0.976471
0.729412 0.721569 0.980392
0.850980 0.725490 0.980392
0.972549 0.729412 0.976471
1.000000 0.729412 0.972549
0.058824 0.835294 0.988235
0.184314 0.847059 0.976471
0.329412 0.839216 0.980392
0.470588 0.839216 0.972549
0.607843 0.843137 0.976471
0.741176 0.854902 0.972549
0.862745 0.862745 0.972549
0.964706 0.862745 0.968627
1.000000 0.874510 0.956863
0.254902 0.972549 0.956863
0.317647 0.964706 0.980392
0.400000 0.972549 0.960784
0.517647 0.964706 0.964706
0.639216 0.968627 0.968627
0.764706 0.968627 0.960784
0.866667 0.968627 0.964706
0.968627 0.960784 0.964706
1.000000 0.960784 0.960784
0.462745 1.000000 0.941176
0.482353 0.996078 0.925490
0.537255 1.000000 0.929412
0.603922 1.000000 0.929412
0.709804 1.000000 0.933333
0.803922 1.000000 0.952941
0.898039 1.000000 0.949020
0.960784 1.000000 0.956863
1.000000 0.996078 0.960784
0.047059 0.000000 1.000000
0.145098 0.000000 0.996078
0.274510 0.000000 0.996078
0.396078 0.000000 1.000000
0.521569 0.000000 1.000000
0.654902 0.000000 1.000000
0.784314 0.000000 1.000000
0.921569 0.000000 1.000000
1.000000 0.000000 0.996078
0.007843 0.066667 1.000000
0.105882 0.062745 1.000000
0.247059 0.047059 1.000000
0.384314 0.003922 0.996078
0.521569 0.000000 1.000000
0.654902 0.000000 1.000000
0.788235 0.000000 1.000000
0.917647 0.000000 1.000000
1.000000 0.000000 0.992157
0.000000 0.200000 1.000000
0.000000 0.200000 1.000000
0.223529 0.192157 1.000000
0.376471 0.188235 0.996078
0.509804 0.180392 0.996078
0.654902 0.172549 1.000000
0.788235 0.172549 1.000000
0.921569 0.180392 0.996078
1.000000 0.207843 1.000000
0.000000 0.356863 1.000000
0.003922 0.352941 1.000000
0.203922 0.349020 1.000000
0.360784 0.349020 0.996078
0.509804 0.360784 1.000000
0.650980 0.356863 1.000000
0.784314 0.368627 0.996078
0.913725 0.380392 1.000000
1.000000 0.396078 1.000000
0.019608 0.525490 0.996078
0.160784 0.525490 1.000000
0.282353 0.525490 1.000000
0.407843 0.525490 0.996078
0.533333 0.537255 1.000000
0.666667 0.533333 1.000000
0.800000 0.545098 1.000000
0.917647 0.552941 1.000000
0.996078 0.580392 1.000000
0.192157 0.662745 1.000000
0.254902 0.662745 1.000000
0.356863 0.674510 0.996078
0.482353 0.690196 1.000000
0.600000 0.701961 1.000000
0.705882 0.705882 0.996078
0.811765 0.709804 1.000000
0.921569 0.717647 1.000000
1.000000 0.729412 1.000000
0.321569 0.792157 1.000000
0.349020 0.796078 0.992157
0.423529 0.800000 1.000000
0.525490 0.807843 0.996078
0.639216 0.823529 0.996078
0.760784 0.835294 1.000000
0.850980 0.847059 1.000000
0.925490 0.858824 1.000000
1.000000 0.858824 1.000000
0.423529 0.909804 1.000000
0.462745 0.909804 1.000000
0.509804 0.909804 0.996078
0.596078 0.917647 1.000000
0.686275 0.925490 0.996078
0.788235 0.933333 0.996078
0.882353 0.945098 0.996078
0.960784 0.960784 1.000000
1.000000 0.964706 0.984314
0.552941 1.000000 1.000000
0.568627 1.000000 1.000000
0.619608 0.996078 0.992157
0.670588 1.000000 0.992157
0.756863 1.000000 0.996078
0.839216 1.000000 1.000000
0.921569 1.000000 1.000000
0.984314 1.000000 1.000000
1.000000 1.000000 1.000000
