loleis/其他/lut20种/Sports LUT #11.cube
TITLE "Sports LUT #11"
#LUT size
LUT_3D_SIZE 5
#LUT data points
0.137255 0.137255 0.145098
0.235294 0.133333 0.137255
0.521569 0.129412 0.137255
0.866667 0.086275 0.105882
1.000000 0.007843 0.062745
0.145098 0.243137 0.156863
0.247059 0.243137 0.133333
0.533333 0.290196 0.105882
0.878431 0.298039 0.062745
0.996078 0.270588 0.015686
0.000000 0.576471 0.000000
0.294118 0.576471 0.003922
0.576471 0.576471 0.003922
0.858824 0.564706 0.003922
0.984314 0.541176 0.000000
0.000000 0.839216 0.000000
0.219608 0.843137 0.000000
0.545098 0.839216 0.000000
0.823529 0.823529 0.000000
1.000000 0.788235 0.015686
0.003922 1.000000 0.000000
0.243137 1.000000 0.023529
0.501961 1.000000 0.000000
0.760784 1.000000 0.007843
0.992157 1.000000 0.125490
0.133333 0.137255 0.247059
0.231373 0.133333 0.247059
0.525490 0.031373 0.282353
0.878431 0.000000 0.247059
1.000000 0.000000 0.235294
0.117647 0.239216 0.250980
0.243137 0.239216 0.258824
0.552941 0.239216 0.250980
0.866667 0.219608 0.235294
0.996078 0.207843 0.231373
0.000000 0.572549 0.219608
0.223529 0.568627 0.227451
0.564706 0.556863 0.215686
0.850980 0.545098 0.211765
0.996078 0.513725 0.207843
0.003922 0.835294 0.207843
0.188235 0.839216 0.211765
0.529412 0.819608 0.196078
0.827451 0.827451 0.207843
1.000000 0.784314 0.227451
0.043137 1.000000 0.282353
0.258824 1.000000 0.286275
0.509804 1.000000 0.294118
0.764706 1.000000 0.309804
0.996078 1.000000 0.356863
0.094118 0.113725 0.584314
0.301961 0.082353 0.572549
0.576471 0.000000 0.576471
0.862745 0.003922 0.576471
1.000000 0.000000 0.541176
0.007843 0.247059 0.572549
0.231373 0.235294 0.596078
0.568627 0.211765 0.576471
0.862745 0.172549 0.560784
0.984314 0.235294 0.549020
0.000000 0.556863 0.572549
0.160784 0.568627 0.572549
0.564706 0.556863 0.568627
0.850980 0.552941 0.568627
1.000000 0.552941 0.564706
0.003922 0.831373 0.560784
0.290196 0.835294 0.572549
0.552941 0.831373 0.564706
0.819608 0.823529 0.564706
1.000000 0.792157 0.568627
0.337255 0.988235 0.588235
0.411765 0.996078 0.588235
0.576471 1.000000 0.592157
0.784314 1.000000 0.600000
0.996078 0.996078 0.611765
0.019608 0.054902 0.850980
0.282353 0.003922 0.850980
0.552941 0.000000 0.847059
0.835294 0.000000 0.847059
0.996078 0.000000 0.815686
0.000000 0.219608 0.847059
0.207843 0.215686 0.854902
0.541176 0.200000 0.847059
0.831373 0.180392 0.839216
0.996078 0.235294 0.815686
0.000000 0.533333 0.831373
0.235294 0.537255 0.843137
0.552941 0.552941 0.843137
0.827451 0.552941 0.835294
1.000000 0.572549 0.819608
0.066667 0.827451 0.827451
0.301961 0.819608 0.827451
0.580392 0.819608 0.823529
0.819608 0.815686 0.835294
1.000000 0.827451 0.823529
0.431373 1.000000 0.811765
0.498039 1.000000 0.811765
0.658824 1.000000 0.831373
0.835294 0.996078 0.839216
0.996078 1.000000 0.847059
0.000000 0.000000 0.992157
0.247059 0.000000 0.996078
0.498039 0.000000 1.000000
0.764706 0.000000 1.000000
1.000000 0.000000 0.996078
0.000000 0.223529 0.988235
0.211765 0.219608 0.988235
0.498039 0.219608 0.996078
0.764706 0.239216 1.000000
1.000000 0.290196 1.000000
0.243137 0.545098 1.000000
0.345098 0.545098 0.996078
0.552941 0.552941 1.000000
0.788235 0.568627 0.996078
1.000000 0.588235 0.992157
0.380392 0.788235 0.996078
0.454902 0.788235 1.000000
0.639216 0.811765 1.000000
0.827451 0.819608 1.000000
1.000000 0.827451 1.000000
0.533333 0.996078 1.000000
0.584314 1.000000 0.992157
0.709804 1.000000 0.996078
0.874510 0.996078 1.000000
1.000000 1.000000 0.992157
