loleis/其他/lut20种/Sports LUT #6.cube
TITLE "Sports LUT #6"
#LUT size
LUT_3D_SIZE 5
#LUT data points
0.086275 0.098039 0.125490
0.105882 0.125490 0.149020
0.149020 0.176471 0.207843
0.258824 0.274510 0.309804
0.470588 0.474510 0.482353
0.160784 0.176471 0.211765
0.168627 0.184314 0.219608
0.211765 0.239216 0.270588
0.329412 0.349020 0.372549
0.529412 0.545098 0.556863
0.349020 0.352941 0.372549
0.349020 0.360784 0.388235
0.403922 0.415686 0.435294
0.533333 0.537255 0.552941
0.694118 0.698039 0.705882
0.670588 0.670588 0.678431
0.666667 0.670588 0.678431
0.694118 0.698039 0.705882
0.752941 0.752941 0.760784
0.862745 0.862745 0.854902
0.949020 0.949020 0.956863
0.941176 0.941176 0.941176
0.956863 0.956863 0.956863
0.972549 0.972549 0.972549
0.992157 0.992157 0.992157
0.094118 0.113725 0.137255
0.117647 0.137255 0.160784
0.180392 0.196078 0.231373
0.290196 0.305882 0.341176
0.498039 0.513725 0.525490
0.164706 0.184314 0.207843
0.176471 0.203922 0.243137
0.235294 0.262745 0.294118
0.360784 0.372549 0.392157
0.560784 0.576471 0.588235
0.380392 0.396078 0.407843
0.380392 0.392157 0.411765
0.427451 0.443137 0.454902
0.556863 0.560784 0.576471
0.709804 0.713725 0.721569
0.686275 0.690196 0.705882
0.690196 0.694118 0.701961
0.717647 0.721569 0.729412
0.752941 0.752941 0.760784
0.858824 0.858824 0.866667
0.945098 0.945098 0.945098
0.949020 0.949020 0.949020
0.956863 0.956863 0.956863
0.968627 0.968627 0.968627
0.992157 0.992157 0.992157
0.125490 0.152941 0.184314
0.141176 0.168627 0.200000
0.176471 0.203922 0.235294
0.309804 0.329412 0.352941
0.517647 0.533333 0.545098
0.207843 0.227451 0.250980
0.211765 0.239216 0.270588
0.250980 0.266667 0.301961
0.384314 0.396078 0.415686
0.584314 0.588235 0.603922
0.356863 0.368627 0.388235
0.376471 0.388235 0.407843
0.462745 0.466667 0.482353
0.568627 0.572549 0.588235
0.713725 0.717647 0.725490
0.694118 0.701961 0.698039
0.698039 0.701961 0.709804
0.733333 0.733333 0.733333
0.764706 0.764706 0.772549
0.870588 0.870588 0.870588
0.949020 0.945098 0.964706
0.949020 0.949020 0.949020
0.956863 0.956863 0.956863
0.972549 0.972549 0.964706
0.992157 0.992157 0.992157
0.203922 0.231373 0.262745
0.215686 0.243137 0.274510
0.266667 0.282353 0.317647
0.337255 0.349020 0.376471
0.537255 0.552941 0.564706
0.290196 0.309804 0.333333
0.309804 0.321569 0.356863
0.345098 0.356863 0.384314
0.403922 0.419608 0.431373
0.584314 0.596078 0.615686
0.427451 0.431373 0.447059
0.466667 0.470588 0.486275
0.533333 0.537255 0.552941
0.568627 0.572549 0.580392
0.721569 0.717647 0.737255
0.666667 0.670588 0.678431
0.678431 0.682353 0.690196
0.713725 0.717647 0.725490
0.772549 0.772549 0.780392
0.862745 0.862745 0.862745
0.941176 0.949020 0.945098
0.949020 0.949020 0.956863
0.960784 0.968627 0.964706
0.976471 0.976471 0.976471
0.996078 0.996078 0.996078
0.474510 0.478431 0.494118
0.482353 0.486275 0.501961
0.513725 0.517647 0.533333
0.564706 0.568627 0.584314
0.662745 0.666667 0.674510
0.525490 0.529412 0.537255
0.545098 0.549020 0.564706
0.568627 0.572549 0.588235
0.607843 0.611765 0.619608
0.694118 0.698039 0.705882
0.650980 0.654902 0.662745
0.670588 0.674510 0.682353
0.678431 0.682353 0.690196
0.709804 0.713725 0.721569
0.772549 0.776471 0.784314
0.784314 0.784314 0.784314
0.788235 0.788235 0.788235
0.792157 0.792157 0.792157
0.850980 0.850980 0.850980
0.882353 0.882353 0.882353
0.949020 0.949020 0.949020
0.952941 0.952941 0.952941
0.952941 0.952941 0.952941
0.972549 0.972549 0.972549
1.000000 1.000000 1.000000
