loleis/其他/lut20种/Sports LUT #5.cube
TITLE "Sports LUT #5"
#LUT size
LUT_3D_SIZE 25
#LUT data points
0.070588 0.070588 0.070588
0.090196 0.074510 0.062745
0.129412 0.066667 0.066667
0.156863 0.074510 0.070588
0.203922 0.070588 0.066667
0.235294 0.074510 0.066667
0.282353 0.070588 0.070588
0.317647 0.066667 0.070588
0.352941 0.074510 0.066667
0.403922 0.066667 0.070588
0.450980 0.066667 0.070588
0.505882 0.062745 0.070588
0.552941 0.058824 0.070588
0.615686 0.054902 0.070588
0.670588 0.047059 0.062745
0.717647 0.039216 0.062745
0.764706 0.031373 0.066667
0.807843 0.023529 0.066667
0.850980 0.019608 0.066667
0.898039 0.011765 0.066667
0.937255 0.003922 0.062745
0.972549 0.007843 0.058824
1.000000 0.000000 0.062745
1.000000 0.000000 0.062745
1.000000 0.000000 0.062745
0.062745 0.101961 0.066667
0.098039 0.094118 0.074510
0.129412 0.101961 0.070588
0.168627 0.101961 0.074510
0.200000 0.090196 0.074510
0.235294 0.101961 0.066667
0.282353 0.098039 0.066667
0.309804 0.094118 0.066667
0.356863 0.094118 0.062745
0.407843 0.094118 0.066667
0.450980 0.098039 0.066667
0.501961 0.098039 0.078431
0.552941 0.090196 0.074510
0.611765 0.090196 0.070588
0.654902 0.086275 0.066667
0.717647 0.082353 0.070588
0.760784 0.078431 0.074510
0.811765 0.074510 0.070588
0.854902 0.070588 0.070588
0.898039 0.062745 0.070588
0.937255 0.058824 0.062745
0.976471 0.058824 0.070588
1.000000 0.047059 0.066667
1.000000 0.047059 0.062745
0.992157 0.054902 0.066667
0.062745 0.125490 0.074510
0.098039 0.129412 0.078431
0.125490 0.129412 0.074510
0.164706 0.129412 0.070588
0.192157 0.129412 0.070588
0.231373 0.121569 0.074510
0.266667 0.125490 0.078431
0.313725 0.121569 0.066667
0.356863 0.125490 0.070588
0.400000 0.129412 0.070588
0.450980 0.125490 0.070588
0.501961 0.125490 0.070588
0.556863 0.121569 0.078431
0.603922 0.117647 0.070588
0.662745 0.121569 0.070588
0.713725 0.117647 0.066667
0.752941 0.109804 0.062745
0.807843 0.109804 0.054902
0.854902 0.109804 0.062745
0.894118 0.109804 0.058824
0.933333 0.101961 0.058824
0.972549 0.098039 0.066667
1.000000 0.094118 0.066667
0.996078 0.101961 0.066667
1.000000 0.098039 0.070588
0.054902 0.164706 0.066667
0.090196 0.160784 0.066667
0.117647 0.164706 0.070588
0.152941 0.160784 0.066667
0.188235 0.164706 0.078431
0.231373 0.160784 0.074510
0.270588 0.160784 0.074510
0.317647 0.156863 0.070588
0.356863 0.160784 0.070588
0.400000 0.160784 0.078431
0.447059 0.164706 0.078431
0.501961 0.164706 0.074510
0.560784 0.160784 0.074510
0.611765 0.164706 0.070588
0.654902 0.160784 0.070588
0.709804 0.160784 0.070588
0.756863 0.160784 0.066667
0.800000 0.152941 0.066667
0.843137 0.152941 0.062745
0.886275 0.145098 0.058824
0.929412 0.145098 0.054902
0.964706 0.137255 0.054902
1.000000 0.141176 0.054902
1.000000 0.141176 0.062745
0.996078 0.149020 0.066667
0.050980 0.196078 0.066667
0.094118 0.200000 0.070588
0.117647 0.200000 0.078431
0.149020 0.200000 0.082353
0.184314 0.200000 0.070588
0.223529 0.196078 0.082353
0.270588 0.196078 0.078431
0.317647 0.196078 0.074510
0.345098 0.203922 0.070588
0.400000 0.200000 0.078431
0.450980 0.196078 0.070588
0.494118 0.203922 0.066667
0.552941 0.203922 0.070588
0.596078 0.203922 0.070588
0.654902 0.207843 0.066667
0.701961 0.203922 0.066667
0.752941 0.203922 0.066667
0.796078 0.196078 0.062745
0.843137 0.200000 0.062745
0.878431 0.196078 0.062745
0.925490 0.192157 0.054902
0.960784 0.188235 0.050980
0.996078 0.184314 0.050980
1.000000 0.176471 0.058824
1.000000 0.180392 0.058824
0.043137 0.243137 0.074510
0.074510 0.243137 0.074510
0.117647 0.243137 0.082353
0.145098 0.243137 0.078431
0.200000 0.243137 0.074510
0.231373 0.243137 0.074510
0.262745 0.250980 0.082353
0.317647 0.243137 0.074510
0.368627 0.239216 0.070588
0.411765 0.243137 0.078431
0.462745 0.250980 0.078431
0.513725 0.250980 0.074510
0.564706 0.258824 0.070588
0.619608 0.258824 0.066667
0.678431 0.254902 0.062745
0.733333 0.254902 0.062745
0.780392 0.250980 0.062745
0.815686 0.250980 0.054902
0.854902 0.247059 0.058824
0.898039 0.247059 0.058824
0.941176 0.243137 0.062745
0.976471 0.239216 0.058824
1.000000 0.231373 0.054902
1.000000 0.235294 0.062745
1.000000 0.231373 0.074510
0.019608 0.282353 0.082353
0.058824 0.282353 0.066667
0.101961 0.290196 0.062745
0.133333 0.278431 0.074510
0.192157 0.290196 0.074510
0.219608 0.286275 0.070588
0.270588 0.278431 0.082353
0.313725 0.286275 0.074510
0.360784 0.282353 0.074510
0.407843 0.286275 0.070588
0.458824 0.290196 0.074510
0.513725 0.298039 0.074510
0.568627 0.298039 0.066667
0.619608 0.298039 0.062745
0.678431 0.301961 0.066667
0.713725 0.301961 0.047059
0.764706 0.301961 0.058824
0.815686 0.298039 0.054902
0.854902 0.298039 0.054902
0.898039 0.294118 0.050980
0.937255 0.294118 0.054902
0.972549 0.290196 0.054902
1.000000 0.278431 0.054902
1.000000 0.282353 0.047059
1.000000 0.274510 0.062745
0.007843 0.333333 0.066667
0.019608 0.329412 0.074510
0.078431 0.333333 0.074510
0.133333 0.333333 0.062745
0.184314 0.329412 0.058824
0.223529 0.329412 0.066667
0.270588 0.337255 0.062745
0.313725 0.337255 0.062745
0.364706 0.337255 0.062745
0.411765 0.337255 0.066667
0.462745 0.333333 0.054902
0.509804 0.345098 0.062745
0.560784 0.349020 0.058824
0.615686 0.345098 0.043137
0.670588 0.349020 0.058824
0.717647 0.349020 0.058824
0.764706 0.341176 0.047059
0.807843 0.345098 0.054902
0.854902 0.337255 0.047059
0.890196 0.337255 0.054902
0.937255 0.333333 0.043137
0.976471 0.333333 0.054902
1.000000 0.329412 0.047059
1.000000 0.325490 0.054902
1.000000 0.321569 0.054902
0.000000 0.380392 0.062745
0.007843 0.380392 0.058824
0.035294 0.376471 0.066667
0.109804 0.380392 0.054902
0.172549 0.380392 0.058824
0.215686 0.384314 0.062745
0.258824 0.384314 0.058824
0.317647 0.388235 0.058824
0.364706 0.384314 0.054902
0.407843 0.384314 0.054902
0.454902 0.384314 0.047059
0.513725 0.388235 0.047059
0.564706 0.392157 0.043137
0.619608 0.396078 0.047059
0.666667 0.392157 0.047059
0.717647 0.388235 0.043137
0.764706 0.388235 0.047059
0.800000 0.384314 0.039216
0.847059 0.384314 0.043137
0.886275 0.376471 0.039216
0.925490 0.376471 0.035294
0.960784 0.372549 0.039216
1.000000 0.368627 0.035294
1.000000 0.372549 0.043137
1.000000 0.352941 0.043137
0.003922 0.435294 0.054902
0.000000 0.427451 0.047059
0.000000 0.431373 0.043137
0.078431 0.443137 0.035294
0.156863 0.431373 0.043137
0.207843 0.435294 0.035294
0.266667 0.443137 0.039216
0.317647 0.435294 0.043137
0.364706 0.435294 0.043137
0.411765 0.443137 0.047059
0.466667 0.439216 0.031373
0.509804 0.435294 0.031373
0.568627 0.439216 0.019608
0.611765 0.439216 0.027451
0.662745 0.439216 0.019608
0.713725 0.435294 0.027451
0.752941 0.435294 0.023529
0.792157 0.427451 0.023529
0.843137 0.427451 0.027451
0.878431 0.423529 0.027451
0.917647 0.423529 0.023529
0.952941 0.419608 0.027451
0.996078 0.415686 0.023529
1.000000 0.407843 0.019608
1.000000 0.407843 0.019608
0.000000 0.517647 0.003922
0.007843 0.513725 0.007843
0.000000 0.513725 0.011765
0.007843 0.517647 0.000000
0.125490 0.517647 0.000000
0.196078 0.513725 0.007843
0.262745 0.517647 0.015686
0.321569 0.517647 0.003922
0.372549 0.509804 0.000000
0.427451 0.509804 0.003922
0.486275 0.505882 0.003922
0.533333 0.501961 0.003922
0.588235 0.505882 0.007843
0.627451 0.505882 0.007843
0.674510 0.498039 0.000000
0.717647 0.501961 0.003922
0.764706 0.498039 0.015686
0.807843 0.494118 0.019608
0.854902 0.490196 0.015686
0.894118 0.474510 0.019608
0.929412 0.470588 0.023529
0.968627 0.470588 0.027451
0.996078 0.470588 0.035294
1.000000 0.470588 0.047059
1.000000 0.462745 0.043137
0.000000 0.556863 0.000000
0.003922 0.556863 0.007843
0.000000 0.552941 0.000000
0.000000 0.560784 0.000000
0.078431 0.560784 0.003922
0.188235 0.560784 0.000000
0.247059 0.568627 0.000000
0.305882 0.560784 0.000000
0.356863 0.556863 0.003922
0.423529 0.560784 0.003922
0.474510 0.556863 0.003922
0.529412 0.556863 0.007843
0.576471 0.556863 0.000000
0.623529 0.549020 0.000000
0.674510 0.545098 0.000000
0.721569 0.541176 0.003922
0.764706 0.537255 0.003922
0.807843 0.533333 0.007843
0.847059 0.529412 0.000000
0.890196 0.529412 0.007843
0.925490 0.521569 0.007843
0.968627 0.517647 0.011765
1.000000 0.513725 0.019608
0.996078 0.509804 0.031373
1.000000 0.509804 0.047059
0.000000 0.607843 0.000000
0.003922 0.607843 0.000000
0.000000 0.600000 0.000000
0.011765 0.611765 0.011765
0.003922 0.603922 0.007843
0.152941 0.611765 0.000000
0.231373 0.603922 0.000000
0.298039 0.607843 0.003922
0.352941 0.607843 0.003922
0.396078 0.603922 0.007843
0.458824 0.600000 0.003922
0.509804 0.600000 0.003922
0.564706 0.600000 0.000000
0.615686 0.596078 0.000000
0.666667 0.588235 0.003922
0.709804 0.588235 0.000000
0.756863 0.584314 0.000000
0.803922 0.580392 0.000000
0.835294 0.576471 0.003922
0.882353 0.568627 0.000000
0.921569 0.568627 0.000000
0.960784 0.560784 0.000000
0.992157 0.552941 0.011765
1.000000 0.552941 0.023529
1.000000 0.552941 0.035294
0.000000 0.647059 0.000000
0.000000 0.647059 0.000000
0.007843 0.643137 0.000000
0.007843 0.643137 0.011765
0.000000 0.654902 0.003922
0.113725 0.650980 0.000000
0.192157 0.647059 0.007843
0.270588 0.650980 0.003922
0.329412 0.647059 0.000000
0.400000 0.643137 0.003922
0.454902 0.643137 0.007843
0.498039 0.643137 0.000000
0.556863 0.639216 0.000000
0.607843 0.639216 0.000000
0.650980 0.635294 0.003922
0.701961 0.631373 0.000000
0.749020 0.635294 0.000000
0.792157 0.627451 0.000000
0.831373 0.619608 0.000000
0.874510 0.615686 0.000000
0.917647 0.611765 0.000000
0.956863 0.600000 0.007843
0.996078 0.600000 0.003922
1.000000 0.596078 0.000000
1.000000 0.600000 0.023529
0.000000 0.678431 0.000000
0.000000 0.694118 0.003922
0.000000 0.694118 0.000000
0.007843 0.690196 0.003922
0.000000 0.694118 0.003922
0.058824 0.698039 0.003922
0.172549 0.686275 0.000000
0.254902 0.686275 0.000000
0.321569 0.686275 0.000000
0.384314 0.686275 0.000000
0.431373 0.682353 0.000000
0.494118 0.682353 0.007843
0.545098 0.678431 0.000000
0.588235 0.682353 0.000000
0.647059 0.678431 0.000000
0.686275 0.678431 0.000000
0.741176 0.670588 0.003922
0.776471 0.666667 0.000000
0.827451 0.658824 0.003922
0.866667 0.658824 0.007843
0.909804 0.647059 0.000000
0.945098 0.647059 0.003922
0.976471 0.639216 0.000000
0.992157 0.631373 0.000000
1.000000 0.623529 0.000000
0.000000 0.760784 0.003922
0.000000 0.749020 0.000000
0.000000 0.764706 0.003922
0.000000 0.764706 0.003922
0.003922 0.752941 0.000000
0.000000 0.760784 0.003922
0.156863 0.749020 0.007843
0.254902 0.752941 0.000000
0.317647 0.749020 0.000000
0.376471 0.749020 0.000000
0.435294 0.745098 0.000000
0.486275 0.741176 0.000000
0.545098 0.737255 0.000000
0.596078 0.737255 0.000000
0.647059 0.733333 0.000000
0.690196 0.729412 0.003922
0.737255 0.733333 0.000000
0.788235 0.725490 0.003922
0.835294 0.717647 0.000000
0.874510 0.709804 0.000000
0.913725 0.709804 0.000000
0.949020 0.705882 0.000000
0.996078 0.694118 0.000000
1.000000 0.686275 0.003922
0.996078 0.690196 0.023529
0.000000 0.776471 0.000000
0.000000 0.784314 0.000000
0.000000 0.784314 0.000000
0.007843 0.780392 0.000000
0.000000 0.792157 0.003922
0.003922 0.780392 0.000000
0.129412 0.780392 0.003922
0.223529 0.784314 0.000000
0.290196 0.788235 0.000000
0.356863 0.780392 0.000000
0.419608 0.776471 0.000000
0.474510 0.772549 0.000000
0.525490 0.776471 0.000000
0.580392 0.780392 0.000000
0.627451 0.776471 0.003922
0.682353 0.768627 0.000000
0.725490 0.764706 0.000000
0.776471 0.768627 0.000000
0.819608 0.764706 0.000000
0.866667 0.760784 0.003922
0.905882 0.752941 0.003922
0.945098 0.745098 0.003922
0.980392 0.741176 0.007843
1.000000 0.733333 0.011765
1.000000 0.725490 0.007843
0.000000 0.819608 0.000000
0.000000 0.819608 0.000000
0.007843 0.819608 0.000000
0.000000 0.815686 0.000000
0.000000 0.819608 0.011765
0.003922 0.819608 0.003922
0.086275 0.823529 0.003922
0.192157 0.815686 0.003922
0.278431 0.811765 0.003922
0.341176 0.807843 0.000000
0.403922 0.811765 0.000000
0.462745 0.811765 0.003922
0.513725 0.807843 0.003922
0.552941 0.807843 0.000000
0.615686 0.807843 0.000000
0.662745 0.807843 0.007843
0.717647 0.803922 0.000000
0.756863 0.803922 0.003922
0.815686 0.796078 0.000000
0.858824 0.796078 0.007843
0.905882 0.792157 0.000000
0.949020 0.784314 0.000000
0.976471 0.784314 0.000000
0.996078 0.776471 0.003922
1.000000 0.764706 0.011765
0.007843 0.850980 0.007843
0.000000 0.850980 0.000000
0.000000 0.854902 0.000000
0.000000 0.850980 0.000000
0.000000 0.854902 0.000000
0.000000 0.847059 0.000000
0.054902 0.854902 0.000000
0.172549 0.850980 0.003922
0.270588 0.850980 0.000000
0.333333 0.847059 0.000000
0.384314 0.854902 0.000000
0.443137 0.850980 0.000000
0.501961 0.843137 0.000000
0.552941 0.847059 0.003922
0.596078 0.843137 0.000000
0.647059 0.839216 0.000000
0.698039 0.839216 0.000000
0.741176 0.831373 0.000000
0.788235 0.827451 0.000000
0.839216 0.835294 0.003922
0.882353 0.827451 0.000000
0.937255 0.831373 0.000000
0.964706 0.823529 0.000000
0.992157 0.811765 0.000000
1.000000 0.800000 0.000000
0.003922 0.886275 0.000000
0.000000 0.882353 0.000000
0.000000 0.882353 0.003922
0.000000 0.882353 0.003922
0.000000 0.886275 0.003922
0.000000 0.882353 0.003922
0.003922 0.886275 0.000000
0.152941 0.882353 0.000000
0.250980 0.890196 0.000000
0.305882 0.882353 0.000000
0.376471 0.890196 0.003922
0.427451 0.878431 0.000000
0.482353 0.878431 0.000000
0.537255 0.874510 0.007843
0.580392 0.874510 0.000000
0.643137 0.870588 0.000000
0.682353 0.870588 0.000000
0.741176 0.866667 0.000000
0.780392 0.866667 0.000000
0.823529 0.862745 0.003922
0.870588 0.858824 0.000000
0.917647 0.862745 0.003922
0.960784 0.858824 0.000000
0.992157 0.858824 0.000000
1.000000 0.850980 0.007843
0.000000 0.933333 0.070588
0.007843 0.933333 0.070588
0.003922 0.929412 0.058824
0.000000 0.941176 0.062745
0.003922 0.929412 0.066667
0.003922 0.929412 0.066667
0.066667 0.937255 0.062745
0.180392 0.929412 0.047059
0.258824 0.925490 0.050980
0.317647 0.921569 0.050980
0.380392 0.925490 0.050980
0.439216 0.917647 0.043137
0.494118 0.917647 0.035294
0.537255 0.917647 0.027451
0.584314 0.921569 0.023529
0.627451 0.913725 0.015686
0.678431 0.917647 0.023529
0.725490 0.909804 0.015686
0.768627 0.905882 0.015686
0.819608 0.909804 0.023529
0.862745 0.905882 0.019608
0.905882 0.898039 0.015686
0.968627 0.898039 0.027451
1.000000 0.905882 0.043137
0.996078 0.894118 0.066667
0.003922 0.945098 0.031373
0.003922 0.949020 0.050980
0.000000 0.952941 0.062745
0.003922 0.952941 0.066667
0.000000 0.956863 0.074510
0.000000 0.956863 0.086275
0.047059 0.949020 0.074510
0.184314 0.952941 0.074510
0.247059 0.952941 0.078431
0.309804 0.956863 0.078431
0.368627 0.952941 0.074510
0.419608 0.949020 0.070588
0.474510 0.949020 0.066667
0.529412 0.945098 0.066667
0.572549 0.945098 0.066667
0.615686 0.949020 0.062745
0.666667 0.945098 0.066667
0.713725 0.941176 0.062745
0.760784 0.941176 0.066667
0.811765 0.937255 0.070588
0.854902 0.933333 0.074510
0.905882 0.933333 0.082353
0.937255 0.933333 0.090196
0.976471 0.933333 0.094118
1.000000 0.941176 0.105882
0.003922 0.980392 0.086275
0.000000 0.980392 0.082353
0.000000 0.988235 0.086275
0.000000 0.988235 0.094118
0.007843 0.972549 0.090196
0.000000 0.988235 0.113725
0.062745 0.984314 0.094118
0.164706 0.984314 0.105882
0.250980 0.972549 0.101961
0.305882 0.980392 0.101961
0.356863 0.980392 0.098039
0.419608 0.976471 0.098039
0.466667 0.976471 0.105882
0.517647 0.980392 0.109804
0.572549 0.972549 0.094118
0.615686 0.972549 0.090196
0.654902 0.968627 0.094118
0.705882 0.964706 0.086275
0.741176 0.968627 0.098039
0.788235 0.968627 0.094118
0.827451 0.968627 0.098039
0.866667 0.960784 0.098039
0.917647 0.956863 0.101961
0.960784 0.964706 0.117647
0.996078 0.960784 0.117647
0.000000 1.000000 0.098039
0.000000 1.000000 0.098039
0.000000 1.000000 0.113725
0.003922 1.000000 0.121569
0.000000 1.000000 0.129412
0.000000 1.000000 0.133333
0.094118 1.000000 0.137255
0.176471 1.000000 0.133333
0.235294 1.000000 0.121569
0.313725 1.000000 0.133333
0.368627 0.996078 0.125490
0.407843 0.996078 0.125490
0.454902 1.000000 0.129412
0.505882 0.996078 0.117647
0.560784 1.000000 0.121569
0.603922 1.000000 0.113725
0.654902 1.000000 0.113725
0.694118 0.992157 0.117647
0.733333 0.992157 0.113725
0.776471 0.992157 0.109804
0.819608 0.984314 0.105882
0.850980 0.988235 0.109804
0.901961 0.980392 0.113725
0.956863 0.976471 0.125490
0.996078 0.980392 0.121569
0.000000 1.000000 0.121569
0.000000 1.000000 0.125490
0.000000 1.000000 0.137255
0.000000 1.000000 0.152941
0.015686 1.000000 0.149020
0.000000 0.996078 0.149020
0.117647 0.992157 0.164706
0.184314 1.000000 0.156863
0.250980 1.000000 0.145098
0.313725 1.000000 0.149020
0.364706 0.996078 0.152941
0.403922 1.000000 0.160784
0.458824 1.000000 0.145098
0.501961 1.000000 0.141176
0.549020 0.996078 0.133333
0.584314 1.000000 0.129412
0.639216 1.000000 0.133333
0.670588 1.000000 0.129412
0.721569 1.000000 0.133333
0.752941 1.000000 0.129412
0.803922 1.000000 0.141176
0.839216 1.000000 0.133333
0.890196 1.000000 0.129412
0.933333 1.000000 0.145098
0.960784 0.996078 0.152941
0.058824 0.070588 0.098039
0.109804 0.070588 0.113725
0.129412 0.066667 0.109804
0.168627 0.058824 0.105882
0.192157 0.070588 0.094118
0.235294 0.074510 0.105882
0.282353 0.062745 0.105882
0.317647 0.070588 0.101961
0.364706 0.066667 0.105882
0.407843 0.062745 0.109804
0.454902 0.062745 0.101961
0.505882 0.058824 0.098039
0.560784 0.047059 0.101961
0.611765 0.035294 0.098039
0.674510 0.023529 0.101961
0.717647 0.015686 0.101961
0.776471 0.007843 0.101961
0.811765 0.003922 0.094118
0.847059 0.000000 0.090196
0.894118 0.000000 0.098039
0.937255 0.003922 0.098039
0.972549 0.000000 0.094118
0.996078 0.000000 0.101961
1.000000 0.003922 0.105882
0.996078 0.000000 0.094118
0.062745 0.105882 0.090196
0.090196 0.094118 0.101961
0.121569 0.105882 0.101961
0.172549 0.101961 0.101961
0.211765 0.094118 0.101961
0.231373 0.098039 0.094118
0.266667 0.101961 0.109804
0.313725 0.098039 0.109804
0.352941 0.094118 0.101961
0.407843 0.094118 0.105882
0.450980 0.090196 0.101961
0.498039 0.086275 0.101961
0.552941 0.086275 0.101961
0.611765 0.082353 0.105882
0.662745 0.078431 0.101961
0.717647 0.062745 0.094118
0.764706 0.058824 0.101961
0.811765 0.058824 0.101961
0.854902 0.054902 0.098039
0.894118 0.047059 0.098039
0.929412 0.043137 0.090196
0.972549 0.039216 0.098039
1.000000 0.027451 0.090196
0.992157 0.031373 0.090196
1.000000 0.043137 0.090196
0.066667 0.129412 0.090196
0.094118 0.133333 0.101961
0.125490 0.133333 0.113725
0.156863 0.129412 0.105882
0.192157 0.133333 0.113725
0.235294 0.129412 0.101961
0.262745 0.125490 0.109804
0.317647 0.133333 0.109804
0.356863 0.125490 0.101961
0.400000 0.129412 0.101961
0.450980 0.125490 0.101961
0.501961 0.121569 0.098039
0.556863 0.117647 0.101961
0.607843 0.117647 0.101961
0.666667 0.109804 0.101961
0.709804 0.113725 0.109804
0.764706 0.105882 0.094118
0.803922 0.105882 0.098039
0.850980 0.098039 0.086275
0.890196 0.098039 0.098039
0.937255 0.090196 0.094118
0.972549 0.086275 0.094118
1.000000 0.086275 0.098039
1.000000 0.086275 0.090196
1.000000 0.074510 0.094118
0.054902 0.164706 0.105882
0.078431 0.160784 0.101961
0.121569 0.168627 0.121569
0.152941 0.160784 0.105882
0.196078 0.164706 0.113725
0.231373 0.156863 0.101961
0.262745 0.160784 0.101961
0.313725 0.160784 0.101961
0.360784 0.156863 0.105882
0.403922 0.152941 0.105882
0.454902 0.156863 0.105882
0.505882 0.156863 0.101961
0.549020 0.156863 0.098039
0.611765 0.156863 0.098039
0.654902 0.156863 0.098039
0.705882 0.149020 0.094118
0.752941 0.152941 0.098039
0.796078 0.145098 0.090196
0.835294 0.145098 0.086275
0.882353 0.149020 0.090196
0.925490 0.141176 0.090196
0.964706 0.141176 0.090196
1.000000 0.133333 0.090196
1.000000 0.137255 0.082353
0.996078 0.125490 0.082353
0.054902 0.192157 0.113725
0.086275 0.196078 0.105882
0.113725 0.203922 0.094118
0.156863 0.192157 0.109804
0.184314 0.192157 0.098039
0.223529 0.200000 0.105882
0.266667 0.196078 0.101961
0.305882 0.203922 0.113725
0.349020 0.200000 0.109804
0.407843 0.196078 0.101961
0.439216 0.203922 0.094118
0.509804 0.196078 0.098039
0.556863 0.203922 0.101961
0.607843 0.200000 0.101961
0.654902 0.200000 0.101961
0.705882 0.196078 0.101961
0.749020 0.200000 0.101961
0.796078 0.192157 0.098039
0.835294 0.192157 0.094118
0.878431 0.188235 0.098039
0.913725 0.184314 0.086275
0.952941 0.184314 0.082353
0.996078 0.180392 0.078431
1.000000 0.172549 0.078431
1.000000 0.168627 0.082353
0.027451 0.247059 0.101961
0.058824 0.239216 0.094118
0.105882 0.247059 0.105882
0.149020 0.243137 0.109804
0.184314 0.239216 0.098039
0.227451 0.243137 0.105882
0.270588 0.247059 0.105882
0.313725 0.243137 0.101961
0.360784 0.243137 0.109804
0.407843 0.239216 0.105882
0.458824 0.239216 0.101961
0.509804 0.243137 0.098039
0.560784 0.250980 0.098039
0.611765 0.250980 0.098039
0.670588 0.254902 0.098039
0.717647 0.250980 0.094118
0.756863 0.250980 0.094118
0.803922 0.247059 0.090196
0.847059 0.247059 0.086275
0.894118 0.235294 0.090196
0.945098 0.231373 0.086275
0.980392 0.239216 0.090196
1.000000 0.235294 0.086275
0.996078 0.235294 0.086275
1.000000 0.227451 0.094118
0.007843 0.278431 0.101961
0.054902 0.286275 0.105882
0.101961 0.290196 0.101961
0.137255 0.282353 0.109804
0.180392 0.282353 0.098039
0.227451 0.290196 0.105882
0.274510 0.286275 0.109804
0.313725 0.290196 0.101961
0.356863 0.286275 0.098039
0.407843 0.290196 0.094118
0.454902 0.290196 0.094118
0.513725 0.294118 0.101961
0.560784 0.294118 0.101961
0.619608 0.294118 0.098039
0.674510 0.290196 0.098039
0.717647 0.298039 0.086275
0.764706 0.294118 0.090196
0.807843 0.294118 0.090196
0.843137 0.290196 0.082353
0.890196 0.286275 0.090196
0.929412 0.286275 0.086275
0.972549 0.282353 0.086275
1.000000 0.282353 0.086275
1.000000 0.274510 0.090196
0.992157 0.278431 0.094118
0.003922 0.321569 0.090196
0.015686 0.325490 0.101961
0.058824 0.325490 0.101961
0.125490 0.325490 0.094118
0.184314 0.325490 0.086275
0.215686 0.329412 0.101961
0.270588 0.329412 0.098039
0.317647 0.333333 0.101961
0.356863 0.333333 0.098039
0.411765 0.333333 0.101961
0.466667 0.333333 0.094118
0.509804 0.337255 0.090196
0.560784 0.345098 0.094118
0.615686 0.345098 0.090196
0.658824 0.345098 0.098039
0.709804 0.341176 0.090196
0.752941 0.341176 0.086275
0.803922 0.337255 0.078431
0.843137 0.337255 0.082353
0.890196 0.333333 0.074510
0.925490 0.329412 0.074510
0.968627 0.325490 0.078431
0.988235 0.321569 0.078431
1.000000 0.317647 0.070588
1.000000 0.321569 0.082353
0.000000 0.380392 0.094118
0.003922 0.388235 0.101961
0.023529 0.376471 0.101961
0.101961 0.384314 0.086275
0.168627 0.380392 0.086275
0.215686 0.380392 0.090196
0.266667 0.384314 0.094118
0.305882 0.388235 0.086275
0.352941 0.384314 0.082353
0.411765 0.388235 0.090196
0.454902 0.384314 0.086275
0.509804 0.388235 0.074510
0.564706 0.384314 0.078431
0.607843 0.392157 0.078431
0.654902 0.392157 0.086275
0.705882 0.388235 0.078431
0.752941 0.388235 0.082353
0.796078 0.380392 0.082353
0.839216 0.380392 0.078431
0.886275 0.368627 0.078431
0.925490 0.368627 0.078431
0.960784 0.372549 0.070588
1.000000 0.364706 0.070588
0.988235 0.368627 0.078431
1.000000 0.368627 0.074510
0.000000 0.431373 0.086275
0.000000 0.431373 0.082353
0.000000 0.439216 0.086275
0.062745 0.435294 0.074510
0.145098 0.435294 0.086275
0.203922 0.435294 0.082353
0.258824 0.443137 0.074510
0.298039 0.435294 0.066667
0.364706 0.439216 0.078431
0.415686 0.435294 0.074510
0.458824 0.431373 0.074510
0.505882 0.439216 0.078431
0.564706 0.435294 0.062745
0.607843 0.435294 0.062745
0.662745 0.431373 0.062745
0.705882 0.435294 0.062745
0.756863 0.431373 0.070588
0.792157 0.423529 0.070588
0.835294 0.423529 0.066667
0.870588 0.419608 0.070588
0.917647 0.415686 0.058824
0.952941 0.411765 0.062745
0.992157 0.411765 0.058824
1.000000 0.407843 0.058824
1.000000 0.400000 0.062745
0.003922 0.498039 0.066667
0.000000 0.513725 0.054902
0.000000 0.513725 0.054902
0.000000 0.513725 0.047059
0.125490 0.505882 0.062745
0.200000 0.509804 0.058824
0.254902 0.509804 0.054902
0.321569 0.513725 0.062745
0.360784 0.509804 0.043137
0.415686 0.505882 0.047059
0.474510 0.501961 0.047059
