loleis/其他/lut20种/Sports LUT #18.cube
TITLE "Sports LUT #18"
#LUT size
LUT_3D_SIZE 5
#LUT data points
0.000000 0.000000 0.000000
0.376471 0.023529 0.000000
0.650980 0.035294 0.000000
0.839216 0.070588 0.023529
1.000000 0.086275 0.050980
0.000000 0.384314 0.000000
0.352941 0.372549 0.003922
0.631373 0.333333 0.003922
0.823529 0.301961 0.047059
1.000000 0.278431 0.082353
0.000000 0.619608 0.003922
0.278431 0.619608 0.003922
0.592157 0.607843 0.000000
0.800000 0.545098 0.050980
1.000000 0.525490 0.113725
0.000000 0.788235 0.066667
0.243137 0.792157 0.066667
0.513725 0.780392 0.054902
0.768627 0.768627 0.047059
1.000000 0.768627 0.015686
0.000000 0.996078 0.000000
0.215686 1.000000 0.000000
0.494118 1.000000 0.000000
0.752941 1.000000 0.000000
0.996078 1.000000 0.000000
0.000000 0.000000 0.372549
0.356863 0.000000 0.376471
0.643137 0.035294 0.333333
0.819608 0.176471 0.321569
0.992157 0.168627 0.305882
0.003922 0.380392 0.364706
0.337255 0.372549 0.368627
0.623529 0.356863 0.352941
0.811765 0.325490 0.325490
1.000000 0.305882 0.305882
0.000000 0.619608 0.290196
0.254902 0.615686 0.290196
0.588235 0.600000 0.282353
0.788235 0.545098 0.321569
0.996078 0.529412 0.301961
0.000000 0.776471 0.286275
0.247059 0.784314 0.274510
0.505882 0.780392 0.262745
0.772549 0.776471 0.274510
0.996078 0.768627 0.243137
0.000000 1.000000 0.223529
0.176471 1.000000 0.215686
0.482353 1.000000 0.215686
0.752941 1.000000 0.211765
0.992157 0.996078 0.203922
0.000000 0.011765 0.611765
0.262745 0.000000 0.607843
0.607843 0.000000 0.611765
0.815686 0.133333 0.568627
0.996078 0.203922 0.525490
0.000000 0.305882 0.607843
0.250980 0.305882 0.600000
0.596078 0.294118 0.607843
0.800000 0.341176 0.556863
1.000000 0.349020 0.545098
0.000000 0.596078 0.607843
0.254902 0.603922 0.596078
0.572549 0.588235 0.592157
0.768627 0.580392 0.580392
0.996078 0.549020 0.545098
0.000000 0.780392 0.525490
0.243137 0.788235 0.525490
0.505882 0.784314 0.517647
0.768627 0.772549 0.513725
1.000000 0.768627 0.521569
0.000000 1.000000 0.454902
0.000000 1.000000 0.450980
0.431373 1.000000 0.447059
0.737255 1.000000 0.443137
0.992157 1.000000 0.439216
0.000000 0.050980 0.772549
0.215686 0.058824 0.780392
0.509804 0.062745 0.780392
0.776471 0.082353 0.784314
1.000000 0.125490 0.776471
0.000000 0.278431 0.780392
0.223529 0.274510 0.776471
0.513725 0.274510 0.780392
0.772549 0.274510 0.780392
1.000000 0.294118 0.768627
0.000000 0.521569 0.776471
0.247059 0.525490 0.784314
0.505882 0.525490 0.784314
0.776471 0.513725 0.776471
1.000000 0.509804 0.768627
0.000000 0.776471 0.776471
0.176471 0.772549 0.776471
0.458824 0.780392 0.772549
0.752941 0.768627 0.764706
0.996078 0.756863 0.745098
0.000000 1.000000 0.725490
0.000000 1.000000 0.721569
0.294118 1.000000 0.701961
0.698039 1.000000 0.705882
1.000000 0.996078 0.701961
0.000000 0.050980 1.000000
0.223529 0.050980 1.000000
0.482353 0.047059 0.996078
0.756863 0.027451 0.996078
1.000000 0.003922 1.000000
0.007843 0.262745 0.992157
0.207843 0.266667 1.000000
0.490196 0.258824 0.996078
0.756863 0.250980 0.992157
1.000000 0.215686 1.000000
0.000000 0.494118 0.992157
0.086275 0.482353 1.000000
0.478431 0.478431 1.000000
0.745098 0.470588 1.000000
1.000000 0.450980 1.000000
0.000000 0.737255 0.996078
0.003922 0.737255 1.000000
0.364706 0.725490 1.000000
0.698039 0.705882 0.996078
0.996078 0.705882 1.000000
0.003922 1.000000 1.000000
0.003922 1.000000 1.000000
0.290196 0.996078 0.992157
0.709804 1.000000 1.000000
1.000000 1.000000 1.000000
