loleis/其他/lut20种/Sports LUT #8.cube
TITLE "Sports LUT #8"
#LUT size
LUT_3D_SIZE 9
#LUT data points
0.000000 0.000000 0.007843
0.094118 0.019608 0.003922
0.211765 0.062745 0.019608
0.325490 0.094118 0.023529
0.454902 0.145098 0.027451
0.611765 0.203922 0.050980
0.764706 0.262745 0.078431
0.901961 0.313725 0.117647
0.996078 0.368627 0.172549
0.015686 0.117647 0.003922
0.113725 0.129412 0.023529
0.223529 0.141176 0.019608
0.341176 0.168627 0.031373
0.458824 0.203922 0.054902
0.607843 0.243137 0.070588
0.756863 0.298039 0.086275
0.886275 0.341176 0.117647
0.996078 0.392157 0.180392
0.023529 0.262745 0.027451
0.137255 0.250980 0.031373
0.243137 0.274510 0.039216
0.364706 0.282353 0.058824
0.494118 0.317647 0.094118
0.639216 0.341176 0.098039
0.780392 0.384314 0.109804
0.905882 0.415686 0.152941
1.000000 0.450980 0.207843
0.070588 0.400000 0.066667
0.149020 0.407843 0.062745
0.274510 0.415686 0.070588
0.392157 0.423529 0.086275
0.525490 0.439216 0.101961
0.654902 0.454902 0.129412
0.780392 0.482353 0.152941
0.901961 0.505882 0.192157
0.996078 0.533333 0.243137
0.125490 0.580392 0.082353
0.188235 0.588235 0.098039
0.309804 0.584314 0.098039
0.431373 0.596078 0.109804
0.568627 0.600000 0.125490
0.698039 0.600000 0.137255
0.811765 0.603922 0.196078
0.917647 0.615686 0.254902
1.000000 0.643137 0.333333
0.203922 0.745098 0.168627
0.247059 0.745098 0.160784
0.345098 0.745098 0.172549
0.462745 0.745098 0.180392
0.596078 0.741176 0.192157
0.717647 0.741176 0.215686
0.831373 0.733333 0.239216
0.933333 0.729412 0.301961
0.996078 0.752941 0.419608
0.286275 0.847059 0.258824
0.313725 0.850980 0.262745
0.403922 0.843137 0.270588
0.498039 0.847059 0.282353
0.600000 0.847059 0.298039
0.717647 0.843137 0.313725
0.835294 0.839216 0.341176
0.929412 0.839216 0.400000
1.000000 0.839216 0.478431
0.454902 0.941176 0.431373
0.482353 0.949020 0.447059
0.529412 0.945098 0.466667
0.596078 0.949020 0.466667
0.666667 0.941176 0.486275
0.752941 0.941176 0.509804
0.850980 0.941176 0.525490
0.941176 0.941176 0.564706
1.000000 0.933333 0.611765
0.635294 1.000000 0.635294
0.662745 1.000000 0.650980
0.686275 0.996078 0.635294
0.713725 1.000000 0.662745
0.768627 1.000000 0.658824
0.831373 1.000000 0.686275
0.898039 1.000000 0.701961
0.964706 1.000000 0.733333
1.000000 1.000000 0.764706
0.007843 0.003922 0.074510
0.098039 0.015686 0.090196
0.219608 0.031373 0.094118
0.337255 0.101961 0.109804
0.447059 0.156863 0.113725
0.603922 0.207843 0.137255
0.756863 0.266667 0.149020
0.890196 0.309804 0.160784
1.000000 0.368627 0.215686
0.015686 0.121569 0.094118
0.121569 0.125490 0.105882
0.215686 0.141176 0.113725
0.329412 0.176471 0.117647
0.462745 0.207843 0.137255
0.600000 0.250980 0.133333
0.752941 0.298039 0.152941
0.886275 0.341176 0.172549
0.996078 0.400000 0.215686
0.035294 0.254902 0.101961
0.145098 0.262745 0.113725
0.243137 0.266667 0.117647
0.360784 0.282353 0.137255
0.486275 0.309804 0.156863
0.627451 0.345098 0.156863
0.772549 0.376471 0.172549
0.898039 0.415686 0.192157
1.000000 0.447059 0.250980
0.058824 0.396078 0.117647
0.152941 0.396078 0.133333
0.262745 0.407843 0.133333
0.384314 0.411765 0.137255
0.521569 0.431373 0.156863
0.647059 0.454902 0.184314
0.780392 0.478431 0.203922
0.905882 0.509804 0.227451
1.000000 0.541176 0.278431
0.094118 0.572549 0.137255
0.172549 0.572549 0.141176
0.290196 0.576471 0.152941
0.423529 0.588235 0.156863
0.568627 0.592157 0.176471
0.686275 0.588235 0.184314
0.807843 0.600000 0.239216
0.917647 0.611765 0.286275
1.000000 0.635294 0.345098
0.172549 0.729412 0.188235
0.235294 0.733333 0.188235
0.333333 0.733333 0.200000
0.454902 0.737255 0.211765
0.588235 0.729412 0.235294
0.713725 0.733333 0.239216
0.827451 0.729412 0.266667
0.925490 0.733333 0.329412
1.000000 0.749020 0.419608
0.278431 0.839216 0.274510
0.317647 0.839216 0.278431
0.388235 0.835294 0.290196
0.482353 0.839216 0.294118
0.600000 0.835294 0.309804
0.709804 0.835294 0.337255
0.839216 0.843137 0.372549
0.933333 0.827451 0.407843
1.000000 0.843137 0.501961
0.454902 0.937255 0.447059
0.478431 0.941176 0.470588
0.525490 0.937255 0.474510
0.588235 0.937255 0.474510
0.662745 0.937255 0.498039
0.745098 0.937255 0.509804
0.847059 0.933333 0.537255
0.937255 0.937255 0.560784
1.000000 0.933333 0.619608
0.635294 1.000000 0.635294
0.647059 1.000000 0.631373
0.682353 0.992157 0.635294
0.709804 1.000000 0.650980
0.764706 0.996078 0.666667
0.835294 0.996078 0.686275
0.898039 1.000000 0.709804
0.972549 1.000000 0.737255
1.000000 0.996078 0.764706
0.003922 0.011765 0.172549
0.090196 0.019608 0.176471
0.211765 0.027451 0.192157
0.337255 0.054902 0.203922
0.474510 0.101961 0.196078
0.631373 0.184314 0.215686
0.760784 0.262745 0.239216
0.890196 0.313725 0.250980
1.000000 0.368627 0.294118
0.011765 0.125490 0.196078
0.109804 0.121569 0.196078
0.227451 0.129412 0.211765
0.349020 0.152941 0.200000
0.474510 0.188235 0.215686
0.615686 0.247059 0.239216
0.756863 0.294118 0.239216
0.898039 0.345098 0.266667
0.996078 0.392157 0.282353
0.015686 0.254902 0.223529
0.125490 0.254902 0.227451
0.243137 0.266667 0.219608
0.356863 0.286275 0.231373
0.494118 0.309804 0.239216
0.643137 0.345098 0.250980
0.768627 0.376471 0.250980
0.901961 0.415686 0.282353
1.000000 0.458824 0.313725
0.000000 0.400000 0.215686
0.133333 0.396078 0.223529
0.258824 0.407843 0.223529
0.392157 0.415686 0.227451
0.517647 0.431373 0.247059
0.643137 0.454902 0.262745
0.784314 0.482353 0.278431
0.901961 0.509804 0.305882
1.000000 0.537255 0.341176
0.043137 0.564706 0.239216
0.149020 0.572549 0.235294
0.286275 0.580392 0.247059
0.427451 0.584314 0.247059
0.568627 0.592157 0.254902
0.690196 0.592157 0.262745
0.803922 0.600000 0.305882
0.909804 0.615686 0.349020
1.000000 0.639216 0.400000
0.152941 0.737255 0.282353
0.227451 0.725490 0.274510
0.333333 0.725490 0.270588
0.450980 0.733333 0.294118
0.584314 0.733333 0.298039
0.705882 0.737255 0.309804
0.823529 0.725490 0.333333
0.925490 0.729412 0.396078
1.000000 0.749020 0.482353
0.266667 0.835294 0.329412
0.313725 0.831373 0.352941
0.396078 0.831373 0.356863
0.486275 0.835294 0.364706
0.596078 0.835294 0.368627
0.709804 0.839216 0.396078
0.835294 0.839216 0.431373
0.929412 0.839216 0.470588
0.992157 0.847059 0.541176
0.466667 0.941176 0.490196
0.478431 0.933333 0.498039
0.521569 0.937255 0.505882
0.592157 0.937255 0.505882
0.658824 0.937255 0.529412
0.749020 0.929412 0.541176
0.839216 0.933333 0.564706
0.941176 0.933333 0.592157
1.000000 0.929412 0.639216
0.635294 1.000000 0.643137
0.650980 0.996078 0.654902
0.674510 0.996078 0.662745
0.713725 0.996078 0.674510
0.764706 0.996078 0.674510
0.827451 1.000000 0.698039
0.901961 1.000000 0.725490
0.968627 1.000000 0.756863
1.000000 0.996078 0.780392
0.007843 0.011765 0.274510
0.101961 0.011765 0.286275
0.219608 0.023529 0.301961
0.345098 0.043137 0.309804
0.482353 0.082353 0.329412
0.635294 0.105882 0.325490
0.784314 0.133333 0.313725
0.921569 0.247059 0.333333
0.992157 0.380392 0.392157
0.000000 0.113725 0.298039
0.101961 0.117647 0.305882
0.223529 0.121569 0.309804
0.352941 0.133333 0.317647
0.486275 0.160784 0.325490
0.635294 0.180392 0.325490
0.772549 0.207843 0.305882
0.901961 0.325490 0.349020
1.000000 0.396078 0.388235
0.000000 0.250980 0.313725
0.105882 0.250980 0.325490
0.235294 0.262745 0.337255
0.376471 0.270588 0.337255
0.501961 0.294118 0.333333
0.647059 0.309804 0.321569
0.768627 0.380392 0.356863
0.898039 0.411765 0.372549
0.996078 0.458824 0.419608
0.003922 0.400000 0.345098
0.105882 0.407843 0.345098
0.250980 0.411765 0.349020
0.388235 0.415686 0.352941
0.513725 0.431373 0.356863
0.654902 0.458824 0.360784
0.784314 0.482353 0.380392
0.901961 0.513725 0.400000
0.996078 0.552941 0.435294
0.007843 0.568627 0.356863
0.047059 0.576471 0.356863
0.266667 0.584314 0.352941
0.423529 0.584314 0.356863
0.568627 0.588235 0.360784
0.694118 0.596078 0.376471
0.796078 0.607843 0.419608
0.909804 0.619608 0.435294
1.000000 0.658824 0.490196
0.133333 0.733333 0.380392
0.207843 0.733333 0.392157
0.325490 0.733333 0.392157
0.447059 0.729412 0.392157
0.592157 0.729412 0.407843
0.709804 0.741176 0.415686
0.835294 0.725490 0.435294
0.913725 0.741176 0.494118
1.000000 0.760784 0.560784
0.282353 0.839216 0.439216
0.333333 0.839216 0.447059
0.400000 0.839216 0.447059
0.501961 0.839216 0.458824
0.603922 0.839216 0.462745
0.717647 0.839216 0.474510
0.831373 0.839216 0.509804
0.929412 0.839216 0.541176
1.000000 0.850980 0.596078
0.470588 0.945098 0.541176
0.490196 0.945098 0.564706
0.533333 0.941176 0.568627
0.596078 0.937255 0.568627
0.662745 0.933333 0.576471
0.756863 0.937255 0.592157
0.847059 0.933333 0.600000
0.929412 0.941176 0.639216
0.992157 0.933333 0.670588
0.650980 1.000000 0.686275
0.654902 0.996078 0.690196
0.674510 1.000000 0.694118
0.713725 0.996078 0.698039
0.772549 1.000000 0.709804
0.827451 0.996078 0.717647
0.898039 1.000000 0.745098
0.972549 1.000000 0.772549
1.000000 1.000000 0.803922
0.000000 0.015686 0.396078
0.101961 0.015686 0.407843
0.219608 0.023529 0.411765
0.349020 0.031373 0.431373
0.482353 0.058824 0.447059
0.639216 0.086275 0.462745
0.788235 0.121569 0.458824
0.921569 0.180392 0.447059
1.000000 0.274510 0.447059
0.000000 0.101961 0.403922
0.113725 0.109804 0.423529
0.223529 0.117647 0.427451
0.352941 0.129412 0.431373
0.498039 0.141176 0.450980
0.643137 0.164706 0.458824
0.784314 0.192157 0.454902
0.913725 0.235294 0.443137
0.996078 0.305882 0.458824
0.000000 0.239216 0.439216
0.086275 0.239216 0.454902
0.227451 0.250980 0.454902
0.372549 0.254902 0.458824
0.517647 0.266667 0.470588
0.662745 0.286275 0.466667
0.788235 0.309804 0.454902
0.913725 0.349020 0.447059
1.000000 0.435294 0.486275
0.000000 0.392157 0.462745
0.062745 0.396078 0.474510
0.235294 0.396078 0.466667
0.380392 0.400000 0.474510
0.537255 0.411765 0.470588
0.670588 0.427451 0.470588
0.788235 0.466667 0.474510
0.890196 0.521569 0.521569
0.992157 0.564706 0.545098
0.000000 0.568627 0.501961
0.015686 0.588235 0.513725
0.239216 0.584314 0.498039
0.407843 0.576471 0.498039
0.564706 0.584314 0.498039
0.678431 0.596078 0.513725
0.796078 0.611765 0.533333
0.898039 0.639216 0.552941
0.992157 0.658824 0.576471
0.133333 0.733333 0.513725
0.211765 0.733333 0.517647
0.321569 0.733333 0.513725
0.454902 0.729412 0.525490
0.588235 0.733333 0.533333
0.717647 0.733333 0.533333
0.819608 0.729412 0.556863
0.909804 0.745098 0.588235
1.000000 0.768627 0.643137
0.317647 0.831373 0.556863
0.349020 0.835294 0.549020
0.415686 0.835294 0.552941
0.501961 0.839216 0.560784
0.603922 0.839216 0.564706
0.717647 0.839216 0.572549
0.831373 0.839216 0.592157
0.933333 0.835294 0.611765
0.996078 0.854902 0.666667
0.470588 0.929412 0.619608
0.498039 0.941176 0.635294
0.529412 0.937255 0.635294
0.592157 0.937255 0.631373
0.674510 0.941176 0.654902
0.756863 0.937255 0.654902
0.835294 0.937255 0.658824
0.937255 0.929412 0.690196
0.996078 0.937255 0.713725
0.635294 1.000000 0.713725
0.639216 1.000000 0.729412
0.674510 1.000000 0.725490
0.701961 1.000000 0.737255
0.756863 1.000000 0.745098
0.819608 1.000000 0.749020
0.898039 0.996078 0.772549
0.968627 0.996078 0.792157
1.000000 1.000000 0.819608
0.000000 0.015686 0.525490
0.101961 0.011765 0.537255
0.231373 0.011765 0.541176
0.356863 0.011765 0.556863
0.498039 0.023529 0.576471
0.643137 0.023529 0.596078
0.788235 0.086275 0.580392
0.917647 0.168627 0.584314
1.000000 0.258824 0.580392
0.000000 0.101961 0.533333
0.101961 0.109804 0.552941
0.227451 0.109804 0.549020
0.360784 0.113725 0.560784
0.490196 0.125490 0.576471
0.647059 0.133333 0.588235
0.796078 0.168627 0.592157
0.913725 0.227451 0.584314
1.000000 0.305882 0.596078
0.000000 0.235294 0.560784
0.023529 0.235294 0.572549
0.219608 0.235294 0.584314
0.368627 0.239216 0.588235
0.513725 0.247059 0.588235
0.674510 0.262745 0.596078
0.800000 0.298039 0.600000
0.921569 0.337255 0.588235
1.000000 0.411765 0.600000
0.000000 0.380392 0.576471
0.000000 0.388235 0.592157
0.196078 0.380392 0.600000
0.364706 0.384314 0.603922
0.533333 0.396078 0.607843
0.682353 0.407843 0.619608
0.803922 0.443137 0.603922
0.913725 0.486275 0.607843
1.000000 0.529412 0.619608
0.000000 0.556863 0.611765
0.000000 0.552941 0.615686
0.211765 0.560784 0.623529
0.380392 0.560784 0.619608
0.552941 0.564706 0.623529
0.686275 0.576471 0.623529
0.796078 0.603922 0.627451
0.905882 0.627451 0.643137
0.988235 0.674510 0.670588
0.117647 0.729412 0.647059
0.200000 0.721569 0.639216
0.313725 0.737255 0.643137
0.454902 0.725490 0.650980
0.576471 0.721569 0.650980
0.709804 0.721569 0.647059
0.800000 0.729412 0.674510
0.898039 0.749020 0.674510
0.996078 0.764706 0.694118
0.325490 0.835294 0.647059
0.352941 0.835294 0.654902
0.415686 0.831373 0.650980
0.505882 0.831373 0.658824
0.607843 0.839216 0.666667
0.713725 0.835294 0.670588
0.827451 0.835294 0.682353
0.929412 0.843137 0.690196
1.000000 0.850980 0.729412
0.490196 0.929412 0.701961
0.509804 0.933333 0.698039
0.545098 0.933333 0.709804
0.592157 0.933333 0.717647
0.666667 0.929412 0.717647
0.745098 0.937255 0.721569
0.847059 0.937255 0.733333
0.929412 0.937255 0.745098
1.000000 0.945098 0.768627
0.654902 1.000000 0.792157
0.662745 0.996078 0.780392
0.674510 1.000000 0.780392
0.698039 1.000000 0.788235
0.745098 1.000000 0.780392
0.815686 1.000000 0.796078
0.898039 1.000000 0.815686
0.968627 0.996078 0.835294
0.996078 0.996078 0.847059
0.000000 0.000000 0.698039
0.098039 0.000000 0.701961
0.247059 0.000000 0.694118
0.368627 0.003922 0.698039
0.509804 0.003922 0.713725
0.643137 0.000000 0.717647
0.796078 0.011765 0.733333
0.933333 0.141176 0.721569
1.000000 0.254902 0.709804
0.003922 0.098039 0.694118
0.074510 0.105882 0.682353
0.231373 0.101961 0.701961
0.376471 0.105882 0.705882
0.498039 0.109804 0.717647
0.658824 0.117647 0.725490
0.800000 0.129412 0.733333
0.925490 0.203922 0.713725
0.996078 0.301961 0.717647
0.000000 0.227451 0.709804
0.000000 0.223529 0.729412
0.215686 0.231373 0.721569
0.368627 0.227451 0.713725
0.509804 0.243137 0.725490
0.650980 0.250980 0.741176
0.811765 0.262745 0.741176
0.921569 0.325490 0.717647
1.000000 0.403922 0.717647
0.007843 0.364706 0.713725
0.007843 0.364706 0.721569
0.156863 0.364706 0.725490
0.352941 0.380392 0.733333
0.517647 0.380392 0.741176
0.666667 0.396078 0.745098
0.819608 0.419608 0.745098
0.917647 0.474510 0.733333
1.000000 0.521569 0.733333
0.003922 0.537255 0.741176
0.000000 0.541176 0.733333
0.168627 0.537255 0.737255
0.356863 0.541176 0.745098
0.525490 0.549020 0.745098
0.670588 0.560784 0.752941
0.811765 0.584314 0.745098
0.913725 0.611765 0.745098
1.000000 0.639216 0.752941
0.090196 0.709804 0.756863
0.176471 0.709804 0.756863
0.290196 0.709804 0.749020
0.423529 0.713725 0.764706
0.560784 0.709804 0.760784
0.682353 0.713725 0.764706
0.815686 0.725490 0.764706
0.905882 0.737255 0.764706
0.996078 0.756863 0.776471
0.333333 0.839216 0.768627
0.360784 0.839216 0.780392
0.419608 0.839216 0.768627
0.509804 0.843137 0.768627
0.611765 0.835294 0.776471
0.717647 0.839216 0.780392
0.819608 0.835294 0.780392
0.901961 0.847059 0.796078
1.000000 0.862745 0.815686
0.490196 0.929412 0.772549
0.513725 0.929412 0.788235
0.545098 0.925490 0.788235
0.596078 0.925490 0.784314
0.674510 0.929412 0.796078
0.749020 0.933333 0.807843
0.835294 0.933333 0.807843
0.933333 0.937255 0.815686
0.988235 0.945098 0.835294
0.662745 1.000000 0.847059
0.670588 0.992157 0.835294
0.682353 1.000000 0.839216
0.725490 1.000000 0.854902
0.760784 1.000000 0.850980
0.811765 1.000000 0.850980
0.890196 0.996078 0.866667
0.964706 1.000000 0.886275
1.000000 1.000000 0.901961
0.000000 0.003922 0.835294
0.062745 0.007843 0.835294
0.243137 0.000000 0.839216
0.368627 0.000000 0.843137
0.509804 0.000000 0.843137
0.650980 0.011765 0.854902
0.792157 0.062745 0.866667
0.941176 0.121569 0.862745
0.992157 0.247059 0.835294
0.000000 0.090196 0.835294
0.031373 0.090196 0.839216
0.231373 0.094118 0.839216
0.372549 0.101961 0.843137
0.517647 0.105882 0.847059
0.650980 0.121569 0.858824
0.792157 0.149020 0.862745
0.945098 0.192157 0.874510
0.992157 0.294118 0.843137
0.007843 0.219608 0.839216
0.003922 0.219608 0.850980
0.192157 0.227451 0.843137
0.360784 0.227451 0.843137
0.498039 0.243137 0.854902
0.647059 0.250980 0.862745
0.796078 0.278431 0.858824
0.937255 0.313725 0.870588
0.992157 0.392157 0.847059
0.000000 0.349020 0.850980
0.000000 0.356863 0.866667
0.125490 0.356863 0.850980
0.341176 0.360784 0.854902
0.498039 0.372549 0.854902
0.647059 0.392157 0.862745
0.796078 0.415686 0.866667
0.941176 0.447059 0.866667
1.000000 0.513725 0.843137
0.000000 0.521569 0.862745
0.003922 0.517647 0.870588
0.082353 0.513725 0.847059
0.325490 0.521569 0.862745
0.505882 0.529412 0.858824
0.647059 0.549020 0.866667
0.800000 0.572549 0.874510
0.937255 0.596078 0.874510
1.000000 0.639216 0.847059
0.000000 0.690196 0.874510
0.129412 0.690196 0.862745
0.266667 0.690196 0.874510
0.400000 0.690196 0.866667
0.533333 0.694118 0.874510
0.662745 0.694118 0.874510
0.807843 0.709804 0.874510
0.929412 0.725490 0.878431
0.996078 0.745098 0.878431
0.329412 0.827451 0.886275
0.352941 0.831373 0.874510
0.411765 0.835294 0.882353
0.494118 0.835294 0.874510
0.603922 0.831373 0.878431
0.701961 0.827451 0.878431
0.815686 0.827451 0.886275
0.917647 0.839216 0.882353
1.000000 0.847059 0.882353
0.490196 0.941176 0.890196
0.490196 0.941176 0.882353
0.529412 0.941176 0.886275
0.596078 0.937255 0.874510
0.670588 0.937255 0.894118
0.752941 0.933333 0.890196
0.843137 0.933333 0.901961
0.929412 0.933333 0.909804
0.996078 0.941176 0.929412
0.666667 1.000000 0.909804
0.666667 1.000000 0.905882
0.690196 0.996078 0.901961
0.725490 1.000000 0.905882
0.768627 1.000000 0.921569
0.831373 1.000000 0.925490
0.894118 1.000000 0.933333
0.956863 1.000000 0.937255
0.996078 0.996078 0.949020
0.003922 0.000000 0.964706
0.019608 0.003922 0.956863
0.223529 0.003922 0.964706
0.368627 0.015686 0.976471
0.509804 0.047059 0.972549
0.639216 0.094118 0.976471
0.780392 0.141176 0.968627
0.913725 0.207843 0.976471
1.000000 0.290196 0.988235
0.000000 0.109804 0.964706
0.000000 0.109804 0.980392
0.211765 0.117647 0.972549
0.360784 0.121569 0.972549
0.501961 0.137255 0.980392
0.643137 0.156863 0.972549
0.776471 0.203922 0.976471
0.917647 0.258824 0.980392
1.000000 0.329412 0.980392
0.000000 0.231373 0.960784
0.003922 0.227451 0.976471
0.172549 0.231373 0.972549
0.349020 0.235294 0.972549
0.486275 0.250980 0.972549
0.643137 0.270588 0.976471
0.772549 0.305882 0.972549
0.917647 0.352941 0.980392
1.000000 0.407843 0.980392
0.000000 0.352941 0.976471
0.000000 0.352941 0.964706
0.070588 0.356863 0.964706
0.309804 0.360784 0.972549
0.490196 0.376471 0.972549
0.627451 0.400000 0.972549
0.772549 0.435294 0.972549
0.913725 0.474510 0.976471
1.000000 0.513725 0.976471
0.000000 0.494118 0.968627
0.000000 0.494118 0.968627
0.007843 0.498039 0.960784
0.294118 0.505882 0.984314
0.474510 0.517647 0.968627
0.631373 0.545098 0.980392
0.772549 0.564706 0.972549
0.909804 0.596078 0.976471
1.000000 0.623529 0.976471
0.000000 0.666667 0.972549
0.000000 0.670588 0.972549
0.192157 0.658824 0.972549
0.337255 0.662745 0.976471
0.490196 0.670588 0.976471
0.643137 0.678431 0.980392
0.776471 0.698039 0.976471
0.913725 0.721569 0.980392
1.000000 0.737255 0.968627
0.337255 0.819608 0.980392
0.356863 0.819608 0.976471
0.403922 0.819608 0.972549
0.486275 0.811765 0.976471
0.572549 0.811765 0.984314
0.674510 0.811765 0.976471
0.796078 0.815686 0.980392
0.909804 0.831373 0.976471
1.000000 0.835294 0.976471
0.529412 0.937255 0.980392
0.529412 0.933333 0.968627
0.552941 0.929412 0.992157
0.607843 0.929412 0.976471
0.674510 0.933333 0.988235
0.745098 0.925490 0.984314
0.827451 0.929412 0.980392
0.921569 0.937255 0.984314
1.000000 0.945098 0.972549
0.678431 1.000000 0.976471
0.682353 1.000000 0.976471
0.705882 1.000000 0.984314
0.741176 1.000000 0.984314
0.780392 1.000000 0.988235
0.835294 1.000000 0.984314
0.905882 1.000000 0.992157
0.964706 1.000000 0.996078
1.000000 1.000000 1.000000
