loleis/其他/lut20种/Sports LUT #9.cube
TITLE "Sports LUT #9"
#LUT size
LUT_3D_SIZE 5
#LUT data points
0.000000 0.000000 0.000000
0.266667 0.000000 0.003922
0.549020 0.000000 0.000000
0.854902 0.000000 0.003922
0.996078 0.000000 0.000000
0.003922 0.266667 0.003922
0.278431 0.266667 0.003922
0.560784 0.266667 0.000000
0.854902 0.258824 0.000000
1.000000 0.235294 0.007843
0.003922 0.564706 0.007843
0.274510 0.568627 0.000000
0.576471 0.568627 0.000000
0.858824 0.545098 0.000000
0.992157 0.529412 0.003922
0.000000 0.835294 0.003922
0.207843 0.835294 0.003922
0.549020 0.823529 0.000000
0.823529 0.815686 0.000000
1.000000 0.792157 0.000000
0.007843 0.992157 0.000000
0.090196 1.000000 0.000000
0.478431 1.000000 0.000000
0.752941 1.000000 0.000000
0.996078 1.000000 0.003922
0.000000 0.000000 0.262745
0.274510 0.000000 0.274510
0.564706 0.000000 0.270588
0.858824 0.000000 0.239216
1.000000 0.003922 0.215686
0.000000 0.262745 0.286275
0.262745 0.254902 0.266667
0.568627 0.247059 0.262745
0.850980 0.223529 0.231373
0.992157 0.188235 0.215686
0.003922 0.564706 0.203922
0.203922 0.572549 0.203922
0.572549 0.560784 0.188235
0.850980 0.537255 0.203922
1.000000 0.509804 0.188235
0.000000 0.827451 0.109804
0.109804 0.831373 0.109804
0.517647 0.827451 0.086275
0.823529 0.819608 0.082353
0.996078 0.780392 0.070588
0.003922 1.000000 0.000000
0.000000 1.000000 0.000000
0.462745 1.000000 0.007843
0.752941 1.000000 0.003922
1.000000 1.000000 0.000000
0.007843 0.000000 0.568627
0.270588 0.000000 0.568627
0.564706 0.000000 0.576471
0.850980 0.000000 0.552941
1.000000 0.003922 0.529412
0.003922 0.223529 0.564706
0.203922 0.219608 0.576471
0.576471 0.172549 0.584314
0.862745 0.160784 0.560784
1.000000 0.121569 0.521569
0.000000 0.560784 0.584314
0.000000 0.560784 0.576471
0.556863 0.556863 0.564706
0.847059 0.537255 0.556863
0.996078 0.505882 0.521569
0.000000 0.835294 0.505882
0.000000 0.843137 0.509804
0.498039 0.823529 0.501961
0.827451 0.819608 0.494118
0.996078 0.784314 0.494118
0.000000 1.000000 0.450980
0.000000 0.996078 0.466667
0.447059 1.000000 0.450980
0.749020 1.000000 0.450980
0.992157 1.000000 0.458824
0.003922 0.000000 0.843137
0.235294 0.000000 0.831373
0.545098 0.000000 0.835294
0.819608 0.000000 0.835294
1.000000 0.000000 0.803922
0.000000 0.180392 0.839216
0.168627 0.172549 0.823529
0.521569 0.133333 0.831373
0.835294 0.015686 0.823529
1.000000 0.000000 0.807843
0.000000 0.505882 0.835294
0.000000 0.490196 0.831373
0.494118 0.478431 0.847059
0.835294 0.470588 0.827451
1.000000 0.490196 0.803922
0.003922 0.819608 0.827451
0.000000 0.811765 0.835294
0.474510 0.819608 0.827451
0.807843 0.811765 0.827451
0.996078 0.800000 0.811765
0.000000 0.996078 0.760784
0.031373 1.000000 0.760784
0.509804 1.000000 0.780392
0.772549 1.000000 0.772549
1.000000 0.996078 0.784314
0.000000 0.000000 0.996078
0.223529 0.000000 1.000000
0.498039 0.000000 1.000000
0.768627 0.003922 1.000000
1.000000 0.000000 1.000000
0.003922 0.145098 1.000000
0.152941 0.149020 0.992157
0.486275 0.113725 1.000000
0.764706 0.003922 1.000000
1.000000 0.007843 0.992157
0.000000 0.447059 0.992157
0.000000 0.439216 1.000000
0.443137 0.427451 1.000000
0.752941 0.431373 1.000000
1.000000 0.435294 1.000000
0.000000 0.745098 1.000000
0.007843 0.749020 1.000000
0.490196 0.745098 0.996078
0.768627 0.764706 1.000000
1.000000 0.772549 1.000000
0.003922 1.000000 1.000000
0.274510 1.000000 1.000000
0.556863 0.996078 1.000000
0.823529 0.996078 1.000000
1.000000 1.000000 1.000000
