loleis/其他/lut20种/Sports LUT #8.cube
TITLE "Sports LUT #8"
#LUT size
LUT_3D_SIZE 5
#LUT data points
0.000000 0.000000 0.007843
0.211765 0.062745 0.019608
0.454902 0.145098 0.027451
0.764706 0.262745 0.078431
0.996078 0.368627 0.172549
0.023529 0.262745 0.027451
0.243137 0.274510 0.039216
0.494118 0.317647 0.094118
0.780392 0.384314 0.109804
1.000000 0.450980 0.207843
0.125490 0.580392 0.082353
0.309804 0.584314 0.098039
0.568627 0.600000 0.125490
0.811765 0.603922 0.196078
1.000000 0.643137 0.333333
0.286275 0.847059 0.258824
0.403922 0.843137 0.270588
0.600000 0.847059 0.298039
0.835294 0.839216 0.341176
1.000000 0.839216 0.478431
0.635294 1.000000 0.635294
0.686275 0.996078 0.635294
0.768627 1.000000 0.658824
0.898039 1.000000 0.701961
1.000000 1.000000 0.764706
0.003922 0.011765 0.172549
0.211765 0.027451 0.192157
0.474510 0.101961 0.196078
0.760784 0.262745 0.239216
1.000000 0.368627 0.294118
0.015686 0.254902 0.223529
0.243137 0.266667 0.219608
0.494118 0.309804 0.239216
0.768627 0.376471 0.250980
1.000000 0.458824 0.313725
0.043137 0.564706 0.239216
0.286275 0.580392 0.247059
0.568627 0.592157 0.254902
0.803922 0.600000 0.305882
1.000000 0.639216 0.400000
0.266667 0.835294 0.329412
0.396078 0.831373 0.356863
0.596078 0.835294 0.368627
0.835294 0.839216 0.431373
0.992157 0.847059 0.541176
0.635294 1.000000 0.643137
0.674510 0.996078 0.662745
0.764706 0.996078 0.674510
0.901961 1.000000 0.725490
1.000000 0.996078 0.780392
0.000000 0.015686 0.396078
0.219608 0.023529 0.411765
0.482353 0.058824 0.447059
0.788235 0.121569 0.458824
1.000000 0.274510 0.447059
0.000000 0.239216 0.439216
0.227451 0.250980 0.454902
0.517647 0.266667 0.470588
0.788235 0.309804 0.454902
1.000000 0.435294 0.486275
0.000000 0.568627 0.501961
0.239216 0.584314 0.498039
0.564706 0.584314 0.498039
0.796078 0.611765 0.533333
0.992157 0.658824 0.576471
0.317647 0.831373 0.556863
0.415686 0.835294 0.552941
0.603922 0.839216 0.564706
0.831373 0.839216 0.592157
0.996078 0.854902 0.666667
0.635294 1.000000 0.713725
0.674510 1.000000 0.725490
0.756863 1.000000 0.745098
0.898039 0.996078 0.772549
1.000000 1.000000 0.819608
0.000000 0.000000 0.698039
0.247059 0.000000 0.694118
0.509804 0.003922 0.713725
0.796078 0.011765 0.733333
1.000000 0.254902 0.709804
0.000000 0.227451 0.709804
0.215686 0.231373 0.721569
0.509804 0.243137 0.725490
0.811765 0.262745 0.741176
1.000000 0.403922 0.717647
0.003922 0.537255 0.741176
0.168627 0.537255 0.737255
0.525490 0.549020 0.745098
0.811765 0.584314 0.745098
1.000000 0.639216 0.752941
0.333333 0.839216 0.768627
0.419608 0.839216 0.768627
0.611765 0.835294 0.776471
0.819608 0.835294 0.780392
1.000000 0.862745 0.815686
0.662745 1.000000 0.847059
0.682353 1.000000 0.839216
0.760784 1.000000 0.850980
0.890196 0.996078 0.866667
1.000000 1.000000 0.901961
0.003922 0.000000 0.964706
0.223529 0.003922 0.964706
0.509804 0.047059 0.972549
0.780392 0.141176 0.968627
1.000000 0.290196 0.988235
0.000000 0.231373 0.960784
0.172549 0.231373 0.972549
0.486275 0.250980 0.972549
0.772549 0.305882 0.972549
1.000000 0.407843 0.980392
0.000000 0.494118 0.968627
0.007843 0.498039 0.960784
0.474510 0.517647 0.968627
0.772549 0.564706 0.972549
1.000000 0.623529 0.976471
0.337255 0.819608 0.980392
0.403922 0.819608 0.972549
0.572549 0.811765 0.984314
0.796078 0.815686 0.980392
1.000000 0.835294 0.976471
0.678431 1.000000 0.976471
0.705882 1.000000 0.984314
0.780392 1.000000 0.988235
0.905882 1.000000 0.992157
1.000000 1.000000 1.000000
