loleis/其他/lut20种/Sports LUT #19.cube
TITLE "Sports LUT #19"
#LUT size
LUT_3D_SIZE 5
#LUT data points
0.000000 0.003922 0.000000
0.278431 0.000000 0.011765
0.576471 0.000000 0.031373
0.886275 0.019608 0.090196
0.996078 0.121569 0.192157
0.011765 0.294118 0.043137
0.294118 0.298039 0.039216
0.592157 0.305882 0.098039
0.886275 0.309804 0.141176
1.000000 0.329412 0.227451
0.007843 0.623529 0.109804
0.309804 0.627451 0.121569
0.627451 0.627451 0.141176
0.890196 0.603922 0.192157
1.000000 0.588235 0.282353
0.125490 0.878431 0.207843
0.321569 0.874510 0.219608
0.592157 0.874510 0.239216
0.862745 0.866667 0.262745
1.000000 0.839216 0.352941
0.450980 1.000000 0.478431
0.513725 1.000000 0.474510
0.650980 1.000000 0.498039
0.827451 0.996078 0.533333
0.996078 1.000000 0.584314
0.000000 0.003922 0.298039
0.278431 0.000000 0.325490
0.584314 0.000000 0.329412
0.886275 0.000000 0.329412
1.000000 0.121569 0.341176
0.000000 0.290196 0.341176
0.278431 0.294118 0.329412
0.596078 0.298039 0.337255
0.878431 0.301961 0.333333
1.000000 0.321569 0.356863
0.000000 0.623529 0.309804
0.266667 0.623529 0.309804
0.619608 0.623529 0.317647
0.878431 0.600000 0.349020
1.000000 0.596078 0.388235
0.086275 0.870588 0.349020
0.317647 0.870588 0.356863
0.592157 0.862745 0.364706
0.862745 0.862745 0.384314
0.996078 0.831373 0.431373
0.470588 1.000000 0.525490
0.521569 0.996078 0.541176
0.650980 1.000000 0.556863
0.831373 1.000000 0.580392
1.000000 1.000000 0.623529
0.000000 0.000000 0.588235
0.270588 0.003922 0.588235
0.592157 0.000000 0.607843
0.890196 0.000000 0.596078
1.000000 0.129412 0.588235
0.000000 0.258824 0.607843
0.239216 0.250980 0.615686
0.600000 0.243137 0.619608
0.894118 0.274510 0.603922
1.000000 0.364706 0.603922
0.007843 0.615686 0.631373
0.211765 0.619608 0.631373
0.607843 0.615686 0.611765
0.858824 0.615686 0.635294
1.000000 0.627451 0.643137
0.164706 0.870588 0.615686
0.360784 0.870588 0.619608
0.607843 0.866667 0.623529
0.858824 0.862745 0.627451
1.000000 0.850980 0.666667
0.517647 1.000000 0.674510
0.564706 1.000000 0.682353
0.682353 1.000000 0.698039
0.843137 1.000000 0.705882
1.000000 1.000000 0.737255
0.000000 0.003922 0.854902
0.254902 0.000000 0.847059
0.560784 0.000000 0.854902
0.843137 0.000000 0.854902
1.000000 0.054902 0.843137
0.007843 0.227451 0.850980
0.219608 0.227451 0.854902
0.556863 0.227451 0.854902
0.850980 0.223529 0.858824
1.000000 0.313725 0.819608
0.000000 0.552941 0.862745
0.215686 0.552941 0.847059
0.552941 0.560784 0.854902
0.854902 0.564706 0.858824
1.000000 0.603922 0.850980
0.192157 0.850980 0.850980
0.352941 0.854902 0.858824
0.603922 0.854902 0.862745
0.850980 0.850980 0.850980
0.996078 0.862745 0.866667
0.545098 1.000000 0.839216
0.603922 1.000000 0.843137
0.733333 0.996078 0.858824
0.866667 1.000000 0.870588
1.000000 1.000000 0.882353
0.003922 0.000000 0.996078
0.254902 0.000000 1.000000
0.513725 0.000000 1.000000
0.772549 0.000000 1.000000
1.000000 0.145098 1.000000
0.000000 0.219608 0.996078
0.227451 0.227451 0.996078
0.509804 0.235294 0.996078
0.776471 0.250980 1.000000
1.000000 0.325490 1.000000
0.003922 0.505882 0.996078
0.258824 0.509804 0.996078
0.521569 0.513725 0.996078
0.780392 0.541176 1.000000
1.000000 0.584314 1.000000
0.352941 0.800000 0.996078
0.447059 0.800000 0.996078
0.619608 0.807843 1.000000
0.831373 0.827451 1.000000
1.000000 0.843137 1.000000
0.607843 1.000000 1.000000
0.654902 1.000000 1.000000
0.760784 1.000000 1.000000
0.901961 1.000000 0.992157
1.000000 1.000000 1.000000
