loleis/其他/lut20种/Sports LUT #18.cube
TITLE "Sports LUT #18"
#LUT size
LUT_3D_SIZE 25
#LUT data points
0.000000 0.000000 0.000000
0.066667 0.003922 0.007843
0.129412 0.007843 0.000000
0.192157 0.015686 0.003922
0.247059 0.023529 0.000000
0.317647 0.031373 0.007843
0.376471 0.023529 0.000000
0.427451 0.031373 0.000000
0.470588 0.027451 0.003922
0.513725 0.031373 0.003922
0.568627 0.031373 0.000000
0.607843 0.031373 0.000000
0.650980 0.035294 0.000000
0.682353 0.047059 0.003922
0.717647 0.050980 0.000000
0.745098 0.054902 0.000000
0.772549 0.058824 0.007843
0.803922 0.066667 0.019608
0.839216 0.070588 0.023529
0.862745 0.078431 0.019608
0.894118 0.078431 0.031373
0.921569 0.082353 0.043137
0.956863 0.082353 0.050980
0.996078 0.090196 0.050980
1.000000 0.086275 0.050980
0.000000 0.094118 0.000000
0.058824 0.098039 0.003922
0.121569 0.098039 0.011765
0.188235 0.105882 0.000000
0.254902 0.109804 0.007843
0.309804 0.098039 0.000000
0.360784 0.109804 0.003922
0.411765 0.098039 0.000000
0.470588 0.101961 0.003922
0.521569 0.098039 0.000000
0.560784 0.098039 0.000000
0.603922 0.094118 0.000000
0.639216 0.090196 0.000000
0.682353 0.094118 0.000000
0.717647 0.094118 0.007843
0.749020 0.098039 0.003922
0.780392 0.098039 0.003922
0.807843 0.101961 0.011765
0.835294 0.105882 0.023529
0.858824 0.101961 0.031373
0.890196 0.105882 0.043137
0.921569 0.109804 0.047059
0.952941 0.109804 0.039216
0.984314 0.105882 0.058824
1.000000 0.109804 0.058824
0.000000 0.160784 0.003922
0.050980 0.160784 0.003922
0.113725 0.164706 0.000000
0.180392 0.160784 0.003922
0.247059 0.164706 0.000000
0.313725 0.160784 0.007843
0.360784 0.152941 0.000000
0.407843 0.152941 0.000000
0.462745 0.152941 0.000000
0.513725 0.145098 0.000000
0.560784 0.141176 0.000000
0.596078 0.137255 0.000000
0.639216 0.137255 0.000000
0.678431 0.129412 0.000000
0.709804 0.137255 0.000000
0.741176 0.137255 0.003922
0.772549 0.133333 0.003922
0.796078 0.133333 0.011765
0.827451 0.129412 0.019608
0.854902 0.133333 0.031373
0.886275 0.137255 0.035294
0.921569 0.129412 0.043137
0.956863 0.129412 0.054902
0.992157 0.133333 0.054902
1.000000 0.141176 0.066667
0.003922 0.219608 0.003922
0.000000 0.219608 0.000000
0.101961 0.215686 0.000000
0.172549 0.223529 0.003922
0.231373 0.219608 0.003922
0.301961 0.219608 0.000000
0.356863 0.219608 0.000000
0.411765 0.211765 0.000000
0.462745 0.203922 0.000000
0.513725 0.200000 0.000000
0.556863 0.196078 0.003922
0.596078 0.184314 0.000000
0.635294 0.184314 0.000000
0.670588 0.180392 0.000000
0.709804 0.180392 0.000000
0.745098 0.176471 0.000000
0.772549 0.172549 0.000000
0.803922 0.168627 0.015686
0.827451 0.168627 0.027451
0.850980 0.168627 0.031373
0.882353 0.164706 0.031373
0.909804 0.160784 0.047059
0.945098 0.164706 0.050980
0.984314 0.164706 0.047059
1.000000 0.164706 0.062745
0.000000 0.274510 0.000000
0.003922 0.282353 0.007843
0.074510 0.286275 0.000000
0.164706 0.282353 0.000000
0.231373 0.274510 0.003922
0.301961 0.274510 0.000000
0.360784 0.270588 0.003922
0.403922 0.266667 0.007843
0.458824 0.258824 0.000000
0.505882 0.250980 0.000000
0.552941 0.247059 0.003922
0.592157 0.239216 0.000000
0.631373 0.239216 0.003922
0.666667 0.235294 0.003922
0.705882 0.223529 0.000000
0.745098 0.223529 0.003922
0.768627 0.215686 0.007843
0.792157 0.215686 0.015686
0.819608 0.207843 0.019608
0.854902 0.207843 0.027451
0.878431 0.207843 0.039216
0.913725 0.200000 0.043137
0.945098 0.203922 0.054902
0.980392 0.203922 0.058824
1.000000 0.200000 0.062745
0.011765 0.337255 0.000000
0.000000 0.337255 0.000000
0.047059 0.337255 0.003922
0.145098 0.341176 0.000000
0.231373 0.329412 0.000000
0.290196 0.337255 0.000000
0.356863 0.337255 0.007843
0.415686 0.329412 0.003922
0.474510 0.313725 0.003922
0.509804 0.309804 0.000000
0.556863 0.298039 0.000000
0.596078 0.290196 0.000000
0.643137 0.286275 0.000000
0.678431 0.282353 0.000000
0.717647 0.274510 0.000000
0.752941 0.270588 0.007843
0.772549 0.262745 0.019608
0.803922 0.258824 0.027451
0.831373 0.254902 0.043137
0.858824 0.254902 0.050980
0.886275 0.250980 0.058824
0.917647 0.250980 0.058824
0.952941 0.243137 0.058824
0.992157 0.243137 0.066667
1.000000 0.247059 0.070588
0.000000 0.384314 0.000000
0.003922 0.384314 0.003922
0.000000 0.380392 0.000000
0.125490 0.388235 0.007843
0.207843 0.380392 0.000000
0.286275 0.388235 0.000000
0.352941 0.372549 0.003922
0.411765 0.380392 0.000000
0.458824 0.368627 0.000000
0.501961 0.356863 0.000000
0.549020 0.349020 0.000000
0.596078 0.345098 0.003922
0.631373 0.333333 0.003922
0.674510 0.325490 0.000000
0.713725 0.325490 0.000000
0.733333 0.313725 0.007843
0.764706 0.309804 0.023529
0.792157 0.301961 0.039216
0.823529 0.301961 0.047059
0.854902 0.290196 0.050980
0.886275 0.286275 0.058824
0.917647 0.286275 0.070588
0.952941 0.282353 0.070588
0.988235 0.278431 0.062745
1.000000 0.278431 0.082353
0.003922 0.435294 0.000000
0.007843 0.423529 0.000000
0.007843 0.427451 0.019608
0.094118 0.431373 0.003922
0.196078 0.427451 0.003922
0.250980 0.435294 0.000000
0.337255 0.423529 0.000000
0.396078 0.423529 0.007843
0.454902 0.423529 0.003922
0.505882 0.411765 0.000000
0.549020 0.403922 0.000000
0.588235 0.392157 0.003922
0.631373 0.384314 0.003922
0.662745 0.376471 0.003922
0.701961 0.368627 0.015686
0.737255 0.360784 0.023529
0.764706 0.352941 0.035294
0.788235 0.345098 0.047059
0.823529 0.337255 0.062745
0.847059 0.333333 0.066667
0.886275 0.329412 0.070588
0.921569 0.325490 0.070588
0.960784 0.317647 0.070588
0.972549 0.333333 0.070588
0.996078 0.313725 0.074510
0.000000 0.466667 0.003922
0.003922 0.470588 0.015686
0.003922 0.470588 0.000000
0.078431 0.466667 0.000000
0.180392 0.470588 0.000000
0.254902 0.462745 0.000000
0.317647 0.470588 0.011765
0.392157 0.466667 0.003922
0.439216 0.470588 0.000000
0.501961 0.458824 0.000000
0.541176 0.450980 0.003922
0.592157 0.435294 0.000000
0.627451 0.427451 0.007843
0.666667 0.419608 0.003922
0.701961 0.415686 0.015686
0.733333 0.407843 0.039216
0.752941 0.396078 0.047059
0.780392 0.388235 0.054902
0.807843 0.380392 0.058824
0.843137 0.372549 0.066667
0.878431 0.368627 0.074510
0.901961 0.368627 0.078431
0.941176 0.360784 0.070588
0.976471 0.352941 0.086275
0.996078 0.349020 0.082353
0.000000 0.517647 0.000000
0.000000 0.509804 0.000000
0.011765 0.509804 0.003922
0.050980 0.509804 0.000000
0.168627 0.509804 0.000000
0.239216 0.513725 0.000000
0.309804 0.509804 0.003922
0.364706 0.509804 0.003922
0.427451 0.501961 0.000000
0.494118 0.501961 0.003922
0.537255 0.501961 0.003922
0.584314 0.490196 0.000000
0.627451 0.478431 0.000000
0.658824 0.466667 0.000000
0.686275 0.450980 0.003922
0.713725 0.447059 0.027451
0.741176 0.435294 0.043137
0.772549 0.431373 0.066667
0.803922 0.419608 0.078431
0.843137 0.415686 0.082353
0.874510 0.407843 0.086275
0.901961 0.403922 0.086275
0.937255 0.400000 0.086275
0.976471 0.400000 0.086275
0.996078 0.396078 0.082353
0.000000 0.564706 0.011765
0.000000 0.556863 0.000000
0.000000 0.564706 0.000000
0.050980 0.564706 0.007843
0.164706 0.564706 0.000000
0.235294 0.560784 0.003922
0.298039 0.560784 0.003922
0.364706 0.556863 0.003922
0.427451 0.556863 0.000000
0.470588 0.552941 0.000000
0.537255 0.552941 0.007843
0.580392 0.545098 0.000000
0.627451 0.533333 0.000000
0.666667 0.521569 0.000000
0.694118 0.505882 0.003922
0.725490 0.498039 0.015686
0.752941 0.490196 0.047059
0.780392 0.478431 0.070588
0.811765 0.466667 0.086275
0.843137 0.454902 0.098039
0.882353 0.450980 0.101961
0.917647 0.447059 0.105882
0.952941 0.443137 0.105882
0.992157 0.443137 0.101961
0.992157 0.443137 0.109804
0.000000 0.600000 0.000000
0.000000 0.588235 0.000000
0.003922 0.596078 0.000000
0.039216 0.592157 0.000000
0.149020 0.592157 0.003922
0.215686 0.592157 0.000000
0.298039 0.588235 0.003922
0.352941 0.584314 0.000000
0.411765 0.584314 0.000000
0.466667 0.584314 0.003922
0.509804 0.584314 0.000000
0.564706 0.580392 0.000000
0.615686 0.576471 0.000000
0.650980 0.564706 0.000000
0.682353 0.556863 0.000000
0.717647 0.537255 0.000000
0.749020 0.521569 0.027451
0.776471 0.513725 0.062745
0.807843 0.505882 0.082353
0.843137 0.501961 0.098039
0.874510 0.498039 0.105882
0.909804 0.490196 0.105882
0.937255 0.490196 0.109804
0.984314 0.486275 0.105882
1.000000 0.486275 0.113725
0.000000 0.619608 0.003922
0.000000 0.623529 0.000000
0.000000 0.615686 0.007843
0.027451 0.623529 0.000000
0.137255 0.627451 0.000000
0.219608 0.615686 0.003922
0.278431 0.619608 0.003922
0.325490 0.615686 0.000000
0.392157 0.615686 0.007843
0.439216 0.611765 0.000000
0.498039 0.600000 0.000000
0.541176 0.607843 0.003922
0.592157 0.607843 0.000000
0.631373 0.603922 0.003922
0.682353 0.588235 0.000000
0.713725 0.580392 0.000000
0.741176 0.564706 0.003922
0.768627 0.556863 0.031373
0.800000 0.545098 0.050980
0.831373 0.537255 0.078431
0.870588 0.533333 0.098039
0.905882 0.525490 0.113725
0.929412 0.525490 0.121569
0.980392 0.529412 0.113725
1.000000 0.525490 0.113725
0.000000 0.650980 0.000000
0.000000 0.650980 0.000000
0.000000 0.650980 0.003922
0.031373 0.647059 0.000000
0.137255 0.658824 0.000000
0.203922 0.639216 0.000000
0.262745 0.643137 0.000000
0.321569 0.643137 0.003922
0.376471 0.635294 0.000000
0.419608 0.639216 0.000000
0.474510 0.631373 0.000000
0.521569 0.631373 0.000000
0.564706 0.627451 0.000000
0.611765 0.631373 0.000000
0.658824 0.627451 0.000000
0.694118 0.615686 0.000000
0.733333 0.603922 0.000000
0.768627 0.596078 0.003922
0.792157 0.588235 0.019608
0.827451 0.576471 0.058824
0.858824 0.568627 0.094118
0.894118 0.560784 0.101961
0.941176 0.568627 0.098039
0.968627 0.560784 0.117647
1.000000 0.552941 0.105882
0.000000 0.666667 0.011765
0.000000 0.674510 0.000000
0.000000 0.666667 0.011765
0.043137 0.670588 0.000000
0.133333 0.674510 0.003922
0.200000 0.666667 0.000000
0.250980 0.666667 0.000000
0.305882 0.666667 0.003922
0.356863 0.662745 0.000000
0.407843 0.666667 0.000000
0.462745 0.666667 0.000000
0.505882 0.658824 0.000000
0.549020 0.654902 0.000000
0.592157 0.654902 0.000000
0.643137 0.647059 0.000000
0.694118 0.650980 0.000000
0.729412 0.635294 0.000000
0.760784 0.635294 0.007843
0.788235 0.619608 0.007843
0.819608 0.607843 0.011765
0.866667 0.607843 0.074510
0.905882 0.603922 0.086275
0.945098 0.603922 0.090196
0.972549 0.600000 0.098039
1.000000 0.600000 0.105882
0.000000 0.717647 0.027451
0.000000 0.709804 0.031373
0.003922 0.717647 0.039216
0.082353 0.713725 0.023529
0.152941 0.709804 0.027451
0.215686 0.701961 0.011765
0.262745 0.701961 0.023529
0.317647 0.709804 0.027451
0.368627 0.705882 0.027451
0.403922 0.705882 0.023529
0.458824 0.701961 0.031373
0.501961 0.694118 0.027451
0.545098 0.690196 0.031373
0.592157 0.694118 0.023529
0.635294 0.690196 0.019608
0.678431 0.690196 0.027451
0.725490 0.682353 0.027451
0.756863 0.682353 0.039216
0.788235 0.674510 0.039216
0.819608 0.662745 0.035294
0.862745 0.654902 0.043137
0.894118 0.654902 0.062745
0.937255 0.654902 0.090196
0.976471 0.650980 0.109804
1.000000 0.647059 0.113725
0.000000 0.733333 0.031373
0.003922 0.725490 0.035294
0.011765 0.733333 0.043137
0.086275 0.729412 0.043137
0.149020 0.733333 0.039216
0.200000 0.737255 0.039216
0.250980 0.733333 0.039216
0.301961 0.733333 0.047059
0.349020 0.729412 0.043137
0.396078 0.725490 0.043137
0.439216 0.725490 0.039216
0.490196 0.725490 0.047059
0.533333 0.721569 0.047059
0.576471 0.717647 0.043137
0.615686 0.721569 0.043137
0.666667 0.717647 0.031373
0.705882 0.713725 0.043137
0.749020 0.717647 0.054902
0.792157 0.709804 0.047059
0.831373 0.705882 0.043137
0.862745 0.694118 0.047059
0.901961 0.694118 0.050980
0.941176 0.690196 0.062745
0.976471 0.690196 0.082353
1.000000 0.686275 0.094118
0.000000 0.756863 0.043137
0.000000 0.764706 0.058824
0.007843 0.760784 0.050980
0.086275 0.760784 0.054902
0.149020 0.764706 0.062745
0.196078 0.756863 0.058824
0.247059 0.764706 0.058824
0.290196 0.756863 0.058824
0.337255 0.760784 0.050980
0.388235 0.760784 0.054902
0.431373 0.756863 0.050980
0.478431 0.752941 0.058824
0.525490 0.749020 0.054902
0.572549 0.749020 0.050980
0.603922 0.749020 0.050980
0.643137 0.749020 0.054902
0.690196 0.749020 0.047059
0.733333 0.745098 0.050980
0.780392 0.741176 0.050980
0.819608 0.741176 0.054902
0.858824 0.733333 0.054902
0.894118 0.729412 0.062745
0.937255 0.729412 0.047059
0.984314 0.717647 0.039216
1.000000 0.725490 0.050980
0.000000 0.788235 0.066667
0.000000 0.788235 0.054902
0.015686 0.796078 0.062745
0.094118 0.792157 0.070588
0.145098 0.780392 0.066667
0.188235 0.796078 0.058824
0.243137 0.792157 0.066667
0.301961 0.788235 0.066667
0.337255 0.792157 0.066667
0.388235 0.788235 0.062745
0.427451 0.788235 0.062745
0.474510 0.784314 0.050980
0.513725 0.780392 0.054902
0.556863 0.788235 0.050980
0.603922 0.784314 0.054902
0.643137 0.784314 0.062745
0.686275 0.780392 0.058824
0.729412 0.776471 0.054902
0.768627 0.768627 0.047059
0.815686 0.768627 0.047059
0.850980 0.764706 0.043137
0.894118 0.768627 0.050980
0.929412 0.760784 0.015686
0.960784 0.764706 0.015686
1.000000 0.768627 0.015686
0.007843 0.823529 0.050980
0.000000 0.823529 0.054902
0.003922 0.827451 0.062745
0.082353 0.827451 0.058824
0.137255 0.823529 0.074510
0.196078 0.819608 0.070588
0.243137 0.819608 0.058824
0.290196 0.819608 0.070588
0.337255 0.819608 0.058824
0.376471 0.819608 0.050980
0.423529 0.823529 0.050980
0.466667 0.819608 0.050980
0.505882 0.819608 0.054902
0.545098 0.819608 0.054902
0.588235 0.815686 0.047059
0.631373 0.811765 0.047059
0.678431 0.811765 0.035294
0.721569 0.815686 0.039216
0.764706 0.811765 0.035294
0.807843 0.807843 0.039216
0.847059 0.807843 0.039216
0.886275 0.811765 0.035294
0.933333 0.807843 0.027451
0.968627 0.807843 0.015686
1.000000 0.803922 0.007843
0.003922 0.874510 0.094118
0.015686 0.878431 0.109804
0.062745 0.870588 0.098039
0.109804 0.878431 0.101961
0.160784 0.878431 0.086275
0.207843 0.874510 0.101961
0.250980 0.870588 0.082353
0.298039 0.874510 0.090196
0.337255 0.866667 0.086275
0.380392 0.866667 0.074510
0.427451 0.870588 0.070588
0.466667 0.866667 0.062745
0.517647 0.866667 0.074510
0.556863 0.866667 0.070588
0.592157 0.862745 0.058824
0.631373 0.862745 0.062745
0.682353 0.858824 0.054902
0.729412 0.858824 0.062745
0.764706 0.854902 0.054902
0.807843 0.854902 0.047059
0.854902 0.854902 0.039216
0.890196 0.850980 0.031373
0.937255 0.854902 0.027451
0.976471 0.854902 0.023529
0.992157 0.858824 0.000000
0.007843 0.898039 0.058824
0.003922 0.905882 0.070588
0.003922 0.909804 0.054902
0.090196 0.909804 0.066667
0.141176 0.913725 0.074510
0.188235 0.905882 0.074510
0.247059 0.901961 0.070588
0.282353 0.905882 0.058824
0.329412 0.909804 0.062745
0.384314 0.905882 0.062745
0.419608 0.901961 0.058824
0.466667 0.901961 0.054902
0.505882 0.901961 0.054902
0.549020 0.898039 0.050980
0.600000 0.901961 0.054902
0.635294 0.901961 0.027451
0.674510 0.901961 0.031373
0.717647 0.898039 0.027451
0.760784 0.894118 0.027451
0.811765 0.898039 0.023529
0.850980 0.894118 0.015686
0.890196 0.894118 0.007843
0.937255 0.894118 0.000000
0.980392 0.890196 0.000000
1.000000 0.901961 0.003922
0.003922 0.937255 0.019608
0.000000 0.941176 0.027451
0.000000 0.941176 0.027451
0.086275 0.937255 0.039216
0.125490 0.949020 0.043137
0.188235 0.945098 0.039216
0.247059 0.945098 0.035294
0.282353 0.937255 0.035294
0.329412 0.941176 0.035294
0.368627 0.941176 0.027451
0.415686 0.941176 0.023529
0.454902 0.941176 0.015686
0.498039 0.941176 0.007843
0.549020 0.941176 0.007843
0.588235 0.937255 0.000000
0.631373 0.933333 0.000000
0.678431 0.929412 0.003922
0.717647 0.929412 0.003922
0.760784 0.929412 0.000000
0.803922 0.933333 0.003922
0.854902 0.933333 0.000000
0.890196 0.933333 0.000000
0.921569 0.933333 0.000000
0.976471 0.929412 0.003922
0.988235 0.941176 0.000000
0.003922 0.976471 0.011765
0.007843 0.984314 0.000000
0.000000 0.980392 0.000000
0.039216 0.984314 0.000000
0.121569 0.984314 0.011765
0.176471 0.988235 0.000000
0.223529 0.980392 0.000000
0.274510 0.984314 0.000000
0.325490 0.976471 0.000000
0.364706 0.988235 0.003922
0.415686 0.984314 0.000000
0.454902 0.984314 0.000000
0.501961 0.980392 0.003922
0.541176 0.972549 0.000000
0.584314 0.980392 0.000000
0.627451 0.976471 0.000000
0.670588 0.980392 0.000000
0.713725 0.972549 0.000000
0.752941 0.972549 0.003922
0.800000 0.976471 0.000000
0.835294 0.972549 0.000000
0.882353 0.968627 0.000000
0.937255 0.972549 0.003922
0.968627 0.968627 0.003922
0.992157 0.972549 0.000000
0.000000 0.996078 0.000000
0.011765 0.996078 0.003922
0.000000 1.000000 0.000000
0.003922 1.000000 0.000000
0.098039 1.000000 0.000000
0.160784 1.000000 0.000000
0.215686 1.000000 0.000000
0.266667 1.000000 0.007843
0.313725 1.000000 0.000000
0.356863 1.000000 0.000000
0.400000 1.000000 0.007843
0.447059 1.000000 0.003922
0.494118 1.000000 0.000000
0.541176 1.000000 0.003922
0.580392 1.000000 0.003922
0.623529 0.996078 0.000000
0.662745 1.000000 0.000000
0.713725 1.000000 0.000000
0.752941 1.000000 0.000000
0.796078 0.996078 0.003922
0.835294 1.000000 0.000000
0.878431 1.000000 0.003922
0.921569 1.000000 0.000000
0.960784 1.000000 0.000000
0.996078 1.000000 0.000000
0.000000 0.003922 0.086275
0.066667 0.007843 0.082353
0.137255 0.000000 0.086275
0.192157 0.007843 0.086275
0.254902 0.000000 0.086275
0.317647 0.007843 0.082353
0.376471 0.003922 0.082353
0.427451 0.015686 0.074510
0.474510 0.015686 0.078431
0.521569 0.019608 0.070588
0.572549 0.023529 0.066667
0.611765 0.023529 0.058824
0.647059 0.031373 0.058824
0.682353 0.043137 0.062745
0.713725 0.047059 0.050980
0.741176 0.050980 0.058824
0.772549 0.066667 0.062745
0.807843 0.070588 0.074510
0.835294 0.074510 0.074510
0.862745 0.078431 0.078431
0.890196 0.082353 0.082353
0.917647 0.086275 0.082353
0.952941 0.094118 0.086275
0.988235 0.094118 0.082353
1.000000 0.086275 0.082353
0.000000 0.094118 0.090196
0.054902 0.094118 0.098039
0.133333 0.101961 0.094118
0.188235 0.090196 0.074510
0.258824 0.098039 0.090196
0.309804 0.101961 0.086275
0.372549 0.098039 0.066667
0.415686 0.090196 0.066667
0.474510 0.094118 0.070588
0.517647 0.090196 0.062745
0.552941 0.090196 0.050980
0.596078 0.094118 0.050980
0.647059 0.094118 0.054902
0.686275 0.094118 0.050980
0.721569 0.090196 0.050980
0.745098 0.101961 0.066667
0.776471 0.098039 0.070588
0.803922 0.105882 0.066667
0.827451 0.105882 0.066667
0.862745 0.105882 0.070588
0.886275 0.105882 0.078431
0.917647 0.117647 0.090196
0.952941 0.117647 0.086275
0.984314 0.117647 0.082353
0.992157 0.109804 0.086275
0.000000 0.160784 0.094118
0.027451 0.156863 0.082353
0.113725 0.164706 0.094118
0.184314 0.164706 0.086275
0.247059 0.168627 0.074510
0.309804 0.160784 0.086275
0.368627 0.156863 0.062745
0.419608 0.152941 0.070588
0.474510 0.152941 0.066667
0.517647 0.145098 0.058824
0.556863 0.137255 0.058824
0.596078 0.137255 0.058824
0.643137 0.137255 0.054902
0.682353 0.137255 0.062745
0.709804 0.133333 0.054902
0.745098 0.129412 0.054902
0.780392 0.129412 0.066667
0.800000 0.133333 0.066667
0.827451 0.129412 0.074510
0.850980 0.137255 0.082353
0.886275 0.141176 0.078431
0.913725 0.141176 0.078431
0.952941 0.137255 0.086275
0.988235 0.133333 0.086275
1.000000 0.141176 0.094118
0.000000 0.219608 0.074510
0.000000 0.223529 0.062745
0.090196 0.223529 0.078431
0.168627 0.227451 0.066667
0.243137 0.223529 0.058824
0.309804 0.215686 0.066667
0.364706 0.215686 0.070588
0.419608 0.207843 0.066667
0.454902 0.203922 0.062745
0.509804 0.196078 0.058824
0.549020 0.196078 0.058824
0.596078 0.184314 0.058824
0.631373 0.180392 0.058824
0.670588 0.180392 0.054902
0.705882 0.176471 0.058824
0.745098 0.176471 0.062745
0.776471 0.172549 0.062745
0.796078 0.168627 0.066667
0.819608 0.168627 0.066667
0.847059 0.172549 0.078431
0.870588 0.168627 0.078431
0.909804 0.168627 0.082353
0.937255 0.168627 0.082353
0.976471 0.172549 0.090196
1.000000 0.160784 0.090196
0.000000 0.290196 0.058824
0.003922 0.278431 0.043137
0.066667 0.282353 0.054902
0.164706 0.278431 0.058824
0.235294 0.278431 0.050980
0.301961 0.278431 0.050980
0.352941 0.270588 0.047059
0.403922 0.266667 0.054902
0.458824 0.258824 0.050980
0.509804 0.250980 0.054902
0.552941 0.247059 0.058824
0.600000 0.239216 0.054902
0.635294 0.231373 0.054902
0.670588 0.227451 0.054902
0.705882 0.223529 0.062745
0.737255 0.219608 0.066667
0.764706 0.215686 0.074510
0.792157 0.219608 0.074510
0.811765 0.211765 0.078431
0.839216 0.211765 0.086275
0.874510 0.207843 0.070588
0.909804 0.200000 0.078431
0.949020 0.200000 0.086275
0.980392 0.200000 0.086275
1.000000 0.200000 0.094118
0.000000 0.341176 0.031373
0.000000 0.333333 0.039216
0.019608 0.345098 0.031373
0.145098 0.337255 0.027451
0.211765 0.341176 0.023529
0.290196 0.341176 0.031373
0.360784 0.333333 0.015686
0.419608 0.321569 0.007843
0.466667 0.317647 0.039216
0.505882 0.305882 0.047059
0.549020 0.298039 0.054902
0.588235 0.290196 0.054902
0.639216 0.290196 0.062745
0.678431 0.282353 0.062745
0.713725 0.278431 0.062745
0.745098 0.266667 0.074510
0.764706 0.262745 0.078431
0.796078 0.258824 0.086275
0.823529 0.254902 0.082353
0.850980 0.250980 0.086275
0.882353 0.250980 0.086275
0.909804 0.247059 0.094118
0.945098 0.239216 0.094118
0.984314 0.247059 0.101961
1.000000 0.243137 0.105882
0.003922 0.384314 0.011765
0.003922 0.384314 0.003922
0.000000 0.380392 0.015686
0.109804 0.384314 0.000000
0.196078 0.384314 0.000000
0.278431 0.384314 0.003922
0.352941 0.384314 0.000000
0.415686 0.376471 0.000000
0.462745 0.364706 0.003922
0.513725 0.356863 0.015686
0.552941 0.352941 0.043137
0.596078 0.345098 0.062745
0.631373 0.337255 0.070588
0.670588 0.329412 0.066667
0.709804 0.325490 0.070588
0.741176 0.317647 0.074510
0.772549 0.305882 0.086275
0.796078 0.298039 0.082353
0.827451 0.298039 0.082353
0.854902 0.290196 0.086275
0.882353 0.286275 0.094118
0.913725 0.286275 0.098039
0.949020 0.278431 0.098039
0.988235 0.278431 0.109804
0.996078 0.282353 0.098039
0.003922 0.431373 0.011765
0.000000 0.431373 0.000000
0.000000 0.431373 0.000000
0.078431 0.427451 0.000000
0.184314 0.427451 0.000000
0.266667 0.431373 0.000000
0.329412 0.419608 0.000000
0.392157 0.419608 0.003922
0.454902 0.423529 0.003922
0.501961 0.411765 0.000000
0.549020 0.400000 0.011765
0.588235 0.388235 0.031373
0.627451 0.384314 0.050980
0.674510 0.376471 0.070588
0.698039 0.368627 0.082353
0.729412 0.360784 0.078431
0.756863 0.352941 0.082353
0.788235 0.345098 0.086275
0.819608 0.341176 0.094118
0.839216 0.329412 0.094118
0.874510 0.325490 0.094118
0.913725 0.321569 0.105882
0.945098 0.321569 0.105882
0.972549 0.317647 0.101961
1.000000 0.313725 0.098039
0.000000 0.466667 0.003922
0.003922 0.470588 0.000000
0.000000 0.470588 0.003922
0.058824 0.470588 0.007843
0.176471 0.470588 0.003922
0.250980 0.466667 0.007843
0.313725 0.466667 0.007843
0.376471 0.470588 0.000000
0.435294 0.466667 0.000000
0.490196 0.466667 0.000000
0.541176 0.450980 0.000000
0.588235 0.439216 0.003922
0.631373 0.431373 0.011765
0.658824 0.419608 0.054902
0.694118 0.415686 0.070588
0.725490 0.403922 0.082353
0.752941 0.392157 0.090196
0.776471 0.380392 0.098039
0.803922 0.376471 0.105882
0.839216 0.372549 0.105882
0.870588 0.364706 0.109804
0.905882 0.360784 0.105882
0.937255 0.360784 0.098039
0.968627 0.360784 0.101961
1.000000 0.356863 0.105882
0.000000 0.505882 0.000000
0.003922 0.509804 0.003922
0.000000 0.509804 0.007843
0.023529 0.513725 0.003922
0.164706 0.505882 0.000000
0.235294 0.509804 0.000000
0.305882 0.505882 0.000000
0.360784 0.505882 0.000000
0.427451 0.501961 0.000000
0.490196 0.498039 0.000000
0.537255 0.494118 0.000000
0.588235 0.490196 0.000000
0.627451 0.478431 0.000000
0.658824 0.462745 0.011765
0.686275 0.454902 0.047059
0.713725 0.443137 0.078431
0.749020 0.435294 0.101961
0.776471 0.427451 0.105882
0.807843 0.419608 0.101961
0.843137 0.411765 0.101961
0.870588 0.407843 0.117647
0.905882 0.403922 0.117647
0.941176 0.400000 0.113725
0.976471 0.403922 0.109804
1.000000 0.396078 0.105882
0.000000 0.560784 0.003922
0.000000 0.564706 0.000000
0.000000 0.556863 0.000000
0.035294 0.556863 0.000000
0.156863 0.560784 0.007843
0.235294 0.552941 0.000000
0.301961 0.556863 0.000000
0.364706 0.556863 0.003922
0.423529 0.552941 0.000000
0.478431 0.552941 0.000000
0.537255 0.545098 0.011765
