loleis/其他/lut20种/Sports LUT #7.cube
TITLE "Sports LUT #7"
#LUT size
LUT_3D_SIZE 9
#LUT data points
0.000000 0.000000 0.007843
0.125490 0.003922 0.000000
0.282353 0.000000 0.003922
0.415686 0.000000 0.007843
0.549020 0.000000 0.000000
0.674510 0.000000 0.000000
0.784314 0.000000 0.007843
0.886275 0.000000 0.003922
0.992157 0.000000 0.000000
0.003922 0.137255 0.000000
0.145098 0.133333 0.003922
0.294118 0.137255 0.000000
0.439216 0.129412 0.000000
0.568627 0.125490 0.000000
0.690196 0.121569 0.000000
0.796078 0.113725 0.007843
0.894118 0.105882 0.003922
0.996078 0.101961 0.003922
0.000000 0.282353 0.000000
0.141176 0.282353 0.000000
0.298039 0.282353 0.003922
0.431373 0.274510 0.000000
0.560784 0.266667 0.000000
0.678431 0.258824 0.000000
0.780392 0.250980 0.000000
0.886275 0.235294 0.000000
0.996078 0.231373 0.003922
0.000000 0.431373 0.000000
0.137255 0.423529 0.000000
0.294118 0.427451 0.000000
0.435294 0.423529 0.003922
0.572549 0.423529 0.003922
0.682353 0.403922 0.000000
0.784314 0.384314 0.000000
0.901961 0.376471 0.000000
1.000000 0.372549 0.003922
0.003922 0.541176 0.000000
0.129412 0.537255 0.000000
0.270588 0.537255 0.007843
0.411765 0.537255 0.000000
0.549020 0.545098 0.000000
0.670588 0.525490 0.003922
0.780392 0.505882 0.000000
0.894118 0.494118 0.000000
1.000000 0.498039 0.000000
0.011765 0.619608 0.007843
0.117647 0.627451 0.000000
0.250980 0.627451 0.000000
0.376471 0.627451 0.003922
0.521569 0.631373 0.003922
0.647059 0.631373 0.000000
0.768627 0.627451 0.003922
0.890196 0.615686 0.000000
0.996078 0.623529 0.011765
0.011765 0.760784 0.000000
0.133333 0.749020 0.000000
0.250980 0.749020 0.000000
0.388235 0.752941 0.000000
0.517647 0.752941 0.000000
0.647059 0.752941 0.000000
0.776471 0.760784 0.000000
0.905882 0.760784 0.000000
1.000000 0.756863 0.000000
0.007843 0.870588 0.007843
0.086275 0.870588 0.003922
0.235294 0.862745 0.000000
0.380392 0.874510 0.003922
0.505882 0.878431 0.000000
0.639216 0.882353 0.000000
0.776471 0.886275 0.003922
0.913725 0.886275 0.000000
0.996078 0.886275 0.007843
0.000000 1.000000 0.003922
0.003922 1.000000 0.000000
0.211765 1.000000 0.000000
0.372549 1.000000 0.003922
0.521569 0.996078 0.000000
0.666667 1.000000 0.003922
0.815686 1.000000 0.000000
0.952941 1.000000 0.003922
1.000000 0.996078 0.000000
0.000000 0.003922 0.125490
0.137255 0.000000 0.129412
0.298039 0.000000 0.129412
0.443137 0.000000 0.117647
0.572549 0.000000 0.105882
0.698039 0.000000 0.086275
0.796078 0.000000 0.086275
0.898039 0.000000 0.082353
1.000000 0.000000 0.062745
0.000000 0.152941 0.149020
0.160784 0.149020 0.129412
0.313725 0.141176 0.137255
0.450980 0.133333 0.117647
0.584314 0.121569 0.105882
0.705882 0.109804 0.090196
0.803922 0.105882 0.090196
0.913725 0.098039 0.082353
1.000000 0.090196 0.074510
0.000000 0.301961 0.098039
0.145098 0.298039 0.090196
0.313725 0.290196 0.086275
0.447059 0.282353 0.086275
0.572549 0.270588 0.090196
0.690196 0.266667 0.086275
0.792157 0.254902 0.082353
0.901961 0.247059 0.074510
0.996078 0.231373 0.050980
0.003922 0.439216 0.027451
0.121569 0.439216 0.027451
0.294118 0.443137 0.015686
0.450980 0.443137 0.015686
0.588235 0.427451 0.015686
0.690196 0.407843 0.074510
0.800000 0.384314 0.086275
0.909804 0.376471 0.070588
1.000000 0.368627 0.054902
0.000000 0.556863 0.003922
0.109804 0.552941 0.000000
0.270588 0.549020 0.000000
0.423529 0.552941 0.000000
0.560784 0.549020 0.003922
0.682353 0.525490 0.000000
0.792157 0.513725 0.027451
0.901961 0.501961 0.066667
1.000000 0.505882 0.031373
0.003922 0.639216 0.007843
0.109804 0.639216 0.000000
0.258824 0.635294 0.000000
0.388235 0.643137 0.000000
0.529412 0.639216 0.000000
0.658824 0.639216 0.003922
0.780392 0.631373 0.000000
0.898039 0.623529 0.003922
0.992157 0.623529 0.000000
0.000000 0.764706 0.000000
0.117647 0.764706 0.000000
0.258824 0.756863 0.000000
0.388235 0.764706 0.000000
0.517647 0.756863 0.003922
0.654902 0.760784 0.003922
0.784314 0.768627 0.000000
0.901961 0.756863 0.000000
0.996078 0.760784 0.000000
0.000000 0.882353 0.003922
0.086275 0.874510 0.011765
0.239216 0.874510 0.000000
0.376471 0.878431 0.003922
0.505882 0.886275 0.000000
0.647059 0.886275 0.000000
0.776471 0.886275 0.003922
0.909804 0.894118 0.000000
1.000000 0.894118 0.000000
0.000000 0.996078 0.000000
0.000000 0.996078 0.000000
0.211765 1.000000 0.000000
0.368627 1.000000 0.000000
0.521569 0.996078 0.000000
0.674510 1.000000 0.000000
0.815686 1.000000 0.000000
0.952941 0.996078 0.000000
1.000000 1.000000 0.000000
0.000000 0.000000 0.262745
0.137255 0.000000 0.270588
0.294118 0.000000 0.278431
0.447059 0.000000 0.270588
0.576471 0.003922 0.258824
0.698039 0.000000 0.250980
0.796078 0.000000 0.235294
0.901961 0.003922 0.227451
1.000000 0.003922 0.215686
0.000000 0.129412 0.290196
0.129412 0.121569 0.278431
0.313725 0.113725 0.282353
0.454902 0.109804 0.266667
0.588235 0.109804 0.254902
0.709804 0.121569 0.258824
0.796078 0.129412 0.243137
0.901961 0.121569 0.243137
0.996078 0.098039 0.227451
0.003922 0.301961 0.286275
0.098039 0.298039 0.278431
0.301961 0.290196 0.254902
0.443137 0.282353 0.266667
0.572549 0.278431 0.258824
0.698039 0.270588 0.243137
0.792157 0.262745 0.247059
0.898039 0.250980 0.235294
0.996078 0.239216 0.219608
0.003922 0.447059 0.235294
0.000000 0.443137 0.231373
0.286275 0.443137 0.235294
0.450980 0.439216 0.223529
0.584314 0.423529 0.243137
0.690196 0.411765 0.247059
0.796078 0.396078 0.247059
0.901961 0.384314 0.231373
1.000000 0.372549 0.223529
0.000000 0.564706 0.192157
0.035294 0.556863 0.200000
0.258824 0.556863 0.200000
0.411765 0.556863 0.192157
0.564706 0.549020 0.192157
0.686275 0.529412 0.196078
0.788235 0.521569 0.243137
0.905882 0.509804 0.235294
1.000000 0.498039 0.203922
0.000000 0.647059 0.176471
0.082353 0.647059 0.172549
0.243137 0.639216 0.168627
0.392157 0.650980 0.168627
0.525490 0.639216 0.172549
0.662745 0.643137 0.180392
0.788235 0.635294 0.176471
0.905882 0.631373 0.192157
0.996078 0.627451 0.184314
0.000000 0.772549 0.164706
0.098039 0.768627 0.164706
0.250980 0.764706 0.160784
0.392157 0.764706 0.160784
0.513725 0.768627 0.164706
0.650980 0.768627 0.156863
0.784314 0.764706 0.152941
0.917647 0.764706 0.149020
1.000000 0.764706 0.133333
0.000000 0.898039 0.098039
0.000000 0.882353 0.082353
0.219608 0.882353 0.078431
0.368627 0.886275 0.082353
0.505882 0.886275 0.086275
0.639216 0.890196 0.074510
0.780392 0.890196 0.070588
0.913725 0.898039 0.039216
1.000000 0.890196 0.003922
0.000000 1.000000 0.007843
0.003922 1.000000 0.000000
0.168627 1.000000 0.011765
0.364706 0.996078 0.000000
0.501961 1.000000 0.000000
0.658824 1.000000 0.007843
0.811765 0.996078 0.000000
0.960784 1.000000 0.003922
0.992157 1.000000 0.000000
0.003922 0.003922 0.396078
0.125490 0.000000 0.403922
0.274510 0.000000 0.403922
0.435294 0.000000 0.411765
0.576471 0.000000 0.415686
0.690196 0.003922 0.376471
0.796078 0.000000 0.368627
0.894118 0.003922 0.364706
1.000000 0.000000 0.356863
0.000000 0.101961 0.411765
0.109804 0.098039 0.415686
0.290196 0.086275 0.419608
0.450980 0.043137 0.423529
0.588235 0.062745 0.411765
0.698039 0.094118 0.380392
0.796078 0.137255 0.376471
0.894118 0.152941 0.380392
1.000000 0.121569 0.364706
0.000000 0.270588 0.423529
0.027451 0.262745 0.407843
0.258824 0.250980 0.403922
0.447059 0.247059 0.407843
0.572549 0.258824 0.396078
0.686275 0.266667 0.384314
0.788235 0.278431 0.372549
0.898039 0.270588 0.364706
1.000000 0.239216 0.341176
0.000000 0.443137 0.419608
0.007843 0.439216 0.403922
0.258824 0.435294 0.415686
0.443137 0.427451 0.392157
0.576471 0.423529 0.403922
0.682353 0.419608 0.396078
0.780392 0.407843 0.384314
0.909804 0.392157 0.376471
1.000000 0.380392 0.368627
0.003922 0.564706 0.356863
0.000000 0.564706 0.360784
0.223529 0.552941 0.349020
0.407843 0.552941 0.352941
0.568627 0.545098 0.349020
0.682353 0.529412 0.368627
0.780392 0.521569 0.384314
0.898039 0.513725 0.368627
1.000000 0.498039 0.345098
0.000000 0.647059 0.325490
0.000000 0.647059 0.317647
0.235294 0.647059 0.317647
0.380392 0.643137 0.329412
0.521569 0.647059 0.321569
0.666667 0.643137 0.337255
0.780392 0.635294 0.321569
0.901961 0.627451 0.345098
1.000000 0.623529 0.333333
0.003922 0.764706 0.313725
0.007843 0.756863 0.309804
0.223529 0.760784 0.313725
0.376471 0.768627 0.313725
0.513725 0.768627 0.305882
0.654902 0.768627 0.313725
0.784314 0.764706 0.305882
0.917647 0.756863 0.301961
1.000000 0.756863 0.301961
0.003922 0.886275 0.274510
0.000000 0.878431 0.266667
0.156863 0.882353 0.274510
0.337255 0.886275 0.270588
0.490196 0.886275 0.266667
0.643137 0.886275 0.254902
0.772549 0.894118 0.254902
0.921569 0.901961 0.266667
1.000000 0.890196 0.239216
0.000000 1.000000 0.215686
0.000000 1.000000 0.207843
0.007843 1.000000 0.207843
0.301961 1.000000 0.215686
0.486275 1.000000 0.207843
0.639216 1.000000 0.211765
0.807843 1.000000 0.203922
0.952941 1.000000 0.215686
0.992157 1.000000 0.215686
0.000000 0.000000 0.525490
0.117647 0.003922 0.505882
0.262745 0.000000 0.525490
0.415686 0.000000 0.533333
0.556863 0.000000 0.533333
0.698039 0.003922 0.529412
0.800000 0.000000 0.494118
0.898039 0.003922 0.486275
1.000000 0.000000 0.478431
0.000000 0.090196 0.537255
0.090196 0.090196 0.537255
0.270588 0.078431 0.537255
0.411765 0.050980 0.537255
0.568627 0.000000 0.537255
0.705882 0.027451 0.521569
0.803922 0.101961 0.501961
0.905882 0.125490 0.490196
1.000000 0.094118 0.494118
0.000000 0.247059 0.537255
0.007843 0.231373 0.533333
0.247059 0.231373 0.533333
0.415686 0.223529 0.541176
0.576471 0.219608 0.533333
0.690196 0.243137 0.513725
0.792157 0.262745 0.490196
0.901961 0.266667 0.490196
0.996078 0.250980 0.486275
0.003922 0.407843 0.545098
0.000000 0.407843 0.552941
0.227451 0.400000 0.537255
0.411765 0.388235 0.537255
0.576471 0.400000 0.529412
0.682353 0.411765 0.521569
0.784314 0.415686 0.509804
0.894118 0.407843 0.501961
0.992157 0.388235 0.490196
0.000000 0.560784 0.525490
0.000000 0.552941 0.529412
0.215686 0.549020 0.521569
0.400000 0.545098 0.517647
0.552941 0.541176 0.513725
0.654902 0.541176 0.517647
0.772549 0.533333 0.521569
0.890196 0.525490 0.498039
0.992157 0.505882 0.474510
0.000000 0.647059 0.478431
0.000000 0.643137 0.474510
0.215686 0.647059 0.462745
0.376471 0.647059 0.470588
0.513725 0.643137 0.466667
0.658824 0.643137 0.466667
0.784314 0.635294 0.482353
0.894118 0.635294 0.498039
1.000000 0.627451 0.478431
0.000000 0.772549 0.458824
0.000000 0.764706 0.450980
0.168627 0.768627 0.454902
0.341176 0.768627 0.443137
0.498039 0.768627 0.443137
0.643137 0.768627 0.443137
0.788235 0.768627 0.447059
0.917647 0.756863 0.435294
0.988235 0.756863 0.450980
0.000000 0.894118 0.407843
0.003922 0.890196 0.400000
0.003922 0.886275 0.407843
0.286275 0.890196 0.403922
0.462745 0.894118 0.403922
0.623529 0.898039 0.407843
0.772549 0.898039 0.400000
0.917647 0.898039 0.396078
0.996078 0.901961 0.384314
0.000000 0.996078 0.368627
0.003922 1.000000 0.368627
0.000000 1.000000 0.372549
0.196078 0.996078 0.380392
0.431373 0.996078 0.368627
0.619608 0.996078 0.368627
0.792157 0.996078 0.360784
0.941176 1.000000 0.368627
1.000000 1.000000 0.372549
0.007843 0.000000 0.639216
0.109804 0.000000 0.635294
0.247059 0.003922 0.635294
0.396078 0.000000 0.631373
0.533333 0.000000 0.635294
0.670588 0.003922 0.635294
0.800000 0.000000 0.631373
0.905882 0.007843 0.615686
0.992157 0.007843 0.615686
0.000000 0.090196 0.647059
0.105882 0.090196 0.635294
0.250980 0.082353 0.639216
0.388235 0.066667 0.631373
0.541176 0.031373 0.650980
0.686275 0.000000 0.647059
0.796078 0.031373 0.635294
0.909804 0.078431 0.615686
0.992157 0.066667 0.600000
0.011765 0.235294 0.647059
0.058824 0.227451 0.639216
0.243137 0.231373 0.643137
0.388235 0.219608 0.639216
0.529412 0.227451 0.643137
0.686275 0.215686 0.647059
0.800000 0.231373 0.627451
0.909804 0.247059 0.603922
1.000000 0.227451 0.611765
0.007843 0.380392 0.639216
0.007843 0.380392 0.639216
0.239216 0.368627 0.647059
0.384314 0.376471 0.635294
0.537255 0.376471 0.643137
0.674510 0.372549 0.647059
0.796078 0.388235 0.619608
0.905882 0.388235 0.615686
1.000000 0.372549 0.615686
0.000000 0.525490 0.643137
0.000000 0.525490 0.639216
0.231373 0.525490 0.647059
0.384314 0.521569 0.639216
0.541176 0.517647 0.627451
0.670588 0.517647 0.631373
0.780392 0.525490 0.619608
0.901961 0.513725 0.623529
0.996078 0.498039 0.603922
0.000000 0.647059 0.619608
0.003922 0.650980 0.623529
0.207843 0.650980 0.627451
0.376471 0.650980 0.619608
0.517647 0.647059 0.619608
0.666667 0.639216 0.615686
0.776471 0.639216 0.615686
0.905882 0.627451 0.603922
1.000000 0.611765 0.596078
0.003922 0.776471 0.607843
0.000000 0.768627 0.611765
0.176471 0.768627 0.600000
0.333333 0.768627 0.600000
0.478431 0.776471 0.596078
0.627451 0.768627 0.580392
0.784314 0.768627 0.580392
0.921569 0.760784 0.588235
0.992157 0.760784 0.588235
0.007843 0.898039 0.580392
0.000000 0.898039 0.572549
0.000000 0.901961 0.556863
0.184314 0.898039 0.556863
0.403922 0.901961 0.545098
0.592157 0.901961 0.545098
0.756863 0.901961 0.537255
0.921569 0.901961 0.533333
0.996078 0.894118 0.521569
0.003922 1.000000 0.541176
0.000000 1.000000 0.533333
0.000000 1.000000 0.517647
0.000000 0.996078 0.517647
0.333333 1.000000 0.501961
0.564706 0.996078 0.505882
0.760784 1.000000 0.501961
0.929412 1.000000 0.509804
1.000000 1.000000 0.513725
0.015686 0.000000 0.741176
0.113725 0.000000 0.737255
0.250980 0.000000 0.733333
0.380392 0.003922 0.741176
0.513725 0.000000 0.745098
0.647059 0.000000 0.749020
0.784314 0.000000 0.741176
0.913725 0.000000 0.737255
1.000000 0.000000 0.737255
0.000000 0.078431 0.741176
0.094118 0.078431 0.752941
0.254902 0.066667 0.741176
0.372549 0.058824 0.745098
0.521569 0.035294 0.749020
0.654902 0.000000 0.749020
0.784314 0.003922 0.745098
0.905882 0.000000 0.752941
1.000000 0.003922 0.733333
0.000000 0.227451 0.760784
0.058824 0.223529 0.749020
0.243137 0.219608 0.752941
0.384314 0.219608 0.745098
0.517647 0.211765 0.745098
0.650980 0.203922 0.749020
0.792157 0.192157 0.749020
0.909804 0.203922 0.737255
0.996078 0.192157 0.729412
0.000000 0.360784 0.749020
0.003922 0.352941 0.745098
0.211765 0.360784 0.741176
0.380392 0.356863 0.749020
0.517647 0.349020 0.760784
0.647059 0.352941 0.749020
0.800000 0.349020 0.752941
0.909804 0.360784 0.749020
0.996078 0.352941 0.741176
0.003922 0.498039 0.737255
0.007843 0.498039 0.749020
0.196078 0.490196 0.745098
0.364706 0.494118 0.764706
0.505882 0.486275 0.749020
0.647059 0.494118 0.756863
0.796078 0.478431 0.749020
0.905882 0.490196 0.741176
0.996078 0.474510 0.729412
0.000000 0.631373 0.741176
0.000000 0.631373 0.745098
0.164706 0.631373 0.749020
0.341176 0.635294 0.756863
0.486275 0.623529 0.749020
0.631373 0.615686 0.745098
0.788235 0.619608 0.737255
0.909804 0.615686 0.733333
1.000000 0.596078 0.725490
0.003922 0.768627 0.745098
0.000000 0.772549 0.745098
0.094118 0.776471 0.741176
0.301961 0.768627 0.745098
0.458824 0.776471 0.752941
0.615686 0.768627 0.749020
0.776471 0.764706 0.729412
0.913725 0.760784 0.741176
1.000000 0.745098 0.729412
0.000000 0.905882 0.721569
0.000000 0.901961 0.721569
0.000000 0.909804 0.717647
0.152941 0.901961 0.729412
0.384314 0.909804 0.709804
0.560784 0.905882 0.705882
0.737255 0.905882 0.694118
0.921569 0.901961 0.686275
1.000000 0.894118 0.678431
0.003922 1.000000 0.705882
0.007843 0.996078 0.701961
0.000000 1.000000 0.705882
0.000000 1.000000 0.701961
0.270588 1.000000 0.682353
0.494118 1.000000 0.658824
0.729412 1.000000 0.666667
0.921569 0.996078 0.674510
1.000000 1.000000 0.674510
0.000000 0.000000 0.866667
0.098039 0.000000 0.870588
0.243137 0.000000 0.866667
0.396078 0.000000 0.870588
0.509804 0.000000 0.874510
0.643137 0.000000 0.866667
0.784314 0.000000 0.866667
0.917647 0.000000 0.874510
1.000000 0.003922 0.870588
0.003922 0.070588 0.870588
0.082353 0.062745 0.862745
0.231373 0.050980 0.874510
0.384314 0.027451 0.870588
0.513725 0.003922 0.866667
0.647059 0.003922 0.870588
0.780392 0.000000 0.874510
0.925490 0.000000 0.882353
1.000000 0.003922 0.858824
0.000000 0.207843 0.866667
0.023529 0.211765 0.870588
0.239216 0.207843 0.878431
0.368627 0.203922 0.870588
0.509804 0.196078 0.874510
0.650980 0.184314 0.874510
0.788235 0.172549 0.874510
0.921569 0.145098 0.870588
0.996078 0.133333 0.870588
0.000000 0.345098 0.878431
0.000000 0.349020 0.870588
0.188235 0.341176 0.878431
0.360784 0.333333 0.874510
0.498039 0.341176 0.870588
0.647059 0.329412 0.882353
0.784314 0.325490 0.878431
0.925490 0.313725 0.886275
1.000000 0.305882 0.862745
0.000000 0.486275 0.878431
0.000000 0.478431 0.874510
0.070588 0.470588 0.866667
0.313725 0.466667 0.878431
0.470588 0.466667 0.874510
0.631373 0.462745 0.882353
0.780392 0.450980 0.886275
0.925490 0.443137 0.890196
1.000000 0.439216 0.882353
0.000000 0.623529 0.882353
0.000000 0.623529 0.882353
0.011765 0.619608 0.878431
0.274510 0.603922 0.886275
0.435294 0.588235 0.882353
0.615686 0.588235 0.894118
0.768627 0.584314 0.890196
0.933333 0.576471 0.878431
0.996078 0.572549 0.866667
0.000000 0.760784 0.878431
0.000000 0.756863 0.878431
0.000000 0.760784 0.878431
0.180392 0.764706 0.882353
0.392157 0.756863 0.890196
0.572549 0.745098 0.890196
0.752941 0.737255 0.882353
0.929412 0.733333 0.878431
0.996078 0.741176 0.874510
0.007843 0.913725 0.874510
0.000000 0.917647 0.882353
0.003922 0.909804 0.878431
0.007843 0.913725 0.882353
0.337255 0.909804 0.866667
0.541176 0.905882 0.866667
0.737255 0.905882 0.878431
0.909804 0.898039 0.870588
1.000000 0.894118 0.882353
0.000000 0.996078 0.850980
0.000000 1.000000 0.858824
0.000000 0.992157 0.850980
0.000000 1.000000 0.858824
0.235294 1.000000 0.862745
0.513725 1.000000 0.854902
0.749020 1.000000 0.862745
0.909804 1.000000 0.886275
1.000000 1.000000 0.898039
0.003922 0.000000 0.996078
0.078431 0.000000 1.000000
0.243137 0.003922 1.000000
0.380392 0.000000 1.000000
0.521569 0.000000 1.000000
0.650980 0.000000 1.000000
0.796078 0.000000 0.996078
0.925490 0.003922 0.996078
0.996078 0.000000 1.000000
0.000000 0.031373 0.996078
0.050980 0.031373 0.984314
0.243137 0.007843 1.000000
0.368627 0.003922 1.000000
0.529412 0.000000 1.000000
0.654902 0.000000 0.996078
0.800000 0.000000 1.000000
0.929412 0.007843 1.000000
0.996078 0.000000 1.000000
0.000000 0.196078 1.000000
0.003922 0.200000 1.000000
0.203922 0.196078 1.000000
0.356863 0.184314 1.000000
0.509804 0.172549 0.992157
0.647059 0.156863 0.996078
0.792157 0.121569 1.000000
0.929412 0.054902 1.000000
0.992157 0.007843 1.000000
0.000000 0.333333 0.996078
0.007843 0.329412 1.000000
0.125490 0.321569 1.000000
0.333333 0.317647 1.000000
0.490196 0.321569 1.000000
0.639216 0.305882 1.000000
0.780392 0.290196 0.996078
0.933333 0.270588 1.000000
1.000000 0.239216 0.996078
0.000000 0.458824 0.992157
0.000000 0.454902 1.000000
0.007843 0.443137 1.000000
0.262745 0.443137 1.000000
0.458824 0.447059 1.000000
0.607843 0.431373 0.992157
0.772549 0.427451 1.000000
0.917647 0.415686 1.000000
1.000000 0.392157 1.000000
0.003922 0.596078 1.000000
0.000000 0.600000 1.000000
0.000000 0.592157 1.000000
0.047059 0.584314 0.992157
0.360784 0.560784 0.988235
0.568627 0.556863 1.000000
0.749020 0.552941 1.000000
0.913725 0.541176 0.996078
1.000000 0.525490 0.996078
0.000000 0.756863 0.988235
0.000000 0.749020 1.000000
0.000000 0.745098 0.992157
0.011765 0.733333 1.000000
0.286275 0.725490 0.984314
0.505882 0.709804 1.000000
0.713725 0.698039 0.996078
0.898039 0.698039 1.000000
1.000000 0.682353 1.000000
0.000000 0.901961 1.000000
0.011765 0.898039 0.996078
0.000000 0.894118 1.000000
0.000000 0.886275 0.984314
0.188235 0.882353 1.000000
0.482353 0.874510 1.000000
0.698039 0.866667 1.000000
0.882353 0.882353 0.992157
0.996078 0.894118 0.992157
0.000000 0.996078 1.000000
0.000000 0.996078 0.996078
0.000000 1.000000 0.992157
0.000000 1.000000 1.000000
0.274510 0.996078 0.996078
0.549020 1.000000 1.000000
0.788235 1.000000 1.000000
0.968627 1.000000 1.000000
1.000000 1.000000 1.000000
