loleis/其他/lut20种/Sports LUT #6.cube
TITLE "Sports LUT #6"
#LUT size
LUT_3D_SIZE 25
#LUT data points
0.086275 0.098039 0.125490
0.082353 0.101961 0.125490
0.086275 0.105882 0.129412
0.090196 0.109804 0.133333
0.094118 0.113725 0.137255
0.101961 0.121569 0.145098
0.105882 0.125490 0.149020
0.109804 0.129412 0.152941
0.121569 0.137255 0.172549
0.129412 0.145098 0.180392
0.137255 0.152941 0.188235
0.141176 0.168627 0.200000
0.149020 0.176471 0.207843
0.168627 0.196078 0.227451
0.180392 0.207843 0.239216
0.192157 0.219608 0.258824
0.207843 0.235294 0.274510
0.231373 0.258824 0.290196
0.258824 0.274510 0.309804
0.286275 0.301961 0.337255
0.317647 0.329412 0.356863
0.349020 0.360784 0.388235
0.396078 0.400000 0.419608
0.431373 0.435294 0.454902
0.470588 0.474510 0.482353
0.094118 0.105882 0.133333
0.090196 0.109804 0.133333
0.098039 0.117647 0.141176
0.101961 0.117647 0.152941
0.101961 0.117647 0.152941
0.101961 0.129412 0.152941
0.113725 0.129412 0.164706
0.117647 0.133333 0.168627
0.121569 0.137255 0.172549
0.133333 0.149020 0.184314
0.141176 0.156863 0.192157
0.149020 0.164706 0.207843
0.160784 0.176471 0.219608
0.176471 0.192157 0.227451
0.192157 0.207843 0.243137
0.200000 0.227451 0.258824
0.215686 0.243137 0.274510
0.243137 0.258824 0.294118
0.270588 0.286275 0.321569
0.298039 0.309804 0.345098
0.325490 0.337255 0.364706
0.364706 0.364706 0.396078
0.396078 0.396078 0.427451
0.435294 0.439216 0.454902
0.478431 0.494118 0.505882
0.098039 0.117647 0.141176
0.098039 0.113725 0.149020
0.101961 0.117647 0.152941
0.105882 0.121569 0.156863
0.109804 0.129412 0.152941
0.117647 0.129412 0.156863
0.109804 0.137255 0.160784
0.117647 0.145098 0.176471
0.125490 0.152941 0.184314
0.133333 0.160784 0.192157
0.141176 0.168627 0.200000
0.152941 0.180392 0.211765
0.164706 0.192157 0.223529
0.172549 0.200000 0.231373
0.192157 0.219608 0.250980
0.207843 0.235294 0.266667
0.223529 0.250980 0.282353
0.243137 0.270588 0.301961
0.278431 0.294118 0.329412
0.301961 0.321569 0.345098
0.333333 0.352941 0.376471
0.368627 0.380392 0.407843
0.411765 0.415686 0.431373
0.454902 0.458824 0.474510
0.486275 0.498039 0.517647
0.117647 0.137255 0.160784
0.113725 0.129412 0.164706
0.113725 0.129412 0.164706
0.113725 0.129412 0.164706
0.121569 0.137255 0.172549
0.121569 0.149020 0.180392
0.121569 0.149020 0.180392
0.129412 0.156863 0.188235
0.133333 0.160784 0.192157
0.141176 0.168627 0.200000
0.152941 0.180392 0.211765
0.160784 0.188235 0.219608
0.172549 0.200000 0.231373
0.188235 0.215686 0.247059
0.200000 0.227451 0.258824
0.223529 0.239216 0.282353
0.239216 0.254902 0.298039
0.262745 0.278431 0.313725
0.290196 0.305882 0.341176
0.313725 0.329412 0.364706
0.345098 0.364706 0.388235
0.396078 0.400000 0.415686
0.431373 0.435294 0.454902
0.478431 0.482353 0.498039
0.505882 0.521569 0.533333
0.129412 0.141176 0.168627
0.125490 0.141176 0.176471
0.129412 0.149020 0.172549
0.129412 0.145098 0.180392
0.133333 0.149020 0.184314
0.141176 0.156863 0.192157
0.141176 0.156863 0.192157
0.145098 0.160784 0.196078
0.152941 0.168627 0.203922
0.164706 0.180392 0.215686
0.168627 0.184314 0.219608
0.184314 0.200000 0.235294
0.184314 0.211765 0.250980
0.200000 0.227451 0.266667
0.215686 0.243137 0.274510
0.235294 0.262745 0.294118
0.258824 0.274510 0.309804
0.282353 0.298039 0.333333
0.305882 0.325490 0.349020
0.333333 0.352941 0.376471
0.364706 0.376471 0.396078
0.396078 0.411765 0.423529
0.431373 0.447059 0.458824
0.482353 0.486275 0.501961
0.525490 0.529412 0.545098
0.133333 0.149020 0.184314
0.137255 0.152941 0.188235
0.137255 0.152941 0.188235
0.137255 0.152941 0.188235
0.141176 0.156863 0.192157
0.145098 0.160784 0.196078
0.145098 0.172549 0.203922
0.152941 0.180392 0.211765
0.156863 0.184314 0.215686
0.164706 0.192157 0.223529
0.172549 0.200000 0.231373
0.184314 0.211765 0.243137
0.196078 0.223529 0.254902
0.207843 0.235294 0.266667
0.227451 0.243137 0.278431
0.247059 0.262745 0.298039
0.262745 0.278431 0.313725
0.282353 0.301961 0.325490
0.305882 0.317647 0.345098
0.337255 0.349020 0.368627
0.368627 0.380392 0.400000
0.396078 0.411765 0.423529
0.431373 0.447059 0.458824
0.478431 0.482353 0.498039
0.513725 0.525490 0.545098
0.160784 0.176471 0.211765
0.145098 0.172549 0.203922
0.156863 0.184314 0.215686
0.156863 0.172549 0.207843
0.156863 0.184314 0.215686
0.149020 0.176471 0.207843
0.168627 0.184314 0.219608
0.168627 0.196078 0.227451
0.176471 0.203922 0.235294
0.184314 0.211765 0.243137
0.196078 0.223529 0.254902
0.203922 0.231373 0.262745
0.211765 0.239216 0.270588
0.227451 0.254902 0.286275
0.243137 0.270588 0.301961
0.262745 0.278431 0.313725
0.286275 0.301961 0.337255
0.305882 0.325490 0.349020
0.329412 0.349020 0.372549
0.352941 0.372549 0.388235
0.384314 0.400000 0.411765
0.419608 0.435294 0.447059
0.454902 0.470588 0.474510
0.498039 0.501961 0.517647
0.529412 0.545098 0.556863
0.180392 0.200000 0.223529
0.172549 0.200000 0.231373
0.164706 0.192157 0.223529
0.176471 0.203922 0.243137
0.176471 0.203922 0.235294
0.176471 0.203922 0.243137
0.188235 0.203922 0.239216
0.192157 0.207843 0.243137
0.203922 0.219608 0.254902
0.215686 0.231373 0.274510
0.227451 0.243137 0.278431
0.235294 0.250980 0.286275
0.247059 0.262745 0.298039
0.258824 0.274510 0.309804
0.274510 0.290196 0.325490
0.294118 0.313725 0.337255
0.309804 0.329412 0.352941
0.329412 0.349020 0.372549
0.360784 0.372549 0.392157
0.388235 0.400000 0.419608
0.415686 0.431373 0.443137
0.447059 0.462745 0.474510
0.494118 0.498039 0.513725
0.533333 0.537255 0.552941
0.572549 0.576471 0.596078
0.203922 0.223529 0.247059
0.192157 0.219608 0.250980
0.196078 0.223529 0.254902
0.196078 0.223529 0.254902
0.203922 0.231373 0.270588
0.211765 0.227451 0.262745
0.219608 0.235294 0.270588
0.227451 0.243137 0.278431
0.231373 0.247059 0.282353
0.239216 0.254902 0.290196
0.254902 0.270588 0.305882
0.266667 0.282353 0.317647
0.278431 0.294118 0.329412
0.290196 0.309804 0.333333
0.305882 0.325490 0.349020
0.325490 0.345098 0.368627
0.349020 0.360784 0.388235
0.364706 0.376471 0.403922
0.392157 0.403922 0.423529
0.419608 0.435294 0.447059
0.454902 0.470588 0.482353
0.486275 0.501961 0.505882
0.533333 0.537255 0.552941
0.568627 0.572549 0.580392
0.588235 0.603922 0.615686
0.239216 0.254902 0.290196
0.227451 0.254902 0.294118
0.223529 0.250980 0.282353
0.227451 0.254902 0.294118
0.239216 0.254902 0.290196
0.243137 0.258824 0.294118
0.247059 0.262745 0.298039
0.254902 0.270588 0.305882
0.258824 0.274510 0.309804
0.262745 0.278431 0.313725
0.274510 0.290196 0.325490
0.298039 0.313725 0.349020
0.317647 0.329412 0.356863
0.329412 0.341176 0.368627
0.345098 0.356863 0.384314
0.360784 0.372549 0.392157
0.380392 0.392157 0.411765
0.403922 0.415686 0.435294
0.435294 0.439216 0.458824
0.466667 0.470588 0.486275
0.482353 0.494118 0.513725
0.513725 0.529412 0.541176
0.552941 0.556863 0.572549
0.584314 0.588235 0.603922
0.627451 0.631373 0.647059
0.235294 0.262745 0.294118
0.239216 0.266667 0.298039
0.243137 0.270588 0.309804
0.243137 0.270588 0.309804
0.243137 0.270588 0.309804
0.243137 0.270588 0.309804
0.250980 0.278431 0.309804
0.262745 0.290196 0.321569
0.274510 0.290196 0.325490
0.278431 0.294118 0.329412
0.290196 0.305882 0.341176
0.301961 0.321569 0.345098
0.329412 0.349020 0.372549
0.345098 0.356863 0.384314
0.360784 0.372549 0.400000
0.376471 0.388235 0.415686
0.403922 0.407843 0.427451
0.427451 0.431373 0.450980
0.450980 0.454902 0.470588
0.474510 0.478431 0.494118
0.505882 0.509804 0.525490
0.537255 0.541176 0.556863
0.568627 0.572549 0.588235
0.600000 0.603922 0.611765
0.635294 0.639216 0.654902
0.301961 0.313725 0.341176
0.301961 0.321569 0.345098
0.290196 0.309804 0.333333
0.294118 0.313725 0.337255
0.298039 0.317647 0.341176
0.301961 0.321569 0.337255
0.309804 0.321569 0.349020
0.305882 0.325490 0.349020
0.313725 0.333333 0.356863
0.325490 0.337255 0.356863
0.337255 0.349020 0.368627
0.349020 0.360784 0.380392
0.360784 0.372549 0.392157
0.384314 0.396078 0.415686
0.415686 0.419608 0.439216
0.427451 0.431373 0.450980
0.447059 0.450980 0.470588
0.466667 0.470588 0.490196
0.486275 0.490196 0.509804
0.517647 0.521569 0.537255
0.545098 0.549020 0.564706
0.572549 0.576471 0.584314
0.596078 0.600000 0.607843
0.631373 0.631373 0.639216
0.670588 0.670588 0.678431
0.349020 0.352941 0.372549
0.345098 0.356863 0.376471
0.345098 0.356863 0.376471
0.345098 0.356863 0.384314
0.341176 0.352941 0.372549
0.345098 0.356863 0.384314
0.349020 0.360784 0.388235
0.352941 0.364706 0.392157
0.360784 0.372549 0.400000
0.372549 0.384314 0.411765
0.380392 0.392157 0.411765
0.388235 0.400000 0.419608
0.403922 0.415686 0.435294
0.411765 0.423529 0.443137
0.450980 0.454902 0.470588
0.470588 0.474510 0.490196
0.494118 0.498039 0.513725
0.513725 0.517647 0.533333
0.533333 0.537255 0.552941
0.556863 0.560784 0.568627
0.588235 0.588235 0.596078
0.615686 0.615686 0.623529
0.639216 0.643137 0.650980
0.674510 0.674510 0.682353
0.694118 0.698039 0.705882
0.400000 0.415686 0.427451
0.396078 0.407843 0.427451
0.392157 0.403922 0.423529
0.392157 0.403922 0.423529
0.392157 0.411765 0.435294
0.403922 0.407843 0.427451
0.411765 0.415686 0.435294
0.415686 0.419608 0.439216
0.419608 0.423529 0.443137
0.427451 0.431373 0.450980
0.435294 0.439216 0.454902
0.447059 0.450980 0.466667
0.454902 0.458824 0.474510
0.466667 0.470588 0.490196
0.482353 0.486275 0.505882
0.505882 0.509804 0.529412
0.537255 0.541176 0.560784
0.560784 0.564706 0.580392
0.584314 0.588235 0.603922
0.607843 0.611765 0.619608
0.627451 0.631373 0.639216
0.654902 0.658824 0.666667
0.686275 0.686275 0.694118
0.705882 0.705882 0.705882
0.741176 0.741176 0.741176
0.458824 0.462745 0.478431
0.454902 0.470588 0.482353
0.443137 0.458824 0.462745
0.450980 0.454902 0.470588
0.454902 0.458824 0.474510
0.458824 0.462745 0.478431
0.458824 0.462745 0.478431
0.462745 0.466667 0.482353
0.470588 0.474510 0.490196
0.482353 0.486275 0.501961
0.490196 0.494118 0.509804
0.498039 0.501961 0.517647
0.509804 0.513725 0.529412
0.517647 0.521569 0.537255
0.529412 0.533333 0.549020
0.545098 0.549020 0.564706
0.572549 0.576471 0.592157
0.603922 0.607843 0.615686
0.623529 0.627451 0.635294
0.639216 0.643137 0.650980
0.662745 0.666667 0.674510
0.682353 0.686275 0.694118
0.701961 0.705882 0.713725
0.733333 0.733333 0.741176
0.756863 0.756863 0.764706
0.462745 0.466667 0.474510
0.462745 0.466667 0.482353
0.466667 0.470588 0.486275
0.466667 0.470588 0.486275
0.470588 0.474510 0.490196
0.470588 0.474510 0.490196
0.474510 0.478431 0.494118
0.482353 0.486275 0.494118
0.486275 0.501961 0.513725
0.494118 0.509804 0.521569
0.505882 0.521569 0.533333
0.509804 0.525490 0.537255
0.525490 0.541176 0.552941
0.545098 0.549020 0.564706
0.556863 0.560784 0.576471
0.568627 0.572549 0.588235
0.572549 0.588235 0.592157
0.611765 0.615686 0.623529
0.643137 0.647059 0.654902
0.662745 0.666667 0.674510
0.682353 0.686275 0.694118
0.705882 0.709804 0.717647
0.725490 0.729412 0.737255
0.749020 0.752941 0.760784
0.780392 0.772549 0.784314
0.549020 0.552941 0.572549
0.541176 0.545098 0.564706
0.541176 0.545098 0.560784
0.541176 0.545098 0.560784
0.541176 0.545098 0.560784
0.541176 0.545098 0.560784
0.545098 0.549020 0.564706
0.552941 0.556863 0.572549
0.556863 0.560784 0.576471
0.560784 0.564706 0.580392
0.568627 0.572549 0.588235
0.580392 0.584314 0.600000
0.588235 0.592157 0.607843
0.600000 0.603922 0.619608
0.611765 0.615686 0.623529
0.619608 0.623529 0.631373
0.631373 0.635294 0.643137
0.643137 0.647059 0.654902
0.666667 0.670588 0.678431
0.694118 0.698039 0.705882
0.721569 0.721569 0.729412
0.741176 0.741176 0.749020
0.756863 0.756863 0.764706
0.780392 0.784314 0.792157
0.796078 0.800000 0.807843
0.607843 0.611765 0.627451
0.607843 0.611765 0.627451
0.603922 0.607843 0.623529
0.600000 0.603922 0.619608
0.607843 0.611765 0.619608
0.603922 0.607843 0.623529
0.607843 0.611765 0.619608
0.611765 0.615686 0.631373
0.615686 0.619608 0.635294
0.623529 0.627451 0.635294
0.627451 0.631373 0.639216
0.639216 0.643137 0.650980
0.643137 0.647059 0.654902
0.650980 0.654902 0.662745
0.662745 0.666667 0.674510
0.674510 0.678431 0.686275
0.682353 0.686275 0.694118
0.690196 0.694118 0.709804
0.701961 0.705882 0.721569
0.721569 0.725490 0.741176
0.749020 0.752941 0.768627
0.772549 0.768627 0.788235
0.788235 0.792157 0.800000
0.811765 0.811765 0.819608
0.835294 0.835294 0.843137
0.670588 0.670588 0.678431
0.666667 0.670588 0.678431
0.666667 0.666667 0.674510
0.666667 0.666667 0.674510
0.662745 0.662745 0.670588
0.662745 0.666667 0.674510
0.666667 0.670588 0.678431
0.670588 0.674510 0.682353
0.674510 0.678431 0.686275
0.682353 0.686275 0.694118
0.686275 0.690196 0.698039
0.690196 0.694118 0.701961
0.694118 0.698039 0.705882
0.705882 0.705882 0.713725
0.717647 0.717647 0.725490
0.725490 0.725490 0.733333
0.737255 0.737255 0.745098
0.741176 0.741176 0.749020
0.752941 0.752941 0.760784
0.764706 0.764706 0.772549
0.772549 0.772549 0.780392
0.800000 0.803922 0.811765
0.823529 0.827451 0.835294
0.843137 0.843137 0.843137
0.862745 0.862745 0.854902
0.725490 0.729412 0.737255
0.721569 0.725490 0.733333
0.717647 0.717647 0.717647
0.717647 0.717647 0.717647
0.713725 0.717647 0.725490
0.717647 0.721569 0.729412
0.721569 0.725490 0.733333
0.725490 0.729412 0.737255
0.733333 0.737255 0.745098
0.733333 0.737255 0.745098
0.737255 0.741176 0.749020
0.741176 0.745098 0.752941
0.749020 0.752941 0.760784
0.752941 0.756863 0.764706
0.760784 0.764706 0.772549
0.768627 0.772549 0.780392
0.776471 0.780392 0.788235
0.788235 0.788235 0.788235
0.796078 0.796078 0.796078
0.803922 0.803922 0.803922
0.807843 0.807843 0.807843
0.815686 0.815686 0.815686
0.843137 0.843137 0.843137
0.862745 0.862745 0.862745
0.886275 0.886275 0.886275
0.729412 0.733333 0.741176
0.729412 0.733333 0.741176
0.729412 0.733333 0.741176
0.733333 0.737255 0.745098
0.741176 0.741176 0.749020
0.741176 0.741176 0.749020
0.745098 0.745098 0.752941
0.749020 0.749020 0.756863
0.752941 0.752941 0.752941
0.756863 0.756863 0.756863
0.764706 0.764706 0.764706
0.768627 0.768627 0.768627
0.776471 0.776471 0.776471
0.788235 0.788235 0.788235
0.792157 0.792157 0.792157
0.800000 0.800000 0.800000
0.803922 0.811765 0.807843
0.815686 0.815686 0.815686
0.823529 0.823529 0.823529
0.831373 0.831373 0.831373
0.839216 0.839216 0.839216
0.843137 0.843137 0.843137
0.858824 0.850980 0.854902
0.882353 0.874510 0.878431
0.898039 0.894118 0.878431
0.803922 0.807843 0.815686
0.807843 0.811765 0.819608
0.796078 0.803922 0.800000
0.796078 0.803922 0.800000
0.796078 0.803922 0.800000
0.796078 0.803922 0.792157
0.800000 0.807843 0.803922
0.807843 0.807843 0.807843
0.807843 0.807843 0.807843
0.815686 0.815686 0.815686
0.815686 0.815686 0.815686
0.823529 0.823529 0.831373
0.827451 0.827451 0.835294
0.831373 0.831373 0.839216
0.839216 0.839216 0.839216
0.839216 0.847059 0.843137
0.847059 0.854902 0.850980
0.850980 0.858824 0.854902
0.858824 0.866667 0.862745
0.870588 0.870588 0.870588
0.878431 0.878431 0.878431
0.878431 0.878431 0.878431
0.886275 0.886275 0.886275
0.890196 0.890196 0.890196
0.913725 0.913725 0.905882
0.854902 0.854902 0.854902
0.854902 0.854902 0.854902
0.850980 0.850980 0.850980
0.854902 0.854902 0.854902
0.847059 0.847059 0.839216
0.854902 0.854902 0.854902
0.854902 0.854902 0.854902
0.858824 0.858824 0.858824
0.858824 0.858824 0.858824
0.862745 0.862745 0.862745
0.862745 0.862745 0.862745
0.870588 0.870588 0.870588
0.870588 0.870588 0.870588
0.878431 0.878431 0.878431
0.878431 0.878431 0.878431
0.886275 0.886275 0.886275
0.894118 0.894118 0.894118
0.898039 0.898039 0.898039
0.901961 0.901961 0.901961
0.909804 0.909804 0.909804
0.917647 0.913725 0.905882
0.925490 0.921569 0.913725
0.917647 0.925490 0.921569
0.929412 0.929412 0.921569
0.929412 0.929412 0.921569
0.898039 0.905882 0.901961
0.894118 0.901961 0.898039
0.901961 0.901961 0.894118
0.901961 0.901961 0.894118
0.898039 0.898039 0.890196
0.898039 0.898039 0.898039
0.898039 0.898039 0.898039
0.898039 0.898039 0.898039
0.901961 0.901961 0.901961
0.905882 0.905882 0.905882
0.909804 0.909804 0.909804
0.909804 0.909804 0.909804
0.913725 0.913725 0.913725
0.917647 0.917647 0.917647
0.921569 0.921569 0.921569
0.925490 0.925490 0.925490
0.933333 0.933333 0.933333
0.937255 0.937255 0.937255
0.941176 0.941176 0.941176
0.945098 0.945098 0.945098
0.945098 0.945098 0.945098
0.949020 0.949020 0.949020
0.956863 0.956863 0.956863
0.960784 0.960784 0.952941
0.964706 0.964706 0.956863
0.949020 0.949020 0.956863
0.937255 0.937255 0.945098
0.941176 0.941176 0.941176
0.937255 0.937255 0.945098
0.937255 0.937255 0.937255
0.941176 0.941176 0.941176
0.941176 0.941176 0.941176
0.941176 0.941176 0.941176
0.941176 0.941176 0.941176
0.945098 0.945098 0.945098
0.949020 0.949020 0.949020
0.952941 0.952941 0.952941
0.956863 0.956863 0.956863
0.956863 0.956863 0.956863
0.960784 0.960784 0.960784
0.964706 0.964706 0.964706
0.968627 0.968627 0.968627
0.972549 0.972549 0.972549
0.972549 0.972549 0.972549
0.976471 0.976471 0.976471
0.980392 0.984314 0.992157
0.980392 0.988235 0.984314
0.976471 0.984314 0.980392
0.984314 0.992157 0.988235
0.992157 0.992157 0.992157
0.082353 0.101961 0.125490
0.086275 0.105882 0.129412
0.090196 0.109804 0.133333
0.090196 0.109804 0.133333
0.094118 0.113725 0.137255
0.101961 0.121569 0.145098
0.109804 0.129412 0.152941
0.113725 0.133333 0.156863
0.121569 0.137255 0.172549
0.133333 0.149020 0.184314
0.145098 0.160784 0.196078
0.156863 0.172549 0.207843
0.149020 0.176471 0.207843
0.164706 0.192157 0.223529
0.180392 0.207843 0.239216
0.203922 0.219608 0.254902
0.215686 0.243137 0.282353
0.231373 0.258824 0.298039
0.266667 0.282353 0.317647
0.298039 0.313725 0.349020
0.325490 0.345098 0.368627
0.356863 0.368627 0.388235
0.392157 0.403922 0.423529
0.443137 0.447059 0.462745
0.482353 0.486275 0.501961
0.094118 0.105882 0.133333
0.090196 0.105882 0.141176
0.098039 0.117647 0.141176
0.101961 0.113725 0.141176
0.105882 0.125490 0.149020
0.109804 0.129412 0.152941
0.117647 0.129412 0.156863
0.121569 0.141176 0.164706
0.125490 0.145098 0.168627
0.141176 0.160784 0.184314
0.145098 0.160784 0.196078
0.149020 0.176471 0.207843
0.160784 0.188235 0.219608
0.176471 0.203922 0.235294
0.192157 0.219608 0.250980
0.207843 0.235294 0.266667
0.219608 0.247059 0.278431
0.239216 0.266667 0.298039
0.270588 0.286275 0.321569
0.298039 0.313725 0.349020
0.325490 0.345098 0.368627
0.364706 0.376471 0.403922
0.396078 0.407843 0.427451
0.443137 0.447059 0.462745
0.482353 0.498039 0.509804
0.101961 0.113725 0.141176
0.101961 0.121569 0.145098
0.105882 0.125490 0.149020
0.109804 0.125490 0.160784
0.109804 0.129412 0.152941
0.109804 0.137255 0.168627
0.125490 0.141176 0.176471
0.129412 0.145098 0.180392
0.137255 0.152941 0.188235
0.145098 0.160784 0.196078
0.152941 0.168627 0.203922
0.164706 0.180392 0.215686
0.176471 0.192157 0.227451
0.192157 0.207843 0.243137
0.203922 0.219608 0.266667
0.219608 0.235294 0.278431
0.235294 0.250980 0.294118
0.258824 0.274510 0.317647
0.282353 0.298039 0.333333
0.309804 0.329412 0.352941
0.345098 0.356863 0.384314
0.372549 0.384314 0.403922
0.419608 0.423529 0.439216
0.458824 0.462745 0.478431
0.498039 0.501961 0.517647
0.117647 0.129412 0.156863
0.113725 0.129412 0.164706
0.117647 0.137255 0.160784
0.121569 0.133333 0.168627
0.125490 0.141176 0.176471
0.121569 0.149020 0.180392
0.125490 0.152941 0.184314
0.133333 0.160784 0.192157
0.133333 0.160784 0.192157
0.145098 0.172549 0.203922
0.156863 0.184314 0.215686
0.164706 0.192157 0.223529
0.176471 0.203922 0.235294
0.192157 0.219608 0.258824
0.203922 0.231373 0.270588
0.219608 0.247059 0.278431
0.247059 0.262745 0.298039
0.266667 0.286275 0.309804
0.294118 0.313725 0.337255
0.325490 0.345098 0.368627
0.349020 0.368627 0.384314
0.396078 0.400000 0.419608
0.435294 0.439216 0.458824
0.478431 0.482353 0.498039
0.513725 0.529412 0.541176
0.125490 0.145098 0.168627
0.121569 0.149020 0.180392
0.121569 0.149020 0.172549
0.125490 0.152941 0.184314
0.133333 0.149020 0.184314
0.141176 0.156863 0.192157
0.145098 0.160784 0.196078
0.152941 0.168627 0.203922
0.156863 0.172549 0.207843
0.168627 0.184314 0.219608
0.176471 0.192157 0.227451
0.184314 0.200000 0.235294
0.188235 0.215686 0.247059
0.207843 0.235294 0.266667
0.223529 0.250980 0.282353
0.239216 0.266667 0.298039
0.262745 0.278431 0.313725
0.286275 0.301961 0.337255
0.309804 0.329412 0.352941
0.329412 0.349020 0.372549
0.360784 0.376471 0.388235
0.392157 0.407843 0.419608
0.439216 0.443137 0.458824
0.474510 0.478431 0.494118
0.521569 0.525490 0.541176
0.133333 0.149020 0.184314
0.137255 0.152941 0.188235
0.141176 0.156863 0.192157
0.141176 0.156863 0.192157
0.145098 0.160784 0.196078
0.149020 0.164706 0.200000
0.156863 0.172549 0.207843
0.164706 0.180392 0.215686
0.160784 0.188235 0.219608
0.164706 0.192157 0.223529
0.172549 0.200000 0.231373
0.184314 0.211765 0.243137
0.196078 0.223529 0.254902
0.211765 0.239216 0.270588
0.227451 0.254902 0.286275
0.243137 0.270588 0.301961
0.258824 0.286275 0.317647
0.286275 0.301961 0.337255
0.313725 0.333333 0.356863
0.341176 0.360784 0.384314
0.376471 0.388235 0.407843
0.411765 0.423529 0.443137
0.447059 0.462745 0.474510
0.482353 0.498039 0.509804
0.525490 0.529412 0.549020
0.160784 0.176471 0.211765
0.164706 0.180392 0.223529
0.160784 0.176471 0.211765
0.164706 0.180392 0.223529
0.164706 0.180392 0.223529
0.164706 0.180392 0.215686
0.172549 0.188235 0.231373
0.184314 0.200000 0.235294
0.188235 0.203922 0.239216
0.196078 0.211765 0.247059
0.203922 0.219608 0.262745
0.215686 0.231373 0.274510
0.227451 0.243137 0.286275
0.239216 0.254902 0.298039
0.254902 0.270588 0.305882
0.270588 0.286275 0.321569
0.290196 0.309804 0.333333
0.317647 0.329412 0.356863
0.341176 0.352941 0.380392
0.364706 0.376471 0.396078
0.396078 0.407843 0.427451
0.427451 0.443137 0.454902
0.462745 0.478431 0.490196
0.505882 0.509804 0.525490
0.549020 0.552941 0.568627
0.180392 0.192157 0.227451
0.184314 0.200000 0.235294
0.180392 0.196078 0.239216
0.188235 0.203922 0.247059
0.184314 0.200000 0.235294
0.184314 0.211765 0.250980
0.184314 0.211765 0.250980
0.192157 0.219608 0.258824
0.200000 0.227451 0.266667
0.211765 0.239216 0.278431
0.219608 0.247059 0.286275
0.231373 0.258824 0.290196
0.243137 0.270588 0.301961
0.258824 0.286275 0.317647
0.278431 0.298039 0.321569
0.298039 0.317647 0.341176
0.317647 0.337255 0.360784
0.337255 0.356863 0.380392
0.360784 0.380392 0.396078
0.392157 0.403922 0.423529
0.423529 0.439216 0.450980
0.458824 0.474510 0.486275
0.501961 0.505882 0.521569
0.533333 0.537255 0.552941
0.580392 0.584314 0.603922
0.207843 0.227451 0.250980
0.211765 0.227451 0.262745
0.203922 0.219608 0.254902
0.211765 0.227451 0.262745
0.211765 0.227451 0.270588
0.207843 0.235294 0.266667
0.211765 0.239216 0.270588
0.219608 0.247059 0.278431
0.223529 0.250980 0.282353
0.235294 0.262745 0.294118
0.250980 0.278431 0.309804
0.262745 0.290196 0.321569
0.274510 0.301961 0.333333
0.301961 0.313725 0.349020
0.313725 0.325490 0.360784
0.333333 0.345098 0.372549
0.352941 0.364706 0.392157
0.384314 0.388235 0.407843
0.407843 0.411765 0.431373
0.431373 0.435294 0.450980
0.458824 0.462745 0.478431
0.490196 0.494118 0.501961
0.529412 0.533333 0.541176
0.568627 0.572549 0.580392
0.611765 0.615686 0.631373
0.243137 0.254902 0.282353
0.243137 0.258824 0.294118
0.231373 0.258824 0.290196
0.239216 0.254902 0.298039
0.243137 0.258824 0.294118
0.247059 0.262745 0.298039
0.250980 0.266667 0.301961
0.258824 0.274510 0.309804
0.262745 0.278431 0.313725
0.266667 0.282353 0.317647
0.282353 0.298039 0.333333
0.305882 0.321569 0.356863
0.321569 0.341176 0.364706
0.333333 0.345098 0.372549
0.349020 0.360784 0.388235
0.368627 0.380392 0.407843
0.388235 0.400000 0.427451
0.407843 0.419608 0.439216
0.427451 0.439216 0.458824
0.450980 0.462745 0.482353
0.478431 0.494118 0.505882
0.509804 0.525490 0.537255
0.545098 0.549020 0.564706
0.580392 0.584314 0.600000
0.615686 0.619608 0.635294
0.243137 0.270588 0.301961
0.243137 0.270588 0.301961
0.254902 0.270588 0.305882
0.258824 0.274510 0.309804
0.262745 0.278431 0.313725
0.262745 0.278431 0.313725
0.266667 0.282353 0.317647
0.274510 0.290196 0.325490
0.278431 0.294118 0.329412
0.286275 0.301961 0.337255
0.298039 0.317647 0.341176
