loleis/其他/lut20种/Sports LUT #16.cube
TITLE "Sports LUT #16"
#LUT size
LUT_3D_SIZE 25
#LUT data points
0.086275 0.094118 0.082353
0.098039 0.094118 0.086275
0.125490 0.086275 0.082353
0.133333 0.090196 0.082353
0.160784 0.090196 0.090196
0.188235 0.090196 0.101961
0.207843 0.090196 0.090196
0.247059 0.082353 0.090196
0.274510 0.086275 0.086275
0.313725 0.082353 0.090196
0.360784 0.086275 0.086275
0.400000 0.082353 0.078431
0.454902 0.078431 0.082353
0.509804 0.078431 0.074510
0.564706 0.070588 0.074510
0.611765 0.070588 0.070588
0.670588 0.062745 0.054902
0.717647 0.050980 0.050980
0.768627 0.043137 0.035294
0.819608 0.027451 0.019608
0.866667 0.011765 0.007843
0.901961 0.000000 0.000000
0.952941 0.000000 0.000000
1.000000 0.003922 0.003922
1.000000 0.003922 0.003922
0.094118 0.101961 0.082353
0.098039 0.105882 0.094118
0.117647 0.101961 0.090196
0.145098 0.101961 0.094118
0.156863 0.101961 0.098039
0.172549 0.101961 0.086275
0.211765 0.101961 0.090196
0.235294 0.094118 0.094118
0.270588 0.098039 0.094118
0.313725 0.105882 0.090196
0.352941 0.105882 0.086275
0.403922 0.098039 0.082353
0.450980 0.094118 0.074510
0.505882 0.094118 0.070588
0.560784 0.094118 0.070588
0.619608 0.090196 0.066667
0.670588 0.086275 0.062745
0.721569 0.078431 0.043137
0.772549 0.074510 0.035294
0.819608 0.062745 0.027451
0.854902 0.054902 0.011765
0.905882 0.039216 0.003922
0.949020 0.031373 0.000000
0.984314 0.015686 0.000000
0.996078 0.000000 0.007843
0.090196 0.117647 0.090196
0.113725 0.117647 0.094118
0.113725 0.117647 0.094118
0.141176 0.121569 0.098039
0.152941 0.121569 0.078431
0.180392 0.109804 0.094118
0.207843 0.109804 0.090196
0.243137 0.113725 0.086275
0.274510 0.117647 0.086275
0.309804 0.121569 0.082353
0.352941 0.117647 0.086275
0.403922 0.117647 0.082353
0.458824 0.117647 0.082353
0.509804 0.113725 0.082353
0.560784 0.113725 0.070588
0.611765 0.109804 0.058824
0.666667 0.113725 0.047059
0.713725 0.105882 0.035294
0.772549 0.101961 0.031373
0.815686 0.101961 0.019608
0.858824 0.090196 0.003922
0.901961 0.074510 0.000000
0.941176 0.074510 0.003922
0.996078 0.066667 0.003922
0.996078 0.054902 0.003922
0.090196 0.141176 0.074510
0.098039 0.137255 0.101961
0.117647 0.129412 0.086275
0.141176 0.129412 0.094118
0.160784 0.137255 0.082353
0.184314 0.137255 0.090196
0.211765 0.141176 0.094118
0.243137 0.141176 0.090196
0.266667 0.133333 0.086275
0.309804 0.137255 0.086275
0.360784 0.141176 0.090196
0.411765 0.141176 0.082353
0.458824 0.141176 0.074510
0.513725 0.141176 0.070588
0.564706 0.145098 0.074510
0.619608 0.145098 0.062745
0.662745 0.145098 0.047059
0.709804 0.141176 0.035294
0.764706 0.141176 0.027451
0.803922 0.133333 0.015686
0.847059 0.129412 0.003922
0.898039 0.121569 0.007843
0.941176 0.121569 0.000000
0.980392 0.117647 0.000000
1.000000 0.105882 0.000000
0.090196 0.156863 0.082353
0.101961 0.156863 0.090196
0.109804 0.152941 0.086275
0.129412 0.156863 0.086275
0.145098 0.152941 0.098039
0.188235 0.152941 0.094118
0.200000 0.156863 0.086275
0.247059 0.156863 0.094118
0.274510 0.160784 0.090196
0.321569 0.160784 0.082353
0.364706 0.160784 0.078431
0.407843 0.168627 0.086275
0.454902 0.172549 0.074510
0.509804 0.180392 0.078431
0.560784 0.176471 0.062745
0.611765 0.180392 0.050980
0.662745 0.176471 0.035294
0.717647 0.176471 0.031373
0.768627 0.172549 0.011765
0.811765 0.172549 0.011765
0.847059 0.168627 0.000000
0.898039 0.164706 0.003922
0.933333 0.160784 0.000000
0.976471 0.156863 0.003922
1.000000 0.149020 0.007843
0.094118 0.180392 0.090196
0.090196 0.184314 0.090196
0.117647 0.188235 0.094118
0.137255 0.184314 0.090196
0.149020 0.180392 0.086275
0.184314 0.184314 0.090196
0.211765 0.188235 0.086275
0.254902 0.188235 0.086275
0.286275 0.192157 0.082353
0.329412 0.196078 0.086275
0.372549 0.203922 0.078431
0.415686 0.207843 0.074510
0.466667 0.215686 0.066667
0.525490 0.223529 0.058824
0.584314 0.219608 0.047059
0.631373 0.219608 0.035294
0.690196 0.219608 0.023529
0.733333 0.219608 0.015686
0.784314 0.215686 0.007843
0.823529 0.215686 0.000000
0.866667 0.211765 0.003922
0.901961 0.207843 0.000000
0.949020 0.203922 0.000000
0.992157 0.200000 0.003922
0.996078 0.207843 0.003922
0.094118 0.215686 0.094118
0.109804 0.207843 0.094118
0.125490 0.219608 0.086275
0.137255 0.215686 0.078431
0.156863 0.211765 0.074510
0.196078 0.219608 0.086275
0.215686 0.215686 0.082353
0.243137 0.223529 0.074510
0.286275 0.227451 0.074510
0.325490 0.227451 0.066667
0.368627 0.231373 0.066667
0.423529 0.239216 0.066667
0.470588 0.243137 0.054902
0.529412 0.250980 0.047059
0.580392 0.254902 0.043137
0.631373 0.254902 0.015686
0.682353 0.258824 0.015686
0.729412 0.262745 0.003922
0.776471 0.262745 0.000000
0.819608 0.258824 0.000000
0.862745 0.254902 0.000000
0.909804 0.250980 0.003922
0.949020 0.243137 0.003922
1.000000 0.239216 0.000000
1.000000 0.243137 0.000000
0.078431 0.258824 0.078431
0.086275 0.250980 0.070588
0.109804 0.258824 0.074510
0.129412 0.250980 0.078431
0.168627 0.262745 0.074510
0.188235 0.254902 0.078431
0.223529 0.250980 0.078431
0.250980 0.258824 0.074510
0.290196 0.258824 0.074510
0.341176 0.262745 0.066667
0.384314 0.266667 0.062745
0.431373 0.278431 0.054902
0.478431 0.282353 0.035294
0.533333 0.286275 0.023529
0.584314 0.294118 0.015686
0.635294 0.298039 0.011765
0.682353 0.301961 0.000000
0.729412 0.298039 0.000000
0.772549 0.294118 0.000000
0.811765 0.294118 0.000000
0.858824 0.298039 0.000000
0.905882 0.294118 0.003922
0.956863 0.290196 0.000000
0.992157 0.282353 0.000000
1.000000 0.290196 0.000000
0.062745 0.294118 0.066667
0.074510 0.294118 0.054902
0.105882 0.294118 0.066667
0.137255 0.301961 0.050980
0.164706 0.305882 0.062745
0.196078 0.294118 0.066667
0.227451 0.298039 0.062745
0.270588 0.305882 0.058824
0.305882 0.301961 0.047059
0.341176 0.298039 0.039216
0.384314 0.313725 0.031373
0.435294 0.321569 0.023529
0.474510 0.321569 0.011765
0.537255 0.333333 0.000000
0.584314 0.333333 0.000000
0.635294 0.337255 0.000000
0.682353 0.337255 0.000000
0.729412 0.337255 0.000000
0.772549 0.333333 0.003922
0.819608 0.333333 0.000000
0.862745 0.329412 0.000000
0.898039 0.333333 0.000000
0.941176 0.329412 0.003922
0.988235 0.325490 0.000000
1.000000 0.321569 0.003922
0.035294 0.345098 0.035294
0.062745 0.341176 0.027451
0.090196 0.345098 0.031373
0.117647 0.349020 0.035294
0.160784 0.345098 0.027451
0.203922 0.352941 0.027451
0.239216 0.356863 0.019608
0.274510 0.352941 0.011765
0.313725 0.352941 0.015686
0.352941 0.352941 0.015686
0.396078 0.360784 0.003922
0.439216 0.356863 0.000000
0.498039 0.368627 0.000000
0.541176 0.372549 0.000000
0.584314 0.372549 0.000000
0.631373 0.380392 0.000000
0.674510 0.376471 0.000000
0.721569 0.376471 0.000000
0.764706 0.380392 0.000000
0.807843 0.376471 0.000000
0.854902 0.372549 0.000000
0.898039 0.372549 0.000000
0.937255 0.372549 0.000000
0.976471 0.368627 0.003922
1.000000 0.364706 0.000000
0.000000 0.411765 0.000000
0.003922 0.419608 0.000000
0.070588 0.419608 0.003922
0.117647 0.423529 0.000000
0.156863 0.415686 0.000000
0.196078 0.415686 0.000000
0.247059 0.415686 0.000000
0.290196 0.423529 0.000000
0.333333 0.419608 0.000000
0.376471 0.423529 0.000000
0.423529 0.419608 0.003922
0.458824 0.415686 0.000000
0.505882 0.423529 0.003922
0.552941 0.427451 0.000000
0.607843 0.427451 0.000000
0.662745 0.427451 0.000000
0.698039 0.431373 0.000000
0.737255 0.431373 0.000000
0.784314 0.431373 0.000000
0.823529 0.423529 0.000000
0.866667 0.427451 0.003922
0.913725 0.423529 0.000000
0.956863 0.423529 0.000000
1.000000 0.419608 0.000000
0.992157 0.415686 0.007843
0.000000 0.462745 0.007843
0.000000 0.462745 0.000000
0.027451 0.462745 0.000000
0.098039 0.466667 0.000000
0.156863 0.466667 0.000000
0.192157 0.462745 0.007843
0.250980 0.466667 0.000000
0.290196 0.466667 0.000000
0.333333 0.462745 0.003922
0.384314 0.458824 0.003922
0.427451 0.462745 0.003922
0.470588 0.458824 0.007843
0.513725 0.466667 0.003922
0.556863 0.470588 0.000000
0.607843 0.470588 0.000000
0.658824 0.466667 0.000000
0.698039 0.466667 0.000000
0.741176 0.470588 0.000000
0.780392 0.470588 0.003922
0.831373 0.466667 0.000000
0.870588 0.466667 0.000000
0.909804 0.466667 0.000000
0.949020 0.466667 0.000000
0.992157 0.462745 0.011765
0.996078 0.462745 0.000000
0.000000 0.509804 0.000000
0.000000 0.521569 0.000000
0.000000 0.509804 0.000000
0.074510 0.517647 0.003922
0.133333 0.513725 0.000000
0.196078 0.513725 0.000000
0.235294 0.513725 0.000000
0.282353 0.517647 0.000000
0.337255 0.517647 0.000000
0.376471 0.517647 0.000000
0.423529 0.513725 0.000000
0.462745 0.513725 0.000000
0.509804 0.517647 0.000000
0.564706 0.513725 0.000000
0.607843 0.513725 0.000000
0.658824 0.513725 0.000000
0.701961 0.509804 0.000000
0.741176 0.509804 0.000000
0.784314 0.505882 0.003922
0.827451 0.505882 0.003922
0.870588 0.505882 0.000000
0.909804 0.505882 0.000000
0.949020 0.505882 0.003922
0.992157 0.501961 0.007843
1.000000 0.498039 0.000000
0.003922 0.549020 0.000000
0.007843 0.560784 0.007843
0.003922 0.560784 0.000000
0.007843 0.568627 0.003922
0.101961 0.560784 0.007843
0.180392 0.564706 0.000000
0.235294 0.560784 0.003922
0.278431 0.556863 0.000000
0.321569 0.564706 0.003922
0.376471 0.568627 0.003922
0.419608 0.568627 0.000000
0.466667 0.556863 0.000000
0.513725 0.556863 0.003922
0.564706 0.560784 0.000000
0.603922 0.560784 0.003922
0.654902 0.556863 0.000000
0.698039 0.560784 0.003922
0.737255 0.552941 0.003922
0.776471 0.552941 0.000000
0.819608 0.549020 0.000000
0.866667 0.545098 0.003922
0.909804 0.545098 0.000000
0.941176 0.541176 0.003922
0.984314 0.545098 0.003922
1.000000 0.537255 0.003922
0.000000 0.607843 0.007843
0.000000 0.607843 0.003922
0.003922 0.607843 0.000000
0.003922 0.607843 0.000000
0.082353 0.615686 0.000000
0.149020 0.607843 0.000000
0.219608 0.607843 0.007843
0.270588 0.607843 0.007843
0.321569 0.607843 0.011765
0.368627 0.607843 0.007843
0.415686 0.607843 0.003922
0.470588 0.607843 0.003922
0.509804 0.600000 0.000000
0.560784 0.603922 0.000000
0.603922 0.600000 0.000000
0.647059 0.603922 0.000000
0.690196 0.596078 0.000000
0.729412 0.600000 0.000000
0.772549 0.596078 0.003922
0.819608 0.596078 0.003922
0.854902 0.592157 0.000000
0.905882 0.584314 0.003922
0.941176 0.584314 0.000000
0.976471 0.580392 0.000000
1.000000 0.576471 0.000000
0.003922 0.678431 0.000000
0.000000 0.682353 0.003922
0.000000 0.682353 0.003922
0.000000 0.674510 0.000000
0.031373 0.674510 0.000000
0.133333 0.670588 0.011765
0.211765 0.674510 0.007843
0.270588 0.678431 0.007843
0.325490 0.670588 0.003922
0.368627 0.666667 0.000000
0.423529 0.666667 0.003922
0.474510 0.662745 0.000000
0.521569 0.662745 0.003922
0.564706 0.666667 0.003922
0.611765 0.662745 0.003922
0.654902 0.662745 0.000000
0.705882 0.654902 0.003922
0.749020 0.650980 0.003922
0.796078 0.650980 0.000000
0.835294 0.650980 0.000000
0.874510 0.643137 0.000000
0.909804 0.639216 0.000000
0.956863 0.635294 0.000000
0.992157 0.631373 0.000000
1.000000 0.635294 0.000000
0.011765 0.694118 0.000000
0.000000 0.705882 0.000000
0.000000 0.713725 0.007843
0.000000 0.717647 0.007843
0.003922 0.709804 0.000000
0.105882 0.709804 0.000000
0.184314 0.709804 0.000000
0.247059 0.709804 0.003922
0.305882 0.713725 0.003922
0.368627 0.713725 0.000000
0.415686 0.709804 0.000000
0.458824 0.709804 0.000000
0.505882 0.705882 0.000000
0.556863 0.705882 0.000000
0.607843 0.698039 0.000000
0.654902 0.698039 0.000000
0.698039 0.694118 0.000000
0.745098 0.694118 0.000000
0.788235 0.698039 0.000000
0.835294 0.690196 0.000000
0.870588 0.686275 0.000000
0.917647 0.682353 0.000000
0.952941 0.678431 0.000000
0.992157 0.666667 0.007843
1.000000 0.666667 0.007843
0.003922 0.745098 0.000000
0.000000 0.745098 0.000000
0.000000 0.749020 0.000000
0.003922 0.752941 0.003922
0.003922 0.752941 0.000000
0.062745 0.749020 0.000000
0.160784 0.752941 0.000000
0.239216 0.752941 0.007843
0.305882 0.745098 0.000000
0.349020 0.745098 0.000000
0.403922 0.741176 0.007843
0.462745 0.737255 0.007843
0.501961 0.741176 0.000000
0.537255 0.741176 0.003922
0.600000 0.741176 0.011765
0.643137 0.741176 0.003922
0.690196 0.741176 0.000000
0.733333 0.737255 0.000000
0.780392 0.737255 0.007843
0.827451 0.733333 0.003922
0.870588 0.733333 0.003922
0.913725 0.725490 0.003922
0.952941 0.721569 0.007843
0.980392 0.709804 0.007843
1.000000 0.721569 0.000000
0.000000 0.784314 0.011765
0.000000 0.784314 0.000000
0.000000 0.796078 0.000000
0.000000 0.792157 0.000000
0.015686 0.792157 0.003922
0.000000 0.788235 0.000000
0.133333 0.784314 0.007843
0.219608 0.788235 0.000000
0.274510 0.788235 0.000000
0.349020 0.784314 0.000000
0.403922 0.780392 0.011765
0.443137 0.784314 0.000000
0.490196 0.780392 0.000000
0.541176 0.780392 0.000000
0.592157 0.780392 0.003922
0.639216 0.780392 0.003922
0.682353 0.776471 0.000000
0.725490 0.772549 0.000000
0.772549 0.776471 0.000000
0.819608 0.772549 0.000000
0.862745 0.768627 0.000000
0.905882 0.764706 0.000000
0.941176 0.768627 0.003922
0.984314 0.756863 0.000000
1.000000 0.752941 0.003922
0.003922 0.823529 0.000000
0.003922 0.827451 0.000000
0.000000 0.823529 0.003922
0.000000 0.831373 0.019608
0.003922 0.827451 0.000000
0.003922 0.827451 0.000000
0.105882 0.827451 0.003922
0.207843 0.827451 0.007843
0.274510 0.823529 0.000000
0.313725 0.827451 0.000000
0.384314 0.827451 0.000000
0.431373 0.815686 0.003922
0.494118 0.815686 0.007843
0.537255 0.819608 0.011765
0.588235 0.815686 0.000000
0.635294 0.811765 0.000000
0.678431 0.811765 0.000000
0.717647 0.811765 0.000000
0.764706 0.811765 0.000000
0.807843 0.815686 0.003922
0.854902 0.803922 0.007843
0.905882 0.800000 0.003922
0.941176 0.803922 0.003922
0.980392 0.796078 0.003922
1.000000 0.796078 0.003922
0.000000 0.882353 0.000000
0.000000 0.878431 0.000000
0.007843 0.878431 0.003922
0.000000 0.878431 0.011765
0.000000 0.878431 0.000000
0.007843 0.882353 0.000000
0.082353 0.874510 0.000000
0.184314 0.874510 0.000000
0.262745 0.874510 0.000000
0.313725 0.870588 0.000000
0.376471 0.870588 0.000000
0.431373 0.870588 0.000000
0.486275 0.866667 0.000000
0.533333 0.870588 0.003922
0.584314 0.866667 0.000000
0.627451 0.862745 0.007843
0.678431 0.862745 0.000000
0.721569 0.862745 0.000000
0.772549 0.854902 0.000000
0.815686 0.854902 0.000000
0.858824 0.858824 0.003922
0.898039 0.854902 0.007843
0.945098 0.854902 0.007843
0.984314 0.854902 0.003922
1.000000 0.847059 0.003922
0.000000 0.898039 0.007843
0.000000 0.905882 0.000000
0.003922 0.905882 0.000000
0.003922 0.905882 0.003922
0.003922 0.909804 0.007843
0.003922 0.905882 0.000000
0.000000 0.909804 0.000000
0.164706 0.909804 0.000000
0.235294 0.909804 0.000000
0.309804 0.909804 0.003922
0.364706 0.905882 0.000000
0.419608 0.901961 0.000000
0.466667 0.905882 0.000000
0.521569 0.901961 0.000000
0.564706 0.901961 0.000000
0.607843 0.905882 0.003922
0.658824 0.898039 0.003922
0.709804 0.894118 0.000000
0.756863 0.898039 0.000000
0.796078 0.898039 0.000000
0.843137 0.894118 0.000000
0.898039 0.894118 0.000000
0.941176 0.890196 0.003922
0.984314 0.894118 0.000000
1.000000 0.886275 0.007843
0.003922 0.941176 0.000000
0.000000 0.945098 0.007843
0.000000 0.945098 0.007843
0.000000 0.937255 0.000000
0.000000 0.949020 0.000000
0.000000 0.949020 0.000000
0.007843 0.945098 0.000000
0.113725 0.941176 0.003922
0.223529 0.941176 0.000000
0.298039 0.945098 0.000000
0.345098 0.949020 0.000000
0.403922 0.945098 0.000000
0.466667 0.941176 0.000000
0.513725 0.941176 0.003922
0.564706 0.933333 0.007843
0.607843 0.933333 0.000000
0.658824 0.933333 0.000000
0.701961 0.933333 0.000000
0.749020 0.933333 0.000000
0.788235 0.933333 0.000000
0.835294 0.933333 0.000000
0.878431 0.929412 0.000000
0.925490 0.925490 0.000000
0.976471 0.933333 0.000000
0.996078 0.929412 0.003922
0.000000 0.976471 0.003922
0.000000 0.972549 0.007843
0.003922 0.980392 0.000000
0.011765 0.972549 0.011765
0.000000 0.976471 0.003922
0.000000 0.972549 0.003922
0.011765 0.976471 0.000000
0.090196 0.976471 0.003922
0.207843 0.976471 0.011765
0.274510 0.980392 0.003922
0.329412 0.976471 0.000000
0.400000 0.972549 0.000000
0.435294 0.980392 0.003922
0.501961 0.972549 0.000000
0.549020 0.976471 0.000000
0.603922 0.972549 0.003922
0.643137 0.976471 0.000000
0.694118 0.968627 0.003922
0.733333 0.968627 0.003922
0.776471 0.964706 0.000000
0.823529 0.964706 0.000000
0.870588 0.964706 0.000000
0.913725 0.960784 0.000000
0.980392 0.964706 0.003922
0.996078 0.964706 0.000000
0.011765 0.996078 0.003922
0.000000 1.000000 0.003922
0.000000 1.000000 0.000000
0.000000 1.000000 0.000000
0.003922 1.000000 0.000000
0.000000 1.000000 0.003922
0.000000 0.996078 0.000000
0.031373 1.000000 0.000000
0.172549 1.000000 0.007843
0.266667 1.000000 0.000000
0.317647 1.000000 0.000000
0.384314 1.000000 0.000000
0.431373 1.000000 0.000000
0.482353 1.000000 0.000000
0.533333 1.000000 0.000000
0.584314 1.000000 0.000000
0.635294 1.000000 0.000000
0.682353 1.000000 0.000000
0.733333 0.996078 0.000000
0.776471 1.000000 0.007843
0.823529 1.000000 0.000000
0.870588 1.000000 0.000000
0.913725 1.000000 0.000000
0.960784 1.000000 0.000000
0.992157 0.996078 0.000000
0.090196 0.094118 0.109804
0.109804 0.090196 0.105882
0.125490 0.090196 0.101961
0.137255 0.090196 0.098039
0.149020 0.094118 0.094118
0.188235 0.090196 0.105882
0.207843 0.094118 0.109804
0.247059 0.086275 0.101961
0.270588 0.098039 0.101961
0.309804 0.090196 0.101961
0.360784 0.082353 0.098039
0.411765 0.078431 0.098039
0.458824 0.070588 0.090196
0.509804 0.066667 0.090196
0.564706 0.058824 0.078431
0.615686 0.054902 0.070588
0.670588 0.035294 0.078431
0.717647 0.027451 0.070588
0.764706 0.011765 0.054902
0.811765 0.003922 0.043137
0.862745 0.003922 0.035294
0.905882 0.003922 0.015686
0.949020 0.000000 0.003922
0.988235 0.000000 0.000000
1.000000 0.003922 0.000000
0.082353 0.098039 0.094118
0.101961 0.101961 0.094118
0.121569 0.105882 0.109804
0.145098 0.098039 0.105882
0.160784 0.101961 0.090196
0.180392 0.101961 0.098039
0.215686 0.098039 0.105882
0.235294 0.101961 0.098039
0.274510 0.101961 0.105882
0.321569 0.101961 0.105882
0.360784 0.101961 0.105882
0.407843 0.101961 0.101961
0.454902 0.094118 0.098039
0.517647 0.086275 0.082353
0.572549 0.086275 0.086275
0.619608 0.078431 0.070588
0.674510 0.070588 0.070588
0.725490 0.058824 0.062745
0.772549 0.050980 0.050980
0.819608 0.043137 0.047059
0.858824 0.027451 0.023529
0.905882 0.011765 0.007843
0.949020 0.000000 0.000000
0.988235 0.000000 0.000000
0.996078 0.000000 0.000000
0.082353 0.117647 0.098039
0.105882 0.113725 0.094118
0.113725 0.121569 0.109804
0.133333 0.121569 0.101961
0.156863 0.121569 0.101961
0.176471 0.117647 0.105882
0.207843 0.113725 0.098039
0.243137 0.121569 0.109804
0.274510 0.121569 0.101961
0.309804 0.117647 0.101961
0.352941 0.113725 0.101961
0.403922 0.113725 0.101961
0.458824 0.113725 0.098039
0.513725 0.113725 0.094118
0.564706 0.105882 0.066667
0.611765 0.109804 0.066667
0.666667 0.101961 0.058824
0.717647 0.098039 0.054902
0.764706 0.090196 0.050980
0.815686 0.086275 0.039216
0.862745 0.078431 0.019608
0.901961 0.066667 0.011765
0.941176 0.054902 0.000000
0.988235 0.039216 0.000000
1.000000 0.019608 0.000000
0.098039 0.137255 0.105882
0.090196 0.133333 0.101961
0.113725 0.137255 0.098039
0.125490 0.137255 0.094118
0.164706 0.137255 0.105882
0.176471 0.133333 0.109804
0.203922 0.137255 0.105882
0.239216 0.133333 0.098039
0.270588 0.137255 0.101961
0.309804 0.133333 0.109804
0.356863 0.133333 0.098039
0.407843 0.133333 0.086275
0.454902 0.133333 0.078431
0.505882 0.141176 0.082353
0.556863 0.141176 0.078431
0.615686 0.141176 0.074510
0.662745 0.133333 0.054902
0.713725 0.129412 0.050980
0.760784 0.125490 0.043137
0.811765 0.121569 0.031373
0.854902 0.113725 0.027451
0.890196 0.113725 0.011765
0.929412 0.105882 0.007843
0.980392 0.094118 0.000000
1.000000 0.090196 0.000000
0.090196 0.152941 0.113725
0.094118 0.156863 0.105882
0.121569 0.152941 0.101961
0.133333 0.156863 0.101961
0.160784 0.152941 0.101961
0.172549 0.160784 0.101961
0.211765 0.160784 0.098039
0.243137 0.156863 0.101961
0.282353 0.156863 0.098039
0.325490 0.160784 0.098039
0.368627 0.168627 0.094118
0.403922 0.164706 0.090196
0.462745 0.168627 0.086275
0.509804 0.172549 0.082353
0.564706 0.172549 0.078431
0.607843 0.172549 0.062745
0.662745 0.172549 0.054902
0.713725 0.168627 0.039216
0.756863 0.168627 0.031373
0.803922 0.164706 0.027451
0.850980 0.160784 0.000000
0.894118 0.156863 0.007843
0.933333 0.152941 0.000000
0.968627 0.145098 0.000000
1.000000 0.145098 0.003922
0.094118 0.180392 0.098039
0.098039 0.184314 0.101961
0.125490 0.184314 0.101961
0.137255 0.192157 0.101961
0.160784 0.180392 0.101961
0.184314 0.180392 0.101961
0.211765 0.188235 0.101961
0.243137 0.196078 0.101961
0.278431 0.192157 0.098039
0.329412 0.196078 0.098039
0.376471 0.196078 0.094118
0.415686 0.200000 0.082353
0.474510 0.203922 0.082353
0.525490 0.211765 0.074510
0.588235 0.211765 0.062745
0.639216 0.211765 0.058824
0.678431 0.215686 0.027451
0.729412 0.211765 0.023529
0.776471 0.211765 0.015686
0.819608 0.203922 0.003922
0.866667 0.200000 0.000000
0.905882 0.200000 0.000000
0.945098 0.192157 0.000000
0.992157 0.188235 0.003922
1.000000 0.192157 0.000000
0.078431 0.215686 0.098039
0.098039 0.215686 0.105882
0.113725 0.219608 0.098039
0.137255 0.211765 0.094118
0.152941 0.219608 0.094118
0.180392 0.215686 0.094118
0.219608 0.223529 0.101961
0.254902 0.219608 0.090196
0.294118 0.219608 0.090196
0.329412 0.227451 0.082353
0.368627 0.231373 0.082353
0.423529 0.235294 0.078431
0.470588 0.239216 0.066667
0.525490 0.250980 0.058824
0.576471 0.250980 0.054902
0.635294 0.254902 0.039216
0.682353 0.254902 0.031373
0.733333 0.250980 0.019608
0.768627 0.250980 0.000000
0.811765 0.247059 0.000000
0.854902 0.247059 0.000000
0.905882 0.247059 0.000000
0.945098 0.239216 0.000000
0.984314 0.239216 0.000000
1.000000 0.235294 0.000000
0.070588 0.247059 0.086275
0.078431 0.254902 0.086275
0.109804 0.247059 0.082353
0.141176 0.250980 0.094118
0.156863 0.258824 0.082353
0.188235 0.254902 0.090196
0.227451 0.247059 0.090196
0.258824 0.250980 0.090196
0.290196 0.258824 0.078431
0.341176 0.262745 0.066667
0.388235 0.262745 0.062745
0.435294 0.274510 0.062745
0.478431 0.282353 0.050980
0.529412 0.286275 0.054902
0.580392 0.290196 0.035294
0.623529 0.294118 0.019608
0.678431 0.294118 0.007843
0.725490 0.290196 0.007843
0.772549 0.294118 0.000000
0.815686 0.294118 0.000000
0.862745 0.290196 0.000000
0.905882 0.286275 0.000000
0.949020 0.278431 0.000000
0.980392 0.282353 0.000000
1.000000 0.274510 0.011765
0.054902 0.286275 0.066667
0.074510 0.298039 0.082353
0.105882 0.290196 0.074510
0.121569 0.298039 0.066667
0.152941 0.301961 0.070588
0.188235 0.298039 0.058824
0.239216 0.298039 0.066667
0.266667 0.298039 0.066667
0.298039 0.301961 0.066667
0.337255 0.305882 0.058824
0.380392 0.313725 0.043137
0.431373 0.313725 0.039216
0.490196 0.325490 0.043137
0.533333 0.325490 0.011765
0.580392 0.325490 0.003922
0.635294 0.329412 0.003922
0.682353 0.333333 0.003922
0.725490 0.333333 0.000000
0.764706 0.333333 0.000000
0.807843 0.329412 0.000000
0.854902 0.325490 0.003922
0.898039 0.325490 0.000000
0.949020 0.325490 0.003922
0.988235 0.325490 0.000000
0.996078 0.325490 0.003922
0.023529 0.345098 0.047059
0.047059 0.349020 0.043137
0.082353 0.345098 0.043137
0.117647 0.345098 0.047059
0.160784 0.349020 0.050980
0.184314 0.352941 0.043137
0.219608 0.349020 0.031373
0.278431 0.345098 0.031373
0.313725 0.349020 0.031373
0.345098 0.352941 0.027451
0.392157 0.352941 0.019608
0.439216 0.352941 0.015686
0.490196 0.356863 0.003922
0.533333 0.364706 0.003922
0.584314 0.368627 0.003922
0.631373 0.372549 0.003922
0.678431 0.368627 0.003922
0.721569 0.376471 0.000000
0.764706 0.372549 0.000000
0.807843 0.376471 0.000000
0.850980 0.368627 0.000000
0.894118 0.364706 0.003922
0.933333 0.364706 0.000000
0.980392 0.364706 0.000000
1.000000 0.356863 0.003922
0.000000 0.415686 0.007843
0.000000 0.415686 0.000000
0.047059 0.411765 0.000000
0.105882 0.415686 0.000000
0.145098 0.415686 0.000000
0.196078 0.411765 0.003922
0.247059 0.415686 0.003922
0.290196 0.415686 0.000000
0.325490 0.407843 0.000000
0.368627 0.411765 0.000000
0.419608 0.415686 0.000000
