loleis/其他/lut20种/Sports LUT #7.cube
TITLE "Sports LUT #7"
#LUT size
LUT_3D_SIZE 5
#LUT data points
0.000000 0.000000 0.007843
0.282353 0.000000 0.003922
0.549020 0.000000 0.000000
0.784314 0.000000 0.007843
0.992157 0.000000 0.000000
0.000000 0.282353 0.000000
0.298039 0.282353 0.003922
0.560784 0.266667 0.000000
0.780392 0.250980 0.000000
0.996078 0.231373 0.003922
0.003922 0.541176 0.000000
0.270588 0.537255 0.007843
0.549020 0.545098 0.000000
0.780392 0.505882 0.000000
1.000000 0.498039 0.000000
0.011765 0.760784 0.000000
0.250980 0.749020 0.000000
0.517647 0.752941 0.000000
0.776471 0.760784 0.000000
1.000000 0.756863 0.000000
0.000000 1.000000 0.003922
0.211765 1.000000 0.000000
0.521569 0.996078 0.000000
0.815686 1.000000 0.000000
1.000000 0.996078 0.000000
0.000000 0.000000 0.262745
0.294118 0.000000 0.278431
0.576471 0.003922 0.258824
0.796078 0.000000 0.235294
1.000000 0.003922 0.215686
0.003922 0.301961 0.286275
0.301961 0.290196 0.254902
0.572549 0.278431 0.258824
0.792157 0.262745 0.247059
0.996078 0.239216 0.219608
0.000000 0.564706 0.192157
0.258824 0.556863 0.200000
0.564706 0.549020 0.192157
0.788235 0.521569 0.243137
1.000000 0.498039 0.203922
0.000000 0.772549 0.164706
0.250980 0.764706 0.160784
0.513725 0.768627 0.164706
0.784314 0.764706 0.152941
1.000000 0.764706 0.133333
0.000000 1.000000 0.007843
0.168627 1.000000 0.011765
0.501961 1.000000 0.000000
0.811765 0.996078 0.000000
0.992157 1.000000 0.000000
0.000000 0.000000 0.525490
0.262745 0.000000 0.525490
0.556863 0.000000 0.533333
0.800000 0.000000 0.494118
1.000000 0.000000 0.478431
0.000000 0.247059 0.537255
0.247059 0.231373 0.533333
0.576471 0.219608 0.533333
0.792157 0.262745 0.490196
0.996078 0.250980 0.486275
0.000000 0.560784 0.525490
0.215686 0.549020 0.521569
0.552941 0.541176 0.513725
0.772549 0.533333 0.521569
0.992157 0.505882 0.474510
0.000000 0.772549 0.458824
0.168627 0.768627 0.454902
0.498039 0.768627 0.443137
0.788235 0.768627 0.447059
0.988235 0.756863 0.450980
0.000000 0.996078 0.368627
0.000000 1.000000 0.372549
0.431373 0.996078 0.368627
0.792157 0.996078 0.360784
1.000000 1.000000 0.372549
0.015686 0.000000 0.741176
0.250980 0.000000 0.733333
0.513725 0.000000 0.745098
0.784314 0.000000 0.741176
1.000000 0.000000 0.737255
0.000000 0.227451 0.760784
0.243137 0.219608 0.752941
0.517647 0.211765 0.745098
0.792157 0.192157 0.749020
0.996078 0.192157 0.729412
0.003922 0.498039 0.737255
0.196078 0.490196 0.745098
0.505882 0.486275 0.749020
0.796078 0.478431 0.749020
0.996078 0.474510 0.729412
0.003922 0.768627 0.745098
0.094118 0.776471 0.741176
0.458824 0.776471 0.752941
0.776471 0.764706 0.729412
1.000000 0.745098 0.729412
0.003922 1.000000 0.705882
0.000000 1.000000 0.705882
0.270588 1.000000 0.682353
0.729412 1.000000 0.666667
1.000000 1.000000 0.674510
0.003922 0.000000 0.996078
0.243137 0.003922 1.000000
0.521569 0.000000 1.000000
0.796078 0.000000 0.996078
0.996078 0.000000 1.000000
0.000000 0.196078 1.000000
0.203922 0.196078 1.000000
0.509804 0.172549 0.992157
0.792157 0.121569 1.000000
0.992157 0.007843 1.000000
0.000000 0.458824 0.992157
0.007843 0.443137 1.000000
0.458824 0.447059 1.000000
0.772549 0.427451 1.000000
1.000000 0.392157 1.000000
0.000000 0.756863 0.988235
0.000000 0.745098 0.992157
0.286275 0.725490 0.984314
0.713725 0.698039 0.996078
1.000000 0.682353 1.000000
0.000000 0.996078 1.000000
0.000000 1.000000 0.992157
0.274510 0.996078 0.996078
0.788235 1.000000 1.000000
1.000000 1.000000 1.000000
