loleis/其他/lut20种/Sports LUT #12.cube
TITLE "Sports LUT #12"
#LUT size
LUT_3D_SIZE 5
#LUT data points
0.074510 0.117647 0.101961
0.341176 0.125490 0.105882
0.713725 0.113725 0.090196
0.913725 0.125490 0.098039
0.992157 0.133333 0.117647
0.011765 0.380392 0.074510
0.356863 0.372549 0.074510
0.698039 0.372549 0.058824
0.890196 0.333333 0.090196
1.000000 0.305882 0.117647
0.000000 0.666667 0.003922
0.321569 0.666667 0.000000
0.639216 0.650980 0.003922
0.862745 0.588235 0.113725
1.000000 0.556863 0.156863
0.129412 0.843137 0.172549
0.313725 0.831373 0.188235
0.560784 0.827451 0.188235
0.815686 0.815686 0.188235
1.000000 0.803922 0.211765
0.301961 1.000000 0.309804
0.388235 1.000000 0.325490
0.564706 1.000000 0.329412
0.780392 1.000000 0.329412
0.988235 1.000000 0.337255
0.003922 0.117647 0.376471
0.345098 0.105882 0.376471
0.717647 0.023529 0.368627
0.890196 0.196078 0.360784
0.992157 0.235294 0.349020
0.000000 0.376471 0.368627
0.337255 0.372549 0.368627
0.686275 0.368627 0.356863
0.878431 0.360784 0.345098
1.000000 0.356863 0.349020
0.003922 0.658824 0.345098
0.329412 0.658824 0.352941
0.635294 0.647059 0.345098
0.850980 0.596078 0.376471
0.996078 0.572549 0.380392
0.286275 0.827451 0.392157
0.388235 0.823529 0.411765
0.580392 0.823529 0.396078
0.811765 0.819608 0.400000
1.000000 0.800000 0.400000
0.352941 1.000000 0.439216
0.427451 1.000000 0.439216
0.584314 1.000000 0.439216
0.788235 1.000000 0.435294
0.988235 1.000000 0.439216
0.000000 0.113725 0.662745
0.317647 0.105882 0.654902
0.647059 0.066667 0.654902
0.878431 0.188235 0.611765
0.996078 0.352941 0.592157
0.000000 0.349020 0.662745
0.317647 0.352941 0.654902
0.647059 0.364706 0.654902
0.843137 0.427451 0.607843
0.992157 0.474510 0.619608
0.235294 0.650980 0.650980
0.411765 0.647059 0.647059
0.623529 0.639216 0.635294
0.815686 0.635294 0.635294
1.000000 0.627451 0.631373
0.384314 0.827451 0.623529
0.454902 0.823529 0.619608
0.611765 0.823529 0.619608
0.807843 0.815686 0.619608
1.000000 0.811765 0.619608
0.376471 1.000000 0.600000
0.450980 1.000000 0.611765
0.600000 1.000000 0.607843
0.784314 1.000000 0.600000
0.992157 1.000000 0.603922
0.000000 0.141176 0.835294
0.286275 0.141176 0.831373
0.556863 0.156863 0.831373
0.819608 0.219608 0.819608
1.000000 0.341176 0.807843
0.133333 0.345098 0.831373
0.317647 0.352941 0.819608
0.568627 0.368627 0.831373
0.815686 0.411765 0.823529
1.000000 0.458824 0.807843
0.349020 0.603922 0.815686
0.447059 0.615686 0.823529
0.611765 0.619608 0.819608
0.807843 0.619608 0.815686
1.000000 0.611765 0.807843
0.376471 0.819608 0.803922
0.450980 0.807843 0.811765
0.600000 0.811765 0.811765
0.796078 0.803922 0.800000
1.000000 0.807843 0.803922
0.368627 1.000000 0.796078
0.443137 1.000000 0.796078
0.615686 1.000000 0.807843
0.796078 1.000000 0.800000
0.992157 1.000000 0.803922
0.070588 0.164706 0.996078
0.278431 0.164706 0.996078
0.517647 0.200000 0.996078
0.772549 0.247059 0.996078
1.000000 0.352941 1.000000
0.200000 0.352941 1.000000
0.333333 0.364706 1.000000
0.545098 0.384314 1.000000
0.780392 0.415686 1.000000
1.000000 0.450980 1.000000
0.376471 0.607843 1.000000
0.443137 0.607843 1.000000
0.592157 0.607843 0.996078
0.788235 0.600000 1.000000
1.000000 0.596078 1.000000
0.388235 0.796078 0.996078
0.443137 0.796078 1.000000
0.596078 0.796078 1.000000
0.796078 0.796078 1.000000
0.992157 0.807843 0.988235
0.415686 0.996078 0.996078
0.478431 1.000000 0.996078
0.627451 1.000000 1.000000
0.827451 1.000000 0.996078
1.000000 0.996078 1.000000
