loleis/其他/lut20种/Sports LUT #18.cube
TITLE "Sports LUT #18"
#LUT size
LUT_3D_SIZE 9
#LUT data points
0.000000 0.000000 0.000000
0.192157 0.015686 0.003922
0.376471 0.023529 0.000000
0.513725 0.031373 0.003922
0.650980 0.035294 0.000000
0.745098 0.054902 0.000000
0.839216 0.070588 0.023529
0.921569 0.082353 0.043137
1.000000 0.086275 0.050980
0.003922 0.219608 0.003922
0.172549 0.223529 0.003922
0.356863 0.219608 0.000000
0.513725 0.200000 0.000000
0.635294 0.184314 0.000000
0.745098 0.176471 0.000000
0.827451 0.168627 0.027451
0.909804 0.160784 0.047059
1.000000 0.164706 0.062745
0.000000 0.384314 0.000000
0.125490 0.388235 0.007843
0.352941 0.372549 0.003922
0.501961 0.356863 0.000000
0.631373 0.333333 0.003922
0.733333 0.313725 0.007843
0.823529 0.301961 0.047059
0.917647 0.286275 0.070588
1.000000 0.278431 0.082353
0.000000 0.517647 0.000000
0.050980 0.509804 0.000000
0.309804 0.509804 0.003922
0.494118 0.501961 0.003922
0.627451 0.478431 0.000000
0.713725 0.447059 0.027451
0.803922 0.419608 0.078431
0.901961 0.403922 0.086275
0.996078 0.396078 0.082353
0.000000 0.619608 0.003922
0.027451 0.623529 0.000000
0.278431 0.619608 0.003922
0.439216 0.611765 0.000000
0.592157 0.607843 0.000000
0.713725 0.580392 0.000000
0.800000 0.545098 0.050980
0.905882 0.525490 0.113725
1.000000 0.525490 0.113725
0.000000 0.717647 0.027451
0.082353 0.713725 0.023529
0.262745 0.701961 0.023529
0.403922 0.705882 0.023529
0.545098 0.690196 0.031373
0.678431 0.690196 0.027451
0.788235 0.674510 0.039216
0.894118 0.654902 0.062745
1.000000 0.647059 0.113725
0.000000 0.788235 0.066667
0.094118 0.792157 0.070588
0.243137 0.792157 0.066667
0.388235 0.788235 0.062745
0.513725 0.780392 0.054902
0.643137 0.784314 0.062745
0.768627 0.768627 0.047059
0.894118 0.768627 0.050980
1.000000 0.768627 0.015686
0.007843 0.898039 0.058824
0.090196 0.909804 0.066667
0.247059 0.901961 0.070588
0.384314 0.905882 0.062745
0.505882 0.901961 0.054902
0.635294 0.901961 0.027451
0.760784 0.894118 0.027451
0.890196 0.894118 0.007843
1.000000 0.901961 0.003922
0.000000 0.996078 0.000000
0.003922 1.000000 0.000000
0.215686 1.000000 0.000000
0.356863 1.000000 0.000000
0.494118 1.000000 0.000000
0.623529 0.996078 0.000000
0.752941 1.000000 0.000000
0.878431 1.000000 0.003922
0.996078 1.000000 0.000000
0.000000 0.000000 0.219608
0.176471 0.003922 0.211765
0.372549 0.003922 0.207843
0.517647 0.019608 0.188235
0.639216 0.047059 0.168627
0.752941 0.070588 0.168627
0.835294 0.094118 0.164706
0.913725 0.113725 0.160784
0.996078 0.101961 0.160784
0.000000 0.219608 0.207843
0.168627 0.215686 0.215686
0.349020 0.211765 0.203922
0.509804 0.200000 0.180392
0.635294 0.192157 0.176471
0.737255 0.180392 0.164706
0.819608 0.184314 0.164706
0.913725 0.176471 0.168627
1.000000 0.176471 0.164706
0.000000 0.384314 0.152941
0.078431 0.380392 0.160784
0.345098 0.376471 0.145098
0.505882 0.356863 0.172549
0.627451 0.341176 0.180392
0.737255 0.317647 0.176471
0.811765 0.305882 0.180392
0.909804 0.294118 0.172549
1.000000 0.282353 0.160784
0.000000 0.509804 0.125490
0.007843 0.501961 0.113725
0.290196 0.505882 0.109804
0.478431 0.494118 0.113725
0.619608 0.474510 0.129412
0.717647 0.447059 0.176471
0.811765 0.427451 0.188235
0.905882 0.411765 0.184314
1.000000 0.403922 0.180392
0.003922 0.615686 0.125490
0.000000 0.615686 0.109804
0.274510 0.611765 0.121569
0.435294 0.611765 0.113725
0.592157 0.600000 0.117647
0.701961 0.572549 0.129412
0.796078 0.545098 0.164706
0.901961 0.529412 0.200000
1.000000 0.521569 0.184314
0.000000 0.701961 0.156863
0.070588 0.701961 0.152941
0.254902 0.698039 0.149020
0.403922 0.694118 0.156863
0.541176 0.690196 0.152941
0.674510 0.682353 0.149020
0.796078 0.666667 0.152941
0.898039 0.647059 0.164706
0.996078 0.643137 0.196078
0.000000 0.780392 0.152941
0.078431 0.792157 0.156863
0.239216 0.784314 0.152941
0.380392 0.780392 0.149020
0.501961 0.784314 0.149020
0.635294 0.776471 0.149020
0.772549 0.780392 0.156863
0.890196 0.776471 0.141176
0.996078 0.760784 0.141176
0.000000 0.898039 0.145098
0.078431 0.905882 0.149020
0.247059 0.901961 0.149020
0.376471 0.901961 0.145098
0.501961 0.901961 0.137255
0.639216 0.898039 0.137255
0.764706 0.898039 0.121569
0.882353 0.890196 0.117647
1.000000 0.890196 0.105882
0.000000 1.000000 0.066667
0.000000 0.996078 0.062745
0.200000 1.000000 0.070588
0.352941 1.000000 0.058824
0.490196 1.000000 0.058824
0.627451 1.000000 0.050980
0.760784 1.000000 0.054902
0.886275 1.000000 0.058824
0.996078 1.000000 0.054902
0.000000 0.000000 0.372549
0.156863 0.000000 0.380392
0.356863 0.000000 0.376471
0.517647 0.000000 0.360784
0.643137 0.035294 0.333333
0.741176 0.121569 0.321569
0.819608 0.176471 0.321569
0.905882 0.188235 0.309804
0.992157 0.168627 0.305882
0.000000 0.188235 0.364706
0.094118 0.180392 0.376471
0.349020 0.176471 0.376471
0.517647 0.184314 0.349020
0.623529 0.211765 0.333333
0.733333 0.223529 0.325490
0.811765 0.231373 0.317647
0.909804 0.231373 0.305882
1.000000 0.219608 0.294118
0.003922 0.380392 0.364706
0.003922 0.380392 0.372549
0.337255 0.372549 0.368627
0.494118 0.360784 0.352941
0.623529 0.356863 0.352941
0.729412 0.345098 0.341176
0.811765 0.325490 0.325490
0.905882 0.317647 0.313725
1.000000 0.305882 0.305882
0.003922 0.505882 0.313725
0.011765 0.505882 0.317647
0.282353 0.501961 0.309804
0.474510 0.501961 0.298039
0.607843 0.474510 0.325490
0.705882 0.458824 0.329412
0.800000 0.443137 0.329412
0.901961 0.427451 0.321569
1.000000 0.415686 0.309804
0.000000 0.619608 0.290196
0.000000 0.615686 0.282353
0.254902 0.615686 0.290196
0.431373 0.607843 0.290196
0.588235 0.600000 0.282353
0.698039 0.572549 0.278431
0.788235 0.545098 0.321569
0.890196 0.541176 0.321569
0.996078 0.529412 0.301961
0.000000 0.705882 0.286275
0.090196 0.698039 0.290196
0.262745 0.698039 0.294118
0.403922 0.698039 0.294118
0.545098 0.690196 0.286275
0.678431 0.682353 0.282353
0.792157 0.666667 0.270588
0.898039 0.650980 0.286275
1.000000 0.647059 0.301961
0.000000 0.776471 0.286275
0.082353 0.788235 0.266667
0.247059 0.784314 0.274510
0.380392 0.784314 0.262745
0.505882 0.780392 0.262745
0.647059 0.776471 0.266667
0.772549 0.776471 0.274510
0.901961 0.772549 0.266667
0.996078 0.768627 0.243137
0.007843 0.894118 0.266667
0.050980 0.894118 0.254902
0.235294 0.894118 0.274510
0.368627 0.898039 0.254902
0.501961 0.898039 0.247059
0.627451 0.894118 0.247059
0.752941 0.894118 0.235294
0.886275 0.894118 0.231373
0.992157 0.898039 0.231373
0.000000 1.000000 0.223529
0.007843 1.000000 0.207843
0.176471 1.000000 0.215686
0.345098 1.000000 0.207843
0.482353 1.000000 0.215686
0.619608 1.000000 0.200000
0.752941 1.000000 0.211765
0.886275 1.000000 0.207843
0.992157 0.996078 0.203922
0.000000 0.000000 0.513725
0.109804 0.000000 0.498039
0.313725 0.000000 0.513725
0.490196 0.000000 0.501961
0.643137 0.000000 0.490196
0.745098 0.090196 0.450980
0.815686 0.168627 0.439216
0.909804 0.207843 0.435294
0.988235 0.227451 0.431373
0.011765 0.152941 0.521569
0.043137 0.160784 0.498039
0.290196 0.152941 0.505882
0.486275 0.129412 0.501961
0.627451 0.160784 0.474510
0.725490 0.196078 0.454902
0.815686 0.243137 0.435294
0.913725 0.258824 0.439216
0.996078 0.266667 0.419608
0.000000 0.341176 0.513725
0.003922 0.325490 0.513725
0.286275 0.317647 0.501961
0.498039 0.317647 0.509804
0.627451 0.333333 0.486275
0.709804 0.345098 0.458824
0.796078 0.368627 0.458824
0.898039 0.364706 0.450980
1.000000 0.337255 0.439216
0.000000 0.505882 0.498039
0.000000 0.501961 0.498039
0.262745 0.505882 0.501961
0.462745 0.486275 0.478431
0.600000 0.482353 0.482353
0.686275 0.474510 0.474510
0.784314 0.466667 0.462745
0.890196 0.458824 0.454902
1.000000 0.439216 0.439216
0.000000 0.611765 0.458824
0.000000 0.611765 0.454902
0.250980 0.611765 0.450980
0.423529 0.607843 0.435294
0.592157 0.592157 0.443137
0.694118 0.572549 0.450980
0.776471 0.564706 0.462745
0.874510 0.556863 0.443137
1.000000 0.541176 0.423529
0.000000 0.705882 0.427451
0.125490 0.701961 0.427451
0.274510 0.701961 0.439216
0.411765 0.698039 0.427451
0.552941 0.690196 0.423529
0.678431 0.690196 0.419608
0.784314 0.662745 0.407843
0.890196 0.658824 0.431373
1.000000 0.654902 0.435294
0.003922 0.780392 0.400000
0.109804 0.780392 0.403922
0.243137 0.788235 0.400000
0.376471 0.784314 0.396078
0.505882 0.780392 0.396078
0.639216 0.772549 0.392157
0.768627 0.776471 0.396078
0.898039 0.768627 0.388235
1.000000 0.772549 0.380392
0.000000 0.901961 0.376471
0.007843 0.898039 0.376471
0.211765 0.898039 0.384314
0.352941 0.901961 0.380392
0.494118 0.898039 0.376471
0.627451 0.890196 0.372549
0.749020 0.890196 0.364706
0.898039 0.890196 0.360784
1.000000 0.890196 0.341176
0.000000 1.000000 0.341176
0.000000 1.000000 0.325490
0.098039 1.000000 0.341176
0.317647 1.000000 0.321569
0.474510 0.996078 0.333333
0.603922 1.000000 0.329412
0.749020 1.000000 0.325490
0.882353 1.000000 0.321569
0.996078 1.000000 0.329412
0.000000 0.011765 0.611765
0.066667 0.007843 0.607843
0.262745 0.000000 0.607843
0.435294 0.000000 0.603922
0.607843 0.000000 0.611765
0.733333 0.000000 0.592157
0.815686 0.133333 0.568627
0.898039 0.192157 0.541176
0.996078 0.203922 0.525490
0.000000 0.152941 0.600000
0.003922 0.152941 0.588235
0.266667 0.145098 0.615686
0.435294 0.149020 0.611765
0.600000 0.129412 0.611765
0.721569 0.156863 0.592157
0.803922 0.219608 0.549020
0.913725 0.243137 0.541176
1.000000 0.247059 0.533333
0.000000 0.305882 0.607843
0.007843 0.305882 0.603922
0.250980 0.305882 0.600000
0.431373 0.301961 0.611765
0.596078 0.294118 0.607843
0.717647 0.313725 0.584314
0.800000 0.341176 0.556863
0.894118 0.352941 0.552941
1.000000 0.349020 0.545098
0.000000 0.443137 0.600000
0.000000 0.454902 0.596078
0.250980 0.454902 0.611765
0.427451 0.447059 0.603922
0.588235 0.439216 0.600000
0.698039 0.458824 0.580392
0.780392 0.466667 0.564706
0.882353 0.466667 0.556863
0.996078 0.447059 0.549020
0.000000 0.596078 0.607843
0.000000 0.603922 0.596078
0.254902 0.603922 0.596078
0.423529 0.596078 0.592157
0.572549 0.588235 0.592157
0.666667 0.584314 0.580392
0.768627 0.580392 0.580392
0.878431 0.564706 0.560784
0.996078 0.549020 0.545098
0.000000 0.705882 0.568627
0.133333 0.698039 0.560784
0.286275 0.694118 0.564706
0.415686 0.690196 0.556863
0.541176 0.686275 0.552941
0.666667 0.682353 0.552941
0.780392 0.666667 0.549020
0.878431 0.666667 0.556863
1.000000 0.658824 0.541176
0.000000 0.780392 0.525490
0.094118 0.784314 0.529412
0.243137 0.788235 0.525490
0.372549 0.784314 0.521569
0.505882 0.784314 0.517647
0.635294 0.780392 0.517647
0.768627 0.772549 0.513725
0.890196 0.772549 0.490196
1.000000 0.768627 0.521569
0.003922 0.901961 0.498039
0.000000 0.898039 0.501961
0.129412 0.898039 0.498039
0.329412 0.905882 0.498039
0.474510 0.901961 0.490196
0.627451 0.898039 0.482353
0.752941 0.890196 0.482353
0.886275 0.894118 0.474510
0.996078 0.894118 0.462745
0.000000 1.000000 0.454902
0.000000 1.000000 0.450980
0.000000 1.000000 0.450980
0.247059 1.000000 0.443137
0.431373 1.000000 0.447059
0.596078 1.000000 0.447059
0.737255 1.000000 0.443137
0.870588 1.000000 0.439216
0.992157 1.000000 0.439216
0.003922 0.039216 0.678431
0.027451 0.039216 0.686275
0.243137 0.043137 0.682353
0.396078 0.031373 0.686275
0.541176 0.027451 0.686275
0.682353 0.031373 0.690196
0.807843 0.074510 0.674510
0.905882 0.160784 0.654902
0.988235 0.176471 0.639216
0.003922 0.145098 0.678431
0.003922 0.152941 0.682353
0.231373 0.149020 0.686275
0.380392 0.156863 0.678431
0.541176 0.145098 0.694118
0.678431 0.160784 0.698039
0.811765 0.172549 0.678431
0.909804 0.219608 0.654902
0.996078 0.227451 0.658824
0.000000 0.286275 0.698039
0.003922 0.282353 0.690196
0.231373 0.290196 0.686275
0.388235 0.290196 0.690196
0.545098 0.282353 0.686275
0.670588 0.286275 0.674510
0.807843 0.298039 0.674510
0.898039 0.325490 0.650980
0.992157 0.333333 0.639216
0.000000 0.419608 0.690196
0.039216 0.423529 0.678431
0.250980 0.419608 0.686275
0.396078 0.423529 0.690196
0.541176 0.427451 0.690196
0.682353 0.419608 0.690196
0.792157 0.435294 0.674510
0.894118 0.443137 0.666667
1.000000 0.439216 0.658824
0.003922 0.545098 0.686275
0.082353 0.549020 0.674510
0.258824 0.556863 0.690196
0.396078 0.556863 0.682353
0.537255 0.556863 0.674510
0.666667 0.552941 0.674510
0.780392 0.560784 0.666667
0.886275 0.556863 0.658824
1.000000 0.533333 0.643137
0.000000 0.690196 0.682353
0.137255 0.678431 0.678431
0.274510 0.682353 0.686275
0.403922 0.686275 0.682353
0.525490 0.678431 0.674510
0.650980 0.666667 0.662745
0.764706 0.662745 0.658824
0.886275 0.658824 0.654902
0.996078 0.643137 0.643137
0.000000 0.784314 0.643137
0.023529 0.784314 0.639216
0.219608 0.784314 0.654902
0.349020 0.780392 0.643137
0.482353 0.788235 0.635294
0.631373 0.780392 0.627451
0.760784 0.780392 0.623529
0.905882 0.764706 0.623529
1.000000 0.756863 0.635294
0.000000 0.894118 0.623529
0.000000 0.901961 0.627451
0.000000 0.898039 0.627451
0.243137 0.894118 0.611765
0.403922 0.901961 0.592157
0.580392 0.898039 0.596078
0.741176 0.894118 0.584314
0.898039 0.890196 0.588235
0.996078 0.882353 0.576471
0.003922 0.996078 0.568627
0.003922 0.996078 0.576471
0.000000 1.000000 0.560784
0.003922 1.000000 0.552941
0.360784 0.996078 0.556863
0.556863 0.996078 0.556863
0.725490 1.000000 0.560784
0.866667 1.000000 0.560784
1.000000 1.000000 0.560784
0.000000 0.050980 0.772549
0.015686 0.054902 0.772549
0.215686 0.058824 0.780392
0.372549 0.058824 0.776471
0.509804 0.062745 0.780392
0.643137 0.062745 0.776471
0.776471 0.082353 0.784314
0.901961 0.094118 0.772549
1.000000 0.125490 0.776471
0.003922 0.152941 0.776471
0.003922 0.156863 0.772549
0.215686 0.152941 0.776471
0.368627 0.156863 0.776471
0.505882 0.152941 0.772549
0.643137 0.168627 0.776471
0.772549 0.168627 0.780392
0.909804 0.168627 0.772549
1.000000 0.192157 0.768627
0.000000 0.278431 0.780392
0.023529 0.278431 0.780392
0.223529 0.274510 0.776471
0.372549 0.274510 0.772549
0.513725 0.274510 0.780392
0.639216 0.278431 0.776471
0.772549 0.274510 0.780392
0.894118 0.282353 0.772549
1.000000 0.294118 0.768627
0.000000 0.403922 0.784314
0.074510 0.403922 0.788235
0.231373 0.403922 0.784314
0.384314 0.407843 0.784314
0.513725 0.407843 0.788235
0.639216 0.403922 0.780392
0.776471 0.407843 0.788235
0.909804 0.407843 0.780392
1.000000 0.411765 0.764706
0.000000 0.521569 0.776471
0.082353 0.525490 0.784314
0.247059 0.525490 0.784314
0.372549 0.525490 0.780392
0.505882 0.525490 0.784314
0.639216 0.525490 0.784314
0.776471 0.513725 0.776471
0.905882 0.517647 0.772549
1.000000 0.509804 0.768627
0.000000 0.643137 0.780392
0.054902 0.654902 0.776471
0.215686 0.647059 0.776471
0.364706 0.650980 0.780392
0.490196 0.639216 0.780392
0.619608 0.635294 0.772549
0.776471 0.627451 0.780392
0.901961 0.627451 0.768627
1.000000 0.615686 0.764706
0.000000 0.776471 0.776471
0.000000 0.772549 0.776471
0.176471 0.772549 0.776471
0.325490 0.780392 0.776471
0.458824 0.780392 0.772549
0.615686 0.780392 0.776471
0.752941 0.768627 0.764706
0.898039 0.760784 0.752941
0.996078 0.756863 0.745098
0.000000 0.898039 0.768627
0.003922 0.898039 0.752941
0.000000 0.894118 0.749020
0.192157 0.898039 0.752941
0.384314 0.901961 0.745098
0.552941 0.901961 0.729412
0.721569 0.901961 0.721569
0.890196 0.894118 0.721569
1.000000 0.882353 0.721569
0.000000 1.000000 0.725490
0.003922 0.996078 0.733333
0.000000 1.000000 0.721569
0.000000 1.000000 0.733333
0.294118 1.000000 0.701961
0.509804 0.996078 0.709804
0.698039 1.000000 0.705882
0.854902 1.000000 0.698039
1.000000 0.996078 0.701961
0.000000 0.062745 0.882353
0.031373 0.054902 0.901961
0.223529 0.054902 0.886275
0.352941 0.054902 0.894118
0.490196 0.058824 0.894118
0.623529 0.066667 0.882353
0.756863 0.062745 0.886275
0.890196 0.054902 0.894118
1.000000 0.031373 0.898039
0.000000 0.149020 0.890196
0.015686 0.152941 0.890196
0.219608 0.141176 0.898039
0.356863 0.152941 0.890196
0.505882 0.156863 0.901961
0.635294 0.156863 0.890196
0.760784 0.152941 0.890196
0.894118 0.152941 0.901961
1.000000 0.133333 0.894118
0.000000 0.274510 0.894118
0.019608 0.270588 0.890196
0.219608 0.266667 0.894118
0.356863 0.274510 0.882353
0.490196 0.274510 0.886275
0.627451 0.266667 0.890196
0.760784 0.266667 0.890196
0.894118 0.258824 0.898039
0.996078 0.247059 0.894118
0.003922 0.384314 0.894118
0.000000 0.396078 0.898039
0.227451 0.384314 0.901961
0.356863 0.388235 0.886275
0.501961 0.384314 0.894118
0.627451 0.388235 0.894118
0.760784 0.388235 0.898039
0.894118 0.380392 0.898039
1.000000 0.368627 0.905882
0.011765 0.509804 0.890196
0.000000 0.509804 0.894118
0.180392 0.501961 0.890196
0.341176 0.494118 0.898039
0.482353 0.501961 0.901961
0.619608 0.494118 0.890196
0.756863 0.494118 0.898039
0.890196 0.486275 0.898039
0.996078 0.482353 0.898039
0.000000 0.631373 0.901961
0.000000 0.631373 0.894118
0.113725 0.627451 0.894118
0.309804 0.623529 0.894118
0.447059 0.611765 0.901961
0.600000 0.607843 0.898039
0.752941 0.603922 0.905882
0.898039 0.596078 0.901961
1.000000 0.592157 0.886275
0.011765 0.756863 0.898039
0.003922 0.756863 0.898039
0.000000 0.752941 0.894118
0.254902 0.764706 0.898039
0.415686 0.749020 0.894118
0.564706 0.741176 0.901961
0.729412 0.737255 0.898039
0.901961 0.737255 0.894118
1.000000 0.733333 0.886275
0.000000 0.894118 0.890196
0.007843 0.890196 0.905882
0.000000 0.898039 0.886275
0.074510 0.898039 0.886275
0.352941 0.894118 0.901961
0.541176 0.894118 0.886275
0.713725 0.894118 0.886275
0.886275 0.886275 0.886275
1.000000 0.890196 0.886275
0.000000 1.000000 0.878431
0.003922 1.000000 0.878431
0.000000 1.000000 0.882353
0.000000 0.992157 0.870588
0.274510 1.000000 0.850980
0.509804 0.996078 0.862745
0.705882 1.000000 0.862745
0.858824 0.996078 0.866667
0.996078 1.000000 0.874510
0.000000 0.050980 1.000000
0.023529 0.050980 0.988235
0.223529 0.050980 1.000000
0.364706 0.047059 0.996078
0.482353 0.047059 0.996078
0.627451 0.043137 0.992157
0.756863 0.027451 0.996078
0.886275 0.003922 1.000000
1.000000 0.003922 1.000000
0.003922 0.145098 1.000000
0.015686 0.145098 1.000000
0.215686 0.149020 1.000000
0.364706 0.145098 1.000000
0.505882 0.149020 1.000000
0.631373 0.145098 1.000000
0.756863 0.137255 0.996078
0.886275 0.125490 0.992157
1.000000 0.094118 0.996078
0.007843 0.262745 0.992157
0.000000 0.266667 1.000000
0.207843 0.266667 1.000000
0.356863 0.258824 0.996078
0.490196 0.258824 0.996078
0.627451 0.254902 1.000000
0.756863 0.250980 0.992157
0.886275 0.235294 0.996078
1.000000 0.215686 1.000000
0.000000 0.384314 0.996078
0.000000 0.380392 1.000000
0.196078 0.376471 0.996078
0.345098 0.376471 1.000000
0.486275 0.376471 1.000000
0.623529 0.368627 1.000000
0.749020 0.364706 1.000000
0.890196 0.352941 1.000000
0.996078 0.341176 1.000000
0.000000 0.494118 0.992157
0.000000 0.486275 1.000000
0.086275 0.482353 1.000000
0.301961 0.486275 1.000000
0.478431 0.478431 1.000000
0.603922 0.478431 1.000000
0.745098 0.470588 1.000000
0.882353 0.466667 1.000000
1.000000 0.450980 1.000000
0.000000 0.611765 1.000000
0.000000 0.615686 1.000000
0.007843 0.603922 0.992157
0.223529 0.600000 1.000000
0.411765 0.584314 0.996078
0.568627 0.584314 1.000000
0.725490 0.580392 0.996078
0.874510 0.568627 1.000000
1.000000 0.560784 1.000000
0.000000 0.737255 0.996078
0.000000 0.741176 1.000000
0.003922 0.737255 1.000000
0.149020 0.729412 1.000000
0.364706 0.725490 1.000000
0.529412 0.713725 0.996078
0.698039 0.705882 0.996078
0.862745 0.701961 1.000000
0.996078 0.705882 1.000000
0.007843 0.870588 0.996078
0.000000 0.874510 0.996078
0.007843 0.870588 1.000000
0.000000 0.866667 1.000000
0.317647 0.858824 1.000000
0.509804 0.862745 1.000000
0.690196 0.858824 0.996078
0.866667 0.866667 1.000000
1.000000 0.866667 0.996078
0.003922 1.000000 1.000000
0.000000 1.000000 1.000000
0.003922 1.000000 1.000000
0.000000 1.000000 1.000000
0.290196 0.996078 0.992157
0.517647 1.000000 1.000000
0.709804 1.000000 1.000000
0.890196 1.000000 1.000000
1.000000 1.000000 1.000000
