loleis/其他/lut20种/Sports LUT #7.cube
TITLE "Sports LUT #7"
#LUT size
LUT_3D_SIZE 25
#LUT data points
0.000000 0.000000 0.007843
0.000000 0.000000 0.000000
0.062745 0.000000 0.000000
0.125490 0.003922 0.000000
0.180392 0.000000 0.000000
0.235294 0.000000 0.000000
0.282353 0.000000 0.003922
0.321569 0.003922 0.000000
0.372549 0.000000 0.003922
0.415686 0.000000 0.007843
0.466667 0.003922 0.003922
0.505882 0.000000 0.000000
0.549020 0.000000 0.000000
0.596078 0.000000 0.000000
0.639216 0.000000 0.003922
0.674510 0.000000 0.000000
0.705882 0.000000 0.000000
0.745098 0.000000 0.000000
0.784314 0.000000 0.007843
0.815686 0.000000 0.000000
0.847059 0.000000 0.003922
0.886275 0.000000 0.003922
0.925490 0.000000 0.000000
0.956863 0.000000 0.000000
0.992157 0.000000 0.000000
0.000000 0.007843 0.003922
0.000000 0.011765 0.000000
0.086275 0.007843 0.003922
0.137255 0.003922 0.000000
0.196078 0.003922 0.000000
0.235294 0.000000 0.000000
0.290196 0.000000 0.000000
0.329412 0.000000 0.000000
0.376471 0.000000 0.003922
0.423529 0.000000 0.000000
0.470588 0.000000 0.003922
0.521569 0.000000 0.003922
0.556863 0.000000 0.000000
0.600000 0.003922 0.000000
0.643137 0.000000 0.003922
0.682353 0.000000 0.000000
0.721569 0.000000 0.000000
0.752941 0.000000 0.000000
0.784314 0.000000 0.007843
0.815686 0.000000 0.000000
0.847059 0.000000 0.003922
0.882353 0.003922 0.003922
0.917647 0.000000 0.000000
0.968627 0.000000 0.000000
0.996078 0.000000 0.000000
0.000000 0.090196 0.000000
0.011765 0.086275 0.000000
0.086275 0.082353 0.000000
0.141176 0.082353 0.000000
0.180392 0.074510 0.000000
0.239216 0.070588 0.003922
0.290196 0.066667 0.000000
0.337255 0.066667 0.003922
0.388235 0.070588 0.003922
0.435294 0.070588 0.003922
0.482353 0.066667 0.003922
0.517647 0.066667 0.000000
0.564706 0.066667 0.000000
0.603922 0.066667 0.000000
0.639216 0.070588 0.003922
0.678431 0.070588 0.000000
0.717647 0.062745 0.000000
0.752941 0.066667 0.000000
0.788235 0.058824 0.000000
0.823529 0.054902 0.000000
0.850980 0.054902 0.000000
0.886275 0.050980 0.000000
0.921569 0.050980 0.000000
0.972549 0.039216 0.000000
1.000000 0.031373 0.000000
0.003922 0.137255 0.000000
0.000000 0.141176 0.000000
0.078431 0.141176 0.000000
0.145098 0.133333 0.003922
0.192157 0.137255 0.000000
0.250980 0.141176 0.000000
0.294118 0.137255 0.000000
0.345098 0.133333 0.000000
0.384314 0.133333 0.000000
0.439216 0.129412 0.000000
0.478431 0.129412 0.000000
0.521569 0.129412 0.000000
0.568627 0.125490 0.000000
0.607843 0.125490 0.000000
0.650980 0.121569 0.003922
0.690196 0.121569 0.000000
0.725490 0.117647 0.000000
0.756863 0.113725 0.003922
0.796078 0.113725 0.007843
0.827451 0.105882 0.000000
0.866667 0.105882 0.000000
0.894118 0.105882 0.003922
0.937255 0.109804 0.000000
0.976471 0.098039 0.000000
0.996078 0.101961 0.003922
0.000000 0.188235 0.000000
0.027451 0.192157 0.011765
0.086275 0.188235 0.003922
0.145098 0.192157 0.000000
0.196078 0.196078 0.000000
0.247059 0.192157 0.000000
0.298039 0.188235 0.000000
0.349020 0.180392 0.003922
0.396078 0.184314 0.000000
0.447059 0.184314 0.007843
0.482353 0.180392 0.000000
0.521569 0.176471 0.000000
0.572549 0.176471 0.000000
0.611765 0.176471 0.000000
0.654902 0.172549 0.000000
0.694118 0.172549 0.003922
0.725490 0.164706 0.000000
0.760784 0.168627 0.000000
0.796078 0.164706 0.000000
0.831373 0.160784 0.000000
0.862745 0.160784 0.003922
0.898039 0.156863 0.000000
0.941176 0.149020 0.000000
0.980392 0.149020 0.000000
1.000000 0.152941 0.000000
0.000000 0.227451 0.000000
0.019608 0.231373 0.003922
0.082353 0.231373 0.007843
0.133333 0.227451 0.000000
0.184314 0.227451 0.000000
0.235294 0.231373 0.007843
0.290196 0.231373 0.000000
0.329412 0.227451 0.000000
0.380392 0.227451 0.000000
0.427451 0.231373 0.000000
0.470588 0.227451 0.000000
0.505882 0.223529 0.000000
0.552941 0.219608 0.000000
0.596078 0.215686 0.000000
0.635294 0.215686 0.000000
0.674510 0.215686 0.003922
0.717647 0.211765 0.000000
0.752941 0.203922 0.003922
0.788235 0.200000 0.000000
0.815686 0.200000 0.000000
0.854902 0.196078 0.003922
0.886275 0.196078 0.003922
0.925490 0.188235 0.000000
0.960784 0.184314 0.000000
1.000000 0.184314 0.003922
0.000000 0.282353 0.000000
0.039216 0.290196 0.000000
0.101961 0.290196 0.000000
0.141176 0.282353 0.000000
0.192157 0.282353 0.000000
0.243137 0.282353 0.003922
0.298039 0.282353 0.003922
0.345098 0.278431 0.000000
0.388235 0.282353 0.003922
0.431373 0.274510 0.000000
0.470588 0.274510 0.000000
0.517647 0.270588 0.000000
0.560784 0.266667 0.000000
0.600000 0.266667 0.003922
0.647059 0.266667 0.000000
0.678431 0.258824 0.000000
0.717647 0.258824 0.000000
0.752941 0.250980 0.000000
0.780392 0.250980 0.000000
0.815686 0.247059 0.000000
0.850980 0.239216 0.000000
0.886275 0.235294 0.000000
0.921569 0.231373 0.000000
0.960784 0.231373 0.007843
0.996078 0.231373 0.003922
0.000000 0.341176 0.003922
0.023529 0.329412 0.000000
0.086275 0.337255 0.000000
0.133333 0.341176 0.000000
0.200000 0.325490 0.000000
0.239216 0.333333 0.003922
0.290196 0.329412 0.000000
0.341176 0.333333 0.000000
0.392157 0.333333 0.000000
0.435294 0.333333 0.000000
0.478431 0.329412 0.003922
0.521569 0.321569 0.003922
0.564706 0.317647 0.003922
0.607843 0.313725 0.000000
0.654902 0.313725 0.003922
0.690196 0.309804 0.007843
0.721569 0.301961 0.000000
0.752941 0.298039 0.000000
0.788235 0.294118 0.000000
0.815686 0.294118 0.000000
0.854902 0.290196 0.003922
0.890196 0.286275 0.003922
0.933333 0.278431 0.000000
0.964706 0.282353 0.003922
0.996078 0.282353 0.000000
0.003922 0.384314 0.003922
0.027451 0.384314 0.007843
0.090196 0.380392 0.000000
0.145098 0.380392 0.003922
0.203922 0.376471 0.000000
0.247059 0.380392 0.000000
0.294118 0.376471 0.003922
0.341176 0.380392 0.000000
0.388235 0.376471 0.000000
0.435294 0.376471 0.003922
0.478431 0.376471 0.003922
0.521569 0.368627 0.000000
0.564706 0.364706 0.003922
0.600000 0.360784 0.000000
0.647059 0.360784 0.000000
0.686275 0.360784 0.000000
0.717647 0.349020 0.000000
0.752941 0.345098 0.000000
0.788235 0.341176 0.000000
0.823529 0.337255 0.000000
0.858824 0.333333 0.000000
0.905882 0.333333 0.007843
0.929412 0.333333 0.003922
0.976471 0.321569 0.003922
1.000000 0.317647 0.000000
0.000000 0.431373 0.000000
0.023529 0.431373 0.000000
0.082353 0.427451 0.000000
0.137255 0.423529 0.000000
0.192157 0.423529 0.000000
0.239216 0.427451 0.000000
0.294118 0.427451 0.000000
0.341176 0.427451 0.003922
0.388235 0.423529 0.000000
0.435294 0.423529 0.003922
0.486275 0.419608 0.003922
0.529412 0.419608 0.000000
0.572549 0.423529 0.003922
0.607843 0.415686 0.003922
0.647059 0.407843 0.000000
0.682353 0.403922 0.000000
0.717647 0.388235 0.000000
0.749020 0.388235 0.000000
0.784314 0.384314 0.000000
0.823529 0.380392 0.003922
0.870588 0.372549 0.000000
0.901961 0.376471 0.000000
0.945098 0.368627 0.000000
0.984314 0.368627 0.000000
1.000000 0.372549 0.003922
0.000000 0.447059 0.000000
0.007843 0.450980 0.000000
0.070588 0.450980 0.000000
0.137255 0.450980 0.007843
0.172549 0.447059 0.000000
0.223529 0.447059 0.003922
0.274510 0.447059 0.000000
0.329412 0.447059 0.000000
0.368627 0.450980 0.000000
0.415686 0.450980 0.000000
0.462745 0.450980 0.000000
0.513725 0.454902 0.003922
0.556863 0.450980 0.007843
0.592157 0.447059 0.000000
0.635294 0.439216 0.000000
0.674510 0.439216 0.000000
0.701961 0.435294 0.000000
0.745098 0.427451 0.003922
0.776471 0.423529 0.000000
0.811765 0.415686 0.000000
0.850980 0.415686 0.000000
0.886275 0.411765 0.000000
0.929412 0.407843 0.000000
0.968627 0.407843 0.000000
0.996078 0.403922 0.000000
0.000000 0.505882 0.000000
0.011765 0.501961 0.007843
0.074510 0.486275 0.000000
0.129412 0.501961 0.000000
0.176471 0.498039 0.003922
0.223529 0.494118 0.000000
0.262745 0.501961 0.000000
0.329412 0.494118 0.000000
0.372549 0.498039 0.000000
0.415686 0.498039 0.000000
0.462745 0.498039 0.000000
0.513725 0.498039 0.003922
0.556863 0.498039 0.007843
0.596078 0.498039 0.003922
0.639216 0.490196 0.007843
0.670588 0.478431 0.003922
0.705882 0.474510 0.003922
0.745098 0.466667 0.003922
0.776471 0.466667 0.000000
0.811765 0.454902 0.003922
0.850980 0.454902 0.000000
0.886275 0.450980 0.000000
0.925490 0.450980 0.007843
0.960784 0.450980 0.003922
1.000000 0.447059 0.000000
0.003922 0.541176 0.000000
0.011765 0.541176 0.000000
0.078431 0.533333 0.000000
0.129412 0.537255 0.000000
0.164706 0.545098 0.000000
0.227451 0.533333 0.000000
0.270588 0.537255 0.007843
0.317647 0.537255 0.007843
0.368627 0.541176 0.003922
0.411765 0.537255 0.000000
0.458824 0.541176 0.003922
0.498039 0.541176 0.000000
0.549020 0.545098 0.000000
0.592157 0.541176 0.000000
0.635294 0.533333 0.000000
0.670588 0.525490 0.003922
0.709804 0.517647 0.003922
0.741176 0.513725 0.000000
0.780392 0.505882 0.000000
0.819608 0.498039 0.000000
0.858824 0.498039 0.000000
0.894118 0.494118 0.000000
0.933333 0.494118 0.000000
0.976471 0.490196 0.003922
1.000000 0.498039 0.000000
0.000000 0.584314 0.000000
0.019608 0.584314 0.000000
0.066667 0.576471 0.000000
0.117647 0.580392 0.000000
0.172549 0.580392 0.000000
0.223529 0.576471 0.000000
0.270588 0.576471 0.000000
0.317647 0.576471 0.000000
0.364706 0.576471 0.000000
0.411765 0.576471 0.000000
0.450980 0.576471 0.003922
0.498039 0.576471 0.000000
0.541176 0.572549 0.000000
0.592157 0.572549 0.000000
0.631373 0.572549 0.003922
0.670588 0.568627 0.000000
0.705882 0.560784 0.000000
0.745098 0.552941 0.000000
0.780392 0.552941 0.000000
0.827451 0.549020 0.000000
0.862745 0.541176 0.000000
0.901961 0.545098 0.000000
0.941176 0.545098 0.000000
0.988235 0.541176 0.011765
1.000000 0.541176 0.000000
0.011765 0.615686 0.003922
0.023529 0.619608 0.000000
0.082353 0.611765 0.003922
0.125490 0.607843 0.007843
0.180392 0.607843 0.000000
0.219608 0.607843 0.000000
0.270588 0.611765 0.000000
0.309804 0.611765 0.000000
0.349020 0.611765 0.000000
0.396078 0.611765 0.000000
0.443137 0.615686 0.000000
0.490196 0.611765 0.000000
0.533333 0.611765 0.000000
0.580392 0.607843 0.000000
0.627451 0.607843 0.000000
0.670588 0.615686 0.000000
0.713725 0.611765 0.003922
0.745098 0.600000 0.000000
0.784314 0.588235 0.000000
0.823529 0.588235 0.000000
0.858824 0.584314 0.000000
0.898039 0.592157 0.000000
0.941176 0.588235 0.003922
0.976471 0.584314 0.000000
0.996078 0.588235 0.003922
0.011765 0.619608 0.007843
0.015686 0.627451 0.003922
0.062745 0.627451 0.007843
0.117647 0.627451 0.000000
0.160784 0.619608 0.000000
0.207843 0.623529 0.003922
0.250980 0.627451 0.000000
0.294118 0.631373 0.000000
0.337255 0.631373 0.000000
0.376471 0.627451 0.003922
0.427451 0.631373 0.003922
0.470588 0.627451 0.003922
0.521569 0.631373 0.003922
0.564706 0.635294 0.007843
0.607843 0.631373 0.000000
0.647059 0.631373 0.000000
0.694118 0.635294 0.003922
0.729412 0.627451 0.003922
0.768627 0.627451 0.003922
0.807843 0.631373 0.000000
0.850980 0.623529 0.000000
0.890196 0.615686 0.000000
0.929412 0.615686 0.000000
0.976471 0.611765 0.000000
0.996078 0.623529 0.011765
0.000000 0.674510 0.000000
0.031373 0.666667 0.000000
0.078431 0.674510 0.007843
0.117647 0.666667 0.003922
0.164706 0.658824 0.000000
0.211765 0.666667 0.000000
0.262745 0.666667 0.003922
0.294118 0.670588 0.003922
0.341176 0.666667 0.007843
0.388235 0.670588 0.003922
0.427451 0.670588 0.000000
0.474510 0.666667 0.000000
0.517647 0.670588 0.000000
0.564706 0.674510 0.000000
0.603922 0.666667 0.000000
0.647059 0.670588 0.003922
0.686275 0.670588 0.003922
0.733333 0.670588 0.000000
0.772549 0.670588 0.000000
0.811765 0.666667 0.003922
0.850980 0.670588 0.000000
0.894118 0.666667 0.000000
0.933333 0.666667 0.003922
0.976471 0.662745 0.000000
1.000000 0.658824 0.000000
0.007843 0.713725 0.000000
0.035294 0.713725 0.015686
0.074510 0.705882 0.007843
0.129412 0.705882 0.011765
0.168627 0.705882 0.007843
0.200000 0.705882 0.000000
0.254902 0.705882 0.003922
0.294118 0.705882 0.000000
0.345098 0.709804 0.007843
0.388235 0.705882 0.000000
0.427451 0.705882 0.000000
0.470588 0.709804 0.000000
0.517647 0.709804 0.003922
0.556863 0.709804 0.007843
0.600000 0.717647 0.003922
0.643137 0.713725 0.000000
0.682353 0.713725 0.000000
0.729412 0.713725 0.000000
0.772549 0.717647 0.000000
0.811765 0.717647 0.000000
0.854902 0.713725 0.000000
0.894118 0.713725 0.000000
0.937255 0.705882 0.000000
0.988235 0.698039 0.003922
0.996078 0.709804 0.003922
0.011765 0.760784 0.000000
0.050980 0.756863 0.000000
0.086275 0.749020 0.007843
0.133333 0.749020 0.000000
0.168627 0.745098 0.000000
0.203922 0.749020 0.000000
0.250980 0.749020 0.000000
0.298039 0.749020 0.000000
0.345098 0.749020 0.000000
0.388235 0.752941 0.000000
0.427451 0.752941 0.000000
0.474510 0.752941 0.000000
0.517647 0.752941 0.000000
0.560784 0.756863 0.000000
0.600000 0.752941 0.003922
0.647059 0.752941 0.000000
0.690196 0.756863 0.000000
0.733333 0.756863 0.000000
0.776471 0.760784 0.000000
0.815686 0.760784 0.000000
0.854902 0.760784 0.000000
0.905882 0.760784 0.000000
0.952941 0.756863 0.000000
0.984314 0.752941 0.000000
1.000000 0.756863 0.000000
0.000000 0.807843 0.000000
0.047059 0.796078 0.003922
0.082353 0.792157 0.000000
0.117647 0.788235 0.000000
0.168627 0.788235 0.007843
0.207843 0.792157 0.000000
0.254902 0.792157 0.000000
0.294118 0.792157 0.003922
0.341176 0.788235 0.000000
0.384314 0.796078 0.000000
0.431373 0.796078 0.003922
0.474510 0.792157 0.000000
0.513725 0.800000 0.003922
0.556863 0.796078 0.003922
0.603922 0.796078 0.000000
0.647059 0.800000 0.003922
0.690196 0.800000 0.000000
0.733333 0.803922 0.000000
0.776471 0.807843 0.000000
0.827451 0.807843 0.003922
0.870588 0.800000 0.000000
0.909804 0.807843 0.000000
0.952941 0.803922 0.000000
0.984314 0.803922 0.000000
1.000000 0.800000 0.000000
0.000000 0.815686 0.007843
0.000000 0.815686 0.000000
0.043137 0.811765 0.000000
0.098039 0.811765 0.000000
0.145098 0.807843 0.000000
0.196078 0.815686 0.003922
0.239216 0.819608 0.003922
0.278431 0.819608 0.000000
0.329412 0.819608 0.003922
0.368627 0.823529 0.000000
0.415686 0.823529 0.003922
0.458824 0.823529 0.000000
0.501961 0.827451 0.000000
0.545098 0.831373 0.000000
0.592157 0.831373 0.000000
0.635294 0.831373 0.000000
0.682353 0.835294 0.000000
0.725490 0.839216 0.000000
0.776471 0.839216 0.003922
0.819608 0.843137 0.003922
0.862745 0.843137 0.003922
0.901961 0.835294 0.000000
0.949020 0.835294 0.000000
0.992157 0.835294 0.003922
1.000000 0.831373 0.000000
0.007843 0.870588 0.007843
0.003922 0.874510 0.000000
0.039216 0.870588 0.000000
0.086275 0.870588 0.003922
0.156863 0.870588 0.000000
0.196078 0.870588 0.000000
0.235294 0.862745 0.000000
0.286275 0.870588 0.000000
0.329412 0.874510 0.000000
0.380392 0.874510 0.003922
0.419608 0.874510 0.000000
0.462745 0.874510 0.000000
0.505882 0.878431 0.000000
0.556863 0.878431 0.000000
0.600000 0.882353 0.003922
0.639216 0.882353 0.000000
0.678431 0.886275 0.000000
0.725490 0.886275 0.000000
0.776471 0.886275 0.003922
0.819608 0.886275 0.000000
0.866667 0.886275 0.003922
0.913725 0.886275 0.000000
0.952941 0.882353 0.003922
0.996078 0.882353 0.003922
0.996078 0.886275 0.007843
0.003922 0.925490 0.000000
0.000000 0.925490 0.000000
0.000000 0.929412 0.000000
0.066667 0.921569 0.000000
0.129412 0.921569 0.000000
0.200000 0.921569 0.003922
0.235294 0.917647 0.000000
0.278431 0.921569 0.000000
0.329412 0.929412 0.000000
0.372549 0.925490 0.000000
0.415686 0.925490 0.000000
0.462745 0.925490 0.000000
0.505882 0.929412 0.003922
0.552941 0.933333 0.003922
0.600000 0.933333 0.000000
0.643137 0.929412 0.000000
0.694118 0.929412 0.003922
0.737255 0.933333 0.000000
0.788235 0.933333 0.000000
0.831373 0.937255 0.000000
0.878431 0.937255 0.000000
0.917647 0.933333 0.003922
0.972549 0.937255 0.000000
1.000000 0.937255 0.011765
0.996078 0.937255 0.000000
0.007843 0.984314 0.003922
0.007843 0.972549 0.000000
0.000000 0.984314 0.000000
0.039216 0.984314 0.000000
0.113725 0.976471 0.011765
0.184314 0.968627 0.000000
0.231373 0.972549 0.000000
0.282353 0.972549 0.000000
0.329412 0.976471 0.000000
0.372549 0.980392 0.000000
0.419608 0.980392 0.000000
0.470588 0.984314 0.000000
0.509804 0.980392 0.007843
0.552941 0.980392 0.000000
0.603922 0.984314 0.000000
0.658824 0.980392 0.000000
0.705882 0.984314 0.003922
0.749020 0.980392 0.000000
0.800000 0.980392 0.003922
0.850980 0.988235 0.007843
0.898039 0.984314 0.007843
0.933333 0.984314 0.000000
0.980392 0.984314 0.000000
1.000000 0.988235 0.003922
0.996078 0.984314 0.000000
0.000000 1.000000 0.003922
0.000000 0.996078 0.000000
0.000000 0.996078 0.000000
0.003922 1.000000 0.000000
0.090196 0.996078 0.000000
0.149020 1.000000 0.000000
0.211765 1.000000 0.000000
0.266667 1.000000 0.000000
0.317647 1.000000 0.000000
0.372549 1.000000 0.003922
0.423529 1.000000 0.003922
0.470588 1.000000 0.007843
0.521569 0.996078 0.000000
0.564706 0.992157 0.003922
0.619608 1.000000 0.000000
0.666667 1.000000 0.003922
0.717647 0.996078 0.000000
0.764706 1.000000 0.000000
0.815686 1.000000 0.000000
0.862745 1.000000 0.007843
0.913725 1.000000 0.000000
0.952941 1.000000 0.003922
0.988235 1.000000 0.000000
1.000000 0.996078 0.000000
1.000000 0.996078 0.000000
0.000000 0.000000 0.000000
0.011765 0.000000 0.000000
0.074510 0.000000 0.000000
0.137255 0.000000 0.003922
0.180392 0.000000 0.007843
0.235294 0.000000 0.007843
0.290196 0.000000 0.003922
0.345098 0.000000 0.003922
0.384314 0.000000 0.003922
0.423529 0.000000 0.000000
0.470588 0.000000 0.003922
0.509804 0.000000 0.000000
0.560784 0.003922 0.000000
0.600000 0.000000 0.007843
0.639216 0.000000 0.000000
0.678431 0.000000 0.000000
0.721569 0.000000 0.000000
0.752941 0.000000 0.000000
0.792157 0.000000 0.000000
0.823529 0.000000 0.003922
0.854902 0.000000 0.000000
0.886275 0.000000 0.003922
0.925490 0.000000 0.000000
0.960784 0.003922 0.000000
0.996078 0.000000 0.000000
0.007843 0.007843 0.015686
0.007843 0.015686 0.003922
0.109804 0.007843 0.003922
0.137255 0.015686 0.007843
0.192157 0.015686 0.003922
0.247059 0.011765 0.011765
0.290196 0.011765 0.000000
0.349020 0.003922 0.000000
0.388235 0.003922 0.000000
0.435294 0.007843 0.000000
0.474510 0.003922 0.000000
0.521569 0.003922 0.000000
0.560784 0.003922 0.000000
0.603922 0.000000 0.000000
0.650980 0.000000 0.000000
0.686275 0.000000 0.000000
0.725490 0.000000 0.000000
0.756863 0.000000 0.000000
0.792157 0.000000 0.000000
0.819608 0.000000 0.000000
0.854902 0.000000 0.000000
0.894118 0.000000 0.000000
0.933333 0.000000 0.000000
0.968627 0.000000 0.000000
0.996078 0.000000 0.000000
0.000000 0.098039 0.000000
0.015686 0.090196 0.003922
0.098039 0.086275 0.011765
0.145098 0.086275 0.003922
0.192157 0.078431 0.007843
0.243137 0.082353 0.011765
0.298039 0.078431 0.011765
0.345098 0.082353 0.015686
0.388235 0.082353 0.003922
0.435294 0.078431 0.003922
0.478431 0.074510 0.000000
0.525490 0.074510 0.000000
0.564706 0.066667 0.000000
0.607843 0.070588 0.000000
0.650980 0.062745 0.003922
0.686275 0.058824 0.003922
0.725490 0.058824 0.000000
0.756863 0.062745 0.000000
0.792157 0.058824 0.000000
0.827451 0.058824 0.000000
0.862745 0.054902 0.000000
0.898039 0.050980 0.000000
0.921569 0.043137 0.000000
0.968627 0.031373 0.003922
0.992157 0.035294 0.000000
0.000000 0.137255 0.011765
0.027451 0.145098 0.011765
0.098039 0.141176 0.023529
0.152941 0.141176 0.019608
0.203922 0.145098 0.015686
0.243137 0.141176 0.011765
0.294118 0.141176 0.011765
0.349020 0.141176 0.007843
0.388235 0.137255 0.000000
0.431373 0.133333 0.000000
0.482353 0.133333 0.007843
0.533333 0.129412 0.000000
0.572549 0.121569 0.000000
0.607843 0.125490 0.000000
0.650980 0.121569 0.003922
0.690196 0.121569 0.000000
0.721569 0.113725 0.000000
0.760784 0.113725 0.003922
0.792157 0.113725 0.000000
0.835294 0.109804 0.000000
0.874510 0.109804 0.000000
0.905882 0.105882 0.007843
0.933333 0.105882 0.000000
0.976471 0.098039 0.000000
1.000000 0.098039 0.000000
0.000000 0.200000 0.007843
0.031373 0.203922 0.003922
0.094118 0.196078 0.007843
0.145098 0.196078 0.015686
0.196078 0.192157 0.003922
0.247059 0.200000 0.003922
0.305882 0.196078 0.007843
0.356863 0.192157 0.003922
0.400000 0.188235 0.003922
0.439216 0.188235 0.000000
0.486275 0.188235 0.000000
0.529412 0.184314 0.000000
0.576471 0.180392 0.000000
0.619608 0.180392 0.000000
0.654902 0.172549 0.000000
0.694118 0.172549 0.000000
0.725490 0.164706 0.000000
0.764706 0.164706 0.000000
0.803922 0.164706 0.000000
0.835294 0.156863 0.000000
0.866667 0.152941 0.000000
0.898039 0.156863 0.000000
0.949020 0.149020 0.003922
0.980392 0.149020 0.000000
0.996078 0.149020 0.003922
0.000000 0.227451 0.000000
0.023529 0.235294 0.000000
0.090196 0.239216 0.000000
0.149020 0.235294 0.000000
0.188235 0.235294 0.000000
0.239216 0.239216 0.000000
0.294118 0.239216 0.000000
0.337255 0.235294 0.000000
0.388235 0.231373 0.000000
0.431373 0.235294 0.003922
0.470588 0.227451 0.000000
0.517647 0.223529 0.000000
0.560784 0.223529 0.000000
0.600000 0.223529 0.000000
0.639216 0.219608 0.000000
0.682353 0.211765 0.003922
0.709804 0.211765 0.000000
0.745098 0.207843 0.000000
0.780392 0.203922 0.000000
0.815686 0.200000 0.000000
0.854902 0.196078 0.003922
0.894118 0.200000 0.003922
0.929412 0.192157 0.003922
0.976471 0.192157 0.000000
1.000000 0.188235 0.000000
0.000000 0.286275 0.000000
0.027451 0.294118 0.000000
0.090196 0.298039 0.000000
0.145098 0.294118 0.007843
0.196078 0.290196 0.000000
0.239216 0.286275 0.000000
0.290196 0.290196 0.000000
0.345098 0.290196 0.003922
0.388235 0.282353 0.003922
0.431373 0.282353 0.003922
0.474510 0.278431 0.000000
0.521569 0.274510 0.003922
0.564706 0.270588 0.003922
0.600000 0.270588 0.000000
0.650980 0.270588 0.003922
0.686275 0.266667 0.000000
0.721569 0.262745 0.000000
0.756863 0.254902 0.000000
0.784314 0.254902 0.003922
0.819608 0.250980 0.003922
0.850980 0.247059 0.003922
0.894118 0.243137 0.000000
0.929412 0.239216 0.003922
0.964706 0.235294 0.003922
0.996078 0.235294 0.000000
0.000000 0.341176 0.000000
0.007843 0.337255 0.000000
0.094118 0.337255 0.000000
0.149020 0.337255 0.000000
0.196078 0.337255 0.000000
0.247059 0.333333 0.000000
0.298039 0.337255 0.000000
0.345098 0.337255 0.003922
0.400000 0.337255 0.003922
0.443137 0.333333 0.003922
0.486275 0.325490 0.003922
0.529412 0.325490 0.000000
0.572549 0.317647 0.000000
0.615686 0.313725 0.000000
0.647059 0.313725 0.000000
0.690196 0.309804 0.007843
0.725490 0.305882 0.000000
0.756863 0.298039 0.000000
0.796078 0.294118 0.000000
0.827451 0.294118 0.003922
0.862745 0.290196 0.003922
0.898039 0.282353 0.003922
0.929412 0.286275 0.003922
0.972549 0.282353 0.000000
1.000000 0.278431 0.000000
0.003922 0.388235 0.000000
0.011765 0.388235 0.000000
0.082353 0.388235 0.000000
0.141176 0.384314 0.000000
0.200000 0.380392 0.000000
0.243137 0.384314 0.000000
0.290196 0.384314 0.000000
0.345098 0.384314 0.003922
0.392157 0.380392 0.000000
0.443137 0.380392 0.003922
0.490196 0.380392 0.000000
0.533333 0.376471 0.000000
0.580392 0.372549 0.000000
0.615686 0.368627 0.000000
0.654902 0.360784 0.000000
0.690196 0.356863 0.000000
0.721569 0.349020 0.000000
0.756863 0.341176 0.000000
0.792157 0.345098 0.000000
0.827451 0.341176 0.003922
0.862745 0.337255 0.003922
0.901961 0.329412 0.003922
0.937255 0.329412 0.003922
0.988235 0.325490 0.007843
0.996078 0.325490 0.003922
0.000000 0.435294 0.003922
0.007843 0.439216 0.000000
0.078431 0.427451 0.000000
0.145098 0.427451 0.003922
0.188235 0.431373 0.000000
0.243137 0.431373 0.000000
0.298039 0.431373 0.000000
0.341176 0.427451 0.000000
0.396078 0.427451 0.000000
0.447059 0.431373 0.007843
0.494118 0.427451 0.003922
0.537255 0.427451 0.000000
0.580392 0.419608 0.003922
0.619608 0.411765 0.003922
0.658824 0.403922 0.000000
0.694118 0.400000 0.000000
0.733333 0.396078 0.007843
0.756863 0.388235 0.003922
0.792157 0.384314 0.000000
0.827451 0.380392 0.003922
0.866667 0.380392 0.003922
0.901961 0.376471 0.000000
0.949020 0.372549 0.000000
0.988235 0.372549 0.000000
1.000000 0.372549 0.003922
0.000000 0.454902 0.003922
0.003922 0.454902 0.000000
0.066667 0.454902 0.000000
0.129412 0.454902 0.000000
0.176471 0.450980 0.000000
0.227451 0.450980 0.000000
0.282353 0.458824 0.000000
0.325490 0.462745 0.000000
0.376471 0.450980 0.000000
0.423529 0.458824 0.000000
0.466667 0.454902 0.000000
