loleis/其他/lut20种/Sports LUT #9.cube
TITLE "Sports LUT #9"
#LUT size
LUT_3D_SIZE 9
#LUT data points
0.000000 0.000000 0.000000
0.125490 0.003922 0.000000
0.266667 0.000000 0.003922
0.403922 0.000000 0.000000
0.549020 0.000000 0.000000
0.698039 0.000000 0.000000
0.854902 0.000000 0.003922
0.988235 0.000000 0.003922
0.996078 0.000000 0.000000
0.000000 0.125490 0.003922
0.129412 0.125490 0.003922
0.270588 0.129412 0.000000
0.403922 0.125490 0.000000
0.549020 0.113725 0.000000
0.698039 0.113725 0.000000
0.843137 0.098039 0.003922
0.972549 0.074510 0.000000
1.000000 0.039216 0.000000
0.003922 0.266667 0.003922
0.133333 0.258824 0.003922
0.278431 0.266667 0.003922
0.415686 0.262745 0.000000
0.560784 0.266667 0.000000
0.705882 0.270588 0.000000
0.854902 0.258824 0.000000
0.980392 0.254902 0.003922
1.000000 0.235294 0.007843
0.007843 0.407843 0.007843
0.113725 0.407843 0.000000
0.274510 0.415686 0.000000
0.423529 0.411765 0.000000
0.572549 0.411765 0.000000
0.709804 0.407843 0.000000
0.839216 0.403922 0.000000
0.972549 0.392157 0.000000
0.996078 0.380392 0.000000
0.003922 0.564706 0.007843
0.074510 0.568627 0.003922
0.274510 0.568627 0.000000
0.423529 0.572549 0.000000
0.576471 0.568627 0.000000
0.721569 0.560784 0.003922
0.858824 0.545098 0.000000
0.976471 0.529412 0.000000
0.992157 0.529412 0.003922
0.003922 0.725490 0.000000
0.007843 0.729412 0.000000
0.250980 0.721569 0.003922
0.423529 0.717647 0.007843
0.572549 0.709804 0.003922
0.717647 0.709804 0.007843
0.854902 0.694118 0.003922
0.972549 0.674510 0.000000
1.000000 0.666667 0.003922
0.000000 0.835294 0.003922
0.000000 0.839216 0.000000
0.207843 0.835294 0.003922
0.388235 0.839216 0.000000
0.549020 0.823529 0.000000
0.690196 0.823529 0.003922
0.823529 0.815686 0.000000
0.964706 0.803922 0.000000
1.000000 0.792157 0.000000
0.000000 0.952941 0.000000
0.003922 0.952941 0.003922
0.164706 0.945098 0.000000
0.356863 0.952941 0.000000
0.517647 0.945098 0.000000
0.658824 0.945098 0.003922
0.800000 0.937255 0.000000
0.945098 0.933333 0.003922
0.996078 0.929412 0.000000
0.007843 0.992157 0.000000
0.000000 1.000000 0.000000
0.090196 1.000000 0.000000
0.313725 0.996078 0.000000
0.478431 1.000000 0.000000
0.619608 1.000000 0.000000
0.752941 1.000000 0.000000
0.890196 0.996078 0.000000
0.996078 1.000000 0.003922
0.000000 0.000000 0.133333
0.133333 0.000000 0.137255
0.270588 0.000000 0.137255
0.407843 0.003922 0.121569
0.552941 0.003922 0.109804
0.698039 0.000000 0.101961
0.847059 0.000000 0.090196
0.972549 0.000000 0.070588
0.996078 0.000000 0.050980
0.000000 0.121569 0.129412
0.125490 0.133333 0.129412
0.270588 0.117647 0.121569
0.411765 0.113725 0.121569
0.545098 0.094118 0.105882
0.698039 0.074510 0.094118
0.839216 0.039216 0.082353
0.972549 0.000000 0.054902
1.000000 0.000000 0.031373
0.000000 0.266667 0.105882
0.105882 0.274510 0.105882
0.274510 0.262745 0.101961
0.411765 0.258824 0.098039
0.564706 0.258824 0.105882
0.713725 0.254902 0.086275
0.843137 0.247059 0.062745
0.968627 0.235294 0.035294
1.000000 0.215686 0.011765
0.000000 0.403922 0.047059
0.062745 0.411765 0.050980
0.266667 0.403922 0.050980
0.415686 0.400000 0.043137
0.568627 0.400000 0.027451
0.701961 0.400000 0.054902
0.843137 0.392157 0.027451
0.968627 0.380392 0.000000
1.000000 0.372549 0.003922
0.000000 0.560784 0.003922
0.007843 0.564706 0.000000
0.247059 0.568627 0.003922
0.419608 0.568627 0.000000
0.572549 0.560784 0.000000
0.713725 0.549020 0.007843
0.843137 0.541176 0.000000
0.968627 0.529412 0.000000
1.000000 0.513725 0.000000
0.000000 0.717647 0.000000
0.003922 0.717647 0.000000
0.231373 0.717647 0.003922
0.403922 0.709804 0.000000
0.568627 0.705882 0.000000
0.709804 0.705882 0.007843
0.850980 0.690196 0.000000
0.972549 0.666667 0.000000
0.996078 0.654902 0.000000
0.000000 0.831373 0.000000
0.000000 0.831373 0.000000
0.176471 0.831373 0.000000
0.376471 0.823529 0.000000
0.529412 0.827451 0.000000
0.686275 0.819608 0.000000
0.827451 0.819608 0.007843
0.956863 0.807843 0.000000
0.992157 0.792157 0.000000
0.000000 0.949020 0.000000
0.007843 0.945098 0.000000
0.137255 0.952941 0.000000
0.341176 0.941176 0.000000
0.509804 0.941176 0.003922
0.662745 0.941176 0.000000
0.800000 0.933333 0.011765
0.937255 0.933333 0.000000
1.000000 0.913725 0.007843
0.003922 1.000000 0.000000
0.000000 0.996078 0.000000
0.043137 1.000000 0.007843
0.309804 1.000000 0.000000
0.466667 0.996078 0.003922
0.611765 1.000000 0.000000
0.756863 1.000000 0.003922
0.890196 0.996078 0.000000
0.992157 1.000000 0.011765
0.000000 0.000000 0.262745
0.133333 0.003922 0.282353
0.274510 0.000000 0.274510
0.411765 0.000000 0.270588
0.564706 0.000000 0.270588
0.709804 0.000000 0.262745
0.858824 0.000000 0.239216
0.980392 0.003922 0.231373
1.000000 0.003922 0.215686
0.000000 0.109804 0.266667
0.109804 0.098039 0.274510
0.270588 0.090196 0.274510
0.411765 0.086275 0.266667
0.556863 0.058824 0.274510
0.705882 0.000000 0.254902
0.843137 0.000000 0.235294
0.976471 0.000000 0.235294
1.000000 0.000000 0.227451
0.000000 0.262745 0.286275
0.066667 0.266667 0.270588
0.262745 0.254902 0.266667
0.411765 0.254902 0.258824
0.568627 0.247059 0.262745
0.717647 0.235294 0.247059
0.850980 0.223529 0.231373
0.980392 0.207843 0.235294
0.992157 0.188235 0.215686
0.000000 0.411765 0.231373
0.000000 0.415686 0.235294
0.235294 0.415686 0.235294
0.415686 0.403922 0.227451
0.564706 0.400000 0.235294
0.705882 0.396078 0.243137
0.847059 0.384314 0.227451
0.972549 0.372549 0.211765
1.000000 0.356863 0.207843
0.003922 0.564706 0.203922
0.000000 0.572549 0.203922
0.203922 0.572549 0.203922
0.415686 0.556863 0.203922
0.572549 0.560784 0.188235
0.717647 0.549020 0.180392
0.850980 0.537255 0.203922
0.976471 0.525490 0.211765
1.000000 0.509804 0.188235
0.003922 0.721569 0.172549
0.007843 0.717647 0.172549
0.176471 0.713725 0.168627
0.388235 0.713725 0.164706
0.556863 0.709804 0.156863
0.705882 0.701961 0.137255
0.850980 0.690196 0.141176
0.972549 0.670588 0.152941
1.000000 0.654902 0.172549
0.000000 0.827451 0.109804
0.000000 0.827451 0.117647
0.109804 0.831373 0.109804
0.352941 0.831373 0.101961
0.517647 0.827451 0.086275
0.682353 0.823529 0.094118
0.823529 0.819608 0.082353
0.964706 0.811765 0.070588
0.996078 0.780392 0.070588
0.000000 0.956863 0.043137
0.003922 0.941176 0.066667
0.047059 0.952941 0.066667
0.325490 0.952941 0.058824
0.501961 0.945098 0.043137
0.647059 0.937255 0.007843
0.788235 0.933333 0.000000
0.937255 0.929412 0.007843
1.000000 0.917647 0.011765
0.003922 1.000000 0.000000
0.000000 1.000000 0.003922
0.000000 1.000000 0.000000
0.286275 1.000000 0.000000
0.462745 1.000000 0.007843
0.603922 1.000000 0.000000
0.752941 1.000000 0.003922
0.886275 1.000000 0.007843
1.000000 1.000000 0.000000
0.000000 0.000000 0.415686
0.121569 0.000000 0.415686
0.258824 0.003922 0.403922
0.415686 0.000000 0.423529
0.572549 0.000000 0.419608
0.717647 0.000000 0.423529
0.858824 0.000000 0.407843
0.980392 0.007843 0.388235
1.000000 0.003922 0.380392
0.000000 0.086275 0.411765
0.066667 0.086275 0.407843
0.262745 0.066667 0.415686
0.411765 0.027451 0.423529
0.568627 0.000000 0.423529
0.709804 0.000000 0.403922
0.850980 0.003922 0.400000
0.984314 0.000000 0.384314
1.000000 0.000000 0.376471
0.000000 0.250980 0.423529
0.007843 0.235294 0.415686
0.231373 0.231373 0.427451
0.419608 0.223529 0.423529
0.572549 0.219608 0.419608
0.721569 0.211765 0.400000
0.862745 0.192157 0.400000
0.988235 0.168627 0.384314
0.992157 0.152941 0.364706
0.000000 0.415686 0.423529
0.000000 0.411765 0.419608
0.200000 0.411765 0.419608
0.400000 0.400000 0.407843
0.556863 0.392157 0.407843
0.705882 0.384314 0.392157
0.854902 0.372549 0.392157
0.972549 0.360784 0.376471
0.996078 0.341176 0.368627
0.007843 0.568627 0.396078
0.000000 0.576471 0.400000
0.090196 0.572549 0.392157
0.380392 0.568627 0.380392
0.568627 0.560784 0.372549
0.717647 0.541176 0.376471
0.847059 0.541176 0.400000
0.968627 0.521569 0.376471
1.000000 0.501961 0.364706
0.000000 0.721569 0.356863
0.000000 0.729412 0.360784
0.007843 0.725490 0.360784
0.349020 0.713725 0.356863
0.552941 0.713725 0.352941
0.721569 0.701961 0.345098
0.854902 0.682353 0.333333
0.976471 0.666667 0.356863
1.000000 0.650980 0.372549
0.000000 0.835294 0.325490
0.000000 0.839216 0.329412
0.003922 0.831373 0.317647
0.325490 0.835294 0.317647
0.509804 0.827451 0.321569
0.670588 0.827451 0.309804
0.827451 0.815686 0.309804
0.964706 0.803922 0.301961
1.000000 0.780392 0.305882
0.003922 0.949020 0.301961
0.003922 0.949020 0.305882
0.000000 0.945098 0.301961
0.298039 0.952941 0.305882
0.478431 0.941176 0.298039
0.639216 0.941176 0.290196
0.784314 0.933333 0.286275
0.945098 0.933333 0.286275
1.000000 0.917647 0.274510
0.003922 1.000000 0.270588
0.000000 1.000000 0.278431
0.003922 1.000000 0.278431
0.262745 1.000000 0.274510
0.450980 1.000000 0.274510
0.603922 1.000000 0.278431
0.749020 1.000000 0.274510
0.882353 1.000000 0.270588
1.000000 1.000000 0.286275
0.007843 0.000000 0.568627
0.101961 0.011765 0.572549
0.270588 0.000000 0.568627
0.411765 0.000000 0.568627
0.564706 0.000000 0.576471
0.729412 0.000000 0.572549
0.850980 0.000000 0.552941
0.984314 0.000000 0.545098
1.000000 0.003922 0.529412
0.007843 0.070588 0.549020
0.047059 0.062745 0.556863
0.254902 0.031373 0.576471
0.411765 0.000000 0.576471
0.564706 0.003922 0.568627
0.717647 0.000000 0.568627
0.850980 0.000000 0.552941
0.980392 0.000000 0.541176
1.000000 0.000000 0.517647
0.003922 0.223529 0.564706
0.000000 0.219608 0.584314
0.203922 0.219608 0.576471
0.400000 0.196078 0.588235
0.576471 0.172549 0.584314
0.733333 0.164706 0.576471
0.862745 0.160784 0.560784
0.976471 0.145098 0.545098
1.000000 0.121569 0.521569
0.000000 0.392157 0.572549
0.000000 0.396078 0.584314
0.125490 0.384314 0.580392
0.376471 0.364706 0.580392
0.568627 0.352941 0.576471
0.713725 0.360784 0.560784
0.847059 0.364706 0.549020
0.972549 0.352941 0.541176
1.000000 0.345098 0.525490
0.000000 0.560784 0.584314
0.000000 0.572549 0.588235
0.000000 0.560784 0.576471
0.349020 0.556863 0.580392
0.556863 0.556863 0.564706
0.705882 0.545098 0.568627
0.847059 0.537255 0.556863
0.968627 0.525490 0.541176
0.996078 0.505882 0.521569
0.000000 0.725490 0.560784
0.000000 0.721569 0.556863
0.003922 0.713725 0.545098
0.317647 0.713725 0.549020
0.529412 0.709804 0.529412
0.709804 0.698039 0.521569
0.850980 0.678431 0.525490
0.964706 0.670588 0.545098
0.996078 0.654902 0.545098
0.000000 0.835294 0.505882
0.000000 0.835294 0.513725
0.000000 0.843137 0.509804
0.274510 0.839216 0.498039
0.498039 0.823529 0.501961
0.658824 0.823529 0.486275
0.827451 0.819608 0.494118
0.964706 0.800000 0.470588
0.996078 0.784314 0.494118
0.000000 0.956863 0.478431
0.000000 0.952941 0.478431
0.000000 0.945098 0.494118
0.270588 0.952941 0.478431
0.474510 0.941176 0.470588
0.639216 0.945098 0.478431
0.792157 0.929412 0.458824
0.933333 0.933333 0.462745
1.000000 0.905882 0.462745
0.000000 1.000000 0.450980
0.003922 1.000000 0.454902
0.000000 0.996078 0.466667
0.262745 1.000000 0.454902
0.447059 1.000000 0.450980
0.596078 0.996078 0.454902
0.749020 1.000000 0.450980
0.878431 1.000000 0.450980
0.992157 1.000000 0.458824
0.003922 0.000000 0.705882
0.082353 0.000000 0.709804
0.258824 0.003922 0.709804
0.419608 0.000000 0.709804
0.556863 0.000000 0.713725
0.705882 0.000000 0.701961
0.858824 0.000000 0.705882
0.976471 0.003922 0.694118
1.000000 0.000000 0.670588
0.007843 0.039216 0.701961
0.003922 0.027451 0.701961
0.250980 0.003922 0.705882
0.392157 0.003922 0.705882
0.560784 0.000000 0.705882
0.701961 0.000000 0.705882
0.843137 0.000000 0.701961
0.984314 0.000000 0.686275
0.992157 0.003922 0.674510
0.003922 0.196078 0.709804
0.000000 0.200000 0.717647
0.192157 0.188235 0.721569
0.380392 0.176471 0.713725
0.541176 0.160784 0.713725
0.713725 0.113725 0.709804
0.858824 0.074510 0.701961
0.972549 0.070588 0.690196
1.000000 0.058824 0.674510
0.007843 0.360784 0.705882
0.003922 0.360784 0.709804
0.019608 0.345098 0.713725
0.345098 0.341176 0.705882
0.533333 0.329412 0.713725
0.705882 0.321569 0.709804
0.858824 0.317647 0.694118
0.980392 0.325490 0.678431
0.988235 0.321569 0.666667
0.011765 0.529412 0.721569
0.000000 0.533333 0.713725
0.000000 0.529412 0.717647
0.321569 0.517647 0.717647
0.525490 0.505882 0.717647
0.701961 0.505882 0.713725
0.850980 0.513725 0.698039
0.972549 0.517647 0.694118
1.000000 0.509804 0.666667
0.000000 0.701961 0.717647
0.000000 0.701961 0.717647
0.000000 0.705882 0.717647
0.298039 0.705882 0.717647
0.509804 0.698039 0.705882
0.690196 0.682353 0.701961
0.823529 0.682353 0.690196
0.952941 0.670588 0.686275
0.992157 0.670588 0.678431
0.000000 0.827451 0.678431
0.000000 0.827451 0.678431
0.000000 0.835294 0.674510
0.254902 0.827451 0.674510
0.494118 0.827451 0.674510
0.662745 0.823529 0.666667
0.823529 0.815686 0.662745
0.945098 0.807843 0.658824
0.992157 0.792157 0.678431
0.000000 0.949020 0.650980
0.003922 0.949020 0.647059
0.003922 0.949020 0.639216
0.274510 0.945098 0.647059
0.470588 0.941176 0.650980
0.639216 0.937255 0.647059
0.784314 0.933333 0.631373
0.937255 0.929412 0.639216
1.000000 0.909804 0.635294
0.000000 1.000000 0.615686
0.000000 1.000000 0.623529
0.000000 1.000000 0.615686
0.305882 1.000000 0.635294
0.466667 0.996078 0.623529
0.619608 1.000000 0.627451
0.756863 1.000000 0.619608
0.882353 1.000000 0.615686
0.996078 1.000000 0.631373
0.003922 0.000000 0.843137
0.062745 0.000000 0.831373
0.235294 0.000000 0.831373
0.403922 0.000000 0.835294
0.545098 0.000000 0.835294
0.690196 0.000000 0.831373
0.819608 0.000000 0.835294
0.972549 0.000000 0.827451
1.000000 0.000000 0.803922
0.003922 0.003922 0.835294
0.007843 0.000000 0.831373
0.215686 0.003922 0.827451
0.384314 0.000000 0.827451
0.541176 0.000000 0.831373
0.686275 0.003922 0.835294
0.827451 0.003922 0.831373
0.968627 0.000000 0.827451
1.000000 0.000000 0.815686
0.000000 0.180392 0.839216
0.003922 0.176471 0.831373
0.168627 0.172549 0.823529
0.368627 0.164706 0.835294
0.521569 0.133333 0.831373
0.682353 0.090196 0.839216
0.835294 0.015686 0.823529
0.972549 0.003922 0.831373
1.000000 0.000000 0.807843
0.011765 0.321569 0.835294
0.000000 0.329412 0.835294
0.000000 0.321569 0.831373
0.333333 0.321569 0.835294
0.513725 0.309804 0.843137
0.670588 0.301961 0.835294
0.827451 0.286275 0.831373
0.980392 0.278431 0.839216
0.992157 0.286275 0.807843
0.000000 0.505882 0.835294
0.007843 0.494118 0.847059
0.000000 0.490196 0.831373
0.270588 0.490196 0.831373
0.494118 0.478431 0.847059
0.658824 0.474510 0.835294
0.835294 0.470588 0.827451
0.976471 0.470588 0.823529
1.000000 0.490196 0.803922
0.000000 0.658824 0.843137
0.007843 0.666667 0.843137
0.003922 0.658824 0.835294
0.266667 0.662745 0.843137
0.486275 0.654902 0.831373
0.666667 0.654902 0.831373
0.827451 0.658824 0.835294
0.952941 0.658824 0.811765
1.000000 0.654902 0.803922
0.003922 0.819608 0.827451
0.003922 0.819608 0.835294
0.000000 0.811765 0.835294
0.254902 0.827451 0.827451
0.474510 0.819608 0.827451
0.662745 0.815686 0.835294
0.807843 0.811765 0.827451
0.937255 0.811765 0.823529
0.996078 0.800000 0.811765
0.000000 0.945098 0.796078
0.000000 0.949020 0.815686
0.000000 0.945098 0.796078
0.270588 0.937255 0.796078
0.486275 0.941176 0.803922
0.643137 0.941176 0.800000
0.792157 0.929412 0.800000
0.929412 0.929412 0.796078
0.996078 0.913725 0.807843
0.000000 0.996078 0.760784
0.000000 1.000000 0.764706
0.031373 1.000000 0.760784
0.333333 0.996078 0.764706
0.509804 1.000000 0.780392
0.654902 0.996078 0.780392
0.772549 1.000000 0.772549
0.886275 1.000000 0.780392
1.000000 0.996078 0.784314
0.003922 0.000000 0.956863
0.023529 0.007843 0.937255
0.231373 0.000000 0.949020
0.388235 0.000000 0.945098
0.521569 0.000000 0.945098
0.662745 0.000000 0.937255
0.803922 0.000000 0.945098
0.945098 0.000000 0.945098
1.000000 0.000000 0.956863
0.000000 0.000000 0.937255
0.000000 0.000000 0.937255
0.211765 0.003922 0.945098
0.368627 0.000000 0.945098
0.509804 0.000000 0.956863
0.662745 0.000000 0.945098
0.800000 0.003922 0.945098
0.937255 0.000000 0.945098
0.996078 0.000000 0.937255
0.003922 0.168627 0.952941
0.003922 0.168627 0.945098
0.168627 0.156863 0.952941
0.345098 0.141176 0.949020
0.509804 0.125490 0.952941
0.654902 0.082353 0.949020
0.800000 0.003922 0.952941
0.949020 0.003922 0.941176
0.992157 0.003922 0.949020
0.003922 0.309804 0.945098
0.003922 0.317647 0.949020
0.003922 0.317647 0.949020
0.313725 0.309804 0.952941
0.490196 0.298039 0.952941
0.643137 0.282353 0.945098
0.792157 0.274510 0.949020
0.949020 0.254902 0.945098
1.000000 0.235294 0.941176
0.000000 0.466667 0.945098
0.003922 0.466667 0.949020
0.000000 0.462745 0.956863
0.262745 0.454902 0.956863
0.462745 0.454902 0.945098
0.631373 0.447059 0.949020
0.788235 0.450980 0.949020
0.949020 0.443137 0.949020
1.000000 0.450980 0.952941
0.000000 0.623529 0.941176
0.000000 0.623529 0.952941
0.000000 0.623529 0.945098
0.247059 0.627451 0.945098
0.462745 0.631373 0.941176
0.639216 0.619608 0.941176
0.788235 0.627451 0.937255
0.945098 0.627451 0.937255
1.000000 0.631373 0.929412
0.003922 0.776471 0.945098
0.000000 0.784314 0.949020
0.000000 0.780392 0.945098
0.250980 0.784314 0.941176
0.470588 0.780392 0.933333
0.643137 0.780392 0.937255
0.792157 0.792157 0.941176
0.933333 0.792157 0.941176
1.000000 0.800000 0.929412
0.003922 0.925490 0.937255
0.000000 0.929412 0.941176
0.003922 0.929412 0.921569
0.282353 0.929412 0.937255
0.482353 0.929412 0.929412
0.658824 0.925490 0.937255
0.803922 0.925490 0.933333
0.925490 0.925490 0.925490
1.000000 0.925490 0.933333
0.000000 1.000000 0.898039
0.000000 1.000000 0.898039
0.125490 0.996078 0.905882
0.356863 1.000000 0.901961
0.517647 0.996078 0.898039
0.666667 1.000000 0.905882
0.807843 1.000000 0.913725
0.901961 1.000000 0.905882
0.996078 1.000000 0.921569
0.000000 0.000000 0.996078
0.007843 0.003922 1.000000
0.223529 0.000000 1.000000
0.364706 0.000000 1.000000
0.498039 0.000000 1.000000
0.635294 0.003922 1.000000
0.768627 0.003922 1.000000
0.898039 0.000000 1.000000
1.000000 0.000000 1.000000
0.007843 0.003922 1.000000
0.000000 0.000000 0.996078
0.207843 0.000000 0.996078
0.360784 0.003922 1.000000
0.498039 0.000000 1.000000
0.631373 0.000000 1.000000
0.768627 0.000000 1.000000
0.898039 0.000000 1.000000
1.000000 0.003922 1.000000
0.003922 0.145098 1.000000
0.000000 0.160784 1.000000
0.152941 0.149020 0.992157
0.329412 0.137255 0.984314
0.486275 0.113725 1.000000
0.627451 0.074510 1.000000
0.764706 0.003922 1.000000
0.901961 0.000000 1.000000
1.000000 0.007843 0.992157
0.000000 0.301961 1.000000
0.000000 0.301961 1.000000
0.011765 0.298039 1.000000
0.298039 0.294118 1.000000
0.466667 0.278431 1.000000
0.615686 0.266667 0.996078
0.752941 0.258824 0.996078
0.898039 0.243137 1.000000
1.000000 0.231373 1.000000
0.000000 0.447059 0.992157
0.003922 0.439216 0.996078
0.000000 0.439216 1.000000
0.262745 0.439216 1.000000
0.443137 0.427451 1.000000
0.603922 0.431373 1.000000
0.752941 0.431373 1.000000
0.894118 0.423529 1.000000
1.000000 0.435294 1.000000
0.007843 0.588235 1.000000
0.000000 0.592157 0.996078
0.003922 0.596078 1.000000
0.254902 0.596078 1.000000
0.458824 0.596078 1.000000
0.607843 0.600000 0.996078
0.760784 0.600000 1.000000
0.894118 0.600000 0.996078
0.988235 0.611765 0.996078
0.000000 0.745098 1.000000
0.000000 0.737255 1.000000
0.007843 0.749020 1.000000
0.294118 0.745098 0.992157
0.490196 0.745098 0.996078
0.635294 0.752941 1.000000
0.768627 0.764706 1.000000
0.898039 0.764706 1.000000
1.000000 0.772549 1.000000
0.000000 0.886275 1.000000
0.000000 0.882353 1.000000
0.117647 0.878431 0.988235
0.341176 0.882353 0.996078
0.501961 0.886275 0.992157
0.650980 0.894118 0.992157
0.796078 0.898039 1.000000
0.909804 0.913725 0.996078
1.000000 0.901961 0.988235
0.003922 1.000000 1.000000
0.125490 0.996078 1.000000
0.274510 1.000000 1.000000
0.419608 1.000000 1.000000
0.556863 0.996078 1.000000
0.694118 1.000000 1.000000
0.823529 0.996078 1.000000
0.937255 1.000000 1.000000
1.000000 1.000000 1.000000
