loleis/其他/lut20种/Sports LUT #19.cube
TITLE "Sports LUT #19"
#LUT size
LUT_3D_SIZE 25
#LUT data points
0.000000 0.003922 0.000000
0.019608 0.003922 0.000000
0.078431 0.000000 0.003922
0.121569 0.000000 0.000000
0.176471 0.000000 0.003922
0.235294 0.000000 0.015686
0.278431 0.000000 0.011765
0.325490 0.003922 0.019608
0.376471 0.000000 0.007843
0.419608 0.003922 0.019608
0.474510 0.000000 0.019608
0.525490 0.003922 0.023529
0.576471 0.000000 0.031373
0.631373 0.003922 0.043137
0.686275 0.000000 0.050980
0.737255 0.000000 0.058824
0.792157 0.003922 0.066667
0.839216 0.011765 0.078431
0.886275 0.019608 0.090196
0.925490 0.035294 0.109804
0.964706 0.050980 0.125490
1.000000 0.070588 0.141176
1.000000 0.086275 0.160784
1.000000 0.101961 0.180392
0.996078 0.121569 0.192157
0.000000 0.027451 0.000000
0.031373 0.035294 0.003922
0.078431 0.039216 0.000000
0.129412 0.039216 0.007843
0.176471 0.043137 0.003922
0.215686 0.047059 0.011765
0.282353 0.047059 0.007843
0.317647 0.043137 0.011765
0.376471 0.050980 0.019608
0.427451 0.047059 0.019608
0.474510 0.047059 0.019608
0.525490 0.047059 0.027451
0.576471 0.047059 0.031373
0.635294 0.047059 0.043137
0.690196 0.050980 0.054902
0.745098 0.062745 0.066667
0.788235 0.066667 0.074510
0.831373 0.066667 0.082353
0.882353 0.078431 0.105882
0.929412 0.086275 0.117647
0.964706 0.098039 0.133333
1.000000 0.098039 0.145098
1.000000 0.109804 0.160784
1.000000 0.125490 0.180392
0.996078 0.152941 0.184314
0.000000 0.082353 0.000000
0.043137 0.078431 0.003922
0.086275 0.094118 0.011765
0.137255 0.086275 0.019608
0.176471 0.094118 0.011765
0.219608 0.094118 0.003922
0.274510 0.090196 0.011765
0.321569 0.094118 0.015686
0.376471 0.098039 0.019608
0.431373 0.098039 0.019608
0.478431 0.098039 0.031373
0.529412 0.098039 0.031373
0.576471 0.098039 0.039216
0.627451 0.101961 0.054902
0.682353 0.109804 0.058824
0.729412 0.109804 0.066667
0.788235 0.109804 0.082353
0.831373 0.113725 0.090196
0.878431 0.117647 0.109804
0.921569 0.121569 0.117647
0.968627 0.129412 0.129412
1.000000 0.133333 0.145098
0.996078 0.149020 0.152941
1.000000 0.152941 0.164706
0.996078 0.168627 0.192157
0.000000 0.141176 0.011765
0.039216 0.141176 0.003922
0.098039 0.137255 0.003922
0.141176 0.145098 0.019608
0.192157 0.141176 0.015686
0.235294 0.145098 0.019608
0.282353 0.145098 0.027451
0.329412 0.145098 0.027451
0.376471 0.145098 0.027451
0.431373 0.141176 0.027451
0.482353 0.145098 0.039216
0.533333 0.149020 0.043137
0.580392 0.149020 0.050980
0.631373 0.152941 0.058824
0.682353 0.152941 0.066667
0.741176 0.156863 0.078431
0.784314 0.160784 0.078431
0.835294 0.164706 0.098039
0.882353 0.164706 0.109804
0.925490 0.164706 0.125490
0.960784 0.168627 0.129412
0.992157 0.172549 0.152941
1.000000 0.176471 0.160784
0.996078 0.192157 0.180392
0.996078 0.203922 0.188235
0.007843 0.188235 0.007843
0.039216 0.192157 0.015686
0.090196 0.188235 0.023529
0.145098 0.188235 0.019608
0.188235 0.192157 0.019608
0.243137 0.200000 0.023529
0.286275 0.188235 0.027451
0.337255 0.192157 0.027451
0.384314 0.196078 0.039216
0.431373 0.196078 0.050980
0.478431 0.192157 0.054902
0.525490 0.196078 0.054902
0.580392 0.200000 0.062745
0.627451 0.200000 0.070588
0.686275 0.203922 0.074510
0.737255 0.207843 0.090196
0.784314 0.203922 0.094118
0.835294 0.207843 0.105882
0.874510 0.207843 0.109804
0.921569 0.207843 0.125490
0.960784 0.219608 0.145098
0.992157 0.219608 0.152941
0.996078 0.223529 0.160784
1.000000 0.223529 0.180392
1.000000 0.231373 0.196078
0.007843 0.247059 0.023529
0.031373 0.239216 0.019608
0.094118 0.247059 0.031373
0.141176 0.250980 0.023529
0.188235 0.247059 0.023529
0.250980 0.247059 0.027451
0.298039 0.247059 0.031373
0.337255 0.250980 0.027451
0.388235 0.247059 0.050980
0.439216 0.250980 0.062745
0.494118 0.247059 0.074510
0.545098 0.254902 0.078431
0.600000 0.250980 0.086275
0.654902 0.258824 0.094118
0.701961 0.258824 0.094118
0.752941 0.258824 0.101961
0.792157 0.266667 0.117647
0.843137 0.262745 0.121569
0.886275 0.262745 0.137255
0.925490 0.262745 0.141176
0.968627 0.266667 0.149020
0.996078 0.270588 0.160784
0.996078 0.266667 0.168627
1.000000 0.274510 0.192157
0.992157 0.282353 0.207843
0.011765 0.294118 0.043137
0.019608 0.294118 0.007843
0.086275 0.301961 0.035294
0.145098 0.286275 0.035294
0.196078 0.298039 0.043137
0.254902 0.298039 0.039216
0.294118 0.298039 0.039216
0.341176 0.298039 0.039216
0.396078 0.301961 0.058824
0.450980 0.298039 0.066667
0.490196 0.298039 0.078431
0.541176 0.301961 0.090196
0.592157 0.305882 0.098039
0.650980 0.309804 0.101961
0.701961 0.309804 0.105882
0.749020 0.309804 0.121569
0.800000 0.309804 0.129412
0.839216 0.309804 0.125490
0.886275 0.309804 0.141176
0.929412 0.313725 0.152941
0.968627 0.317647 0.160784
0.996078 0.313725 0.176471
0.996078 0.313725 0.180392
1.000000 0.317647 0.203922
1.000000 0.329412 0.227451
0.000000 0.341176 0.043137
0.011765 0.352941 0.047059
0.094118 0.341176 0.031373
0.141176 0.356863 0.031373
0.200000 0.349020 0.054902
0.243137 0.349020 0.047059
0.298039 0.345098 0.047059
0.349020 0.352941 0.054902
0.407843 0.352941 0.066667
0.450980 0.356863 0.074510
0.501961 0.356863 0.082353
0.549020 0.356863 0.094118
0.600000 0.360784 0.105882
0.650980 0.360784 0.121569
0.705882 0.356863 0.121569
0.752941 0.360784 0.125490
0.803922 0.360784 0.133333
0.843137 0.356863 0.145098
0.886275 0.352941 0.156863
0.921569 0.356863 0.160784
0.964706 0.356863 0.168627
1.000000 0.364706 0.184314
1.000000 0.356863 0.211765
0.996078 0.372549 0.219608
1.000000 0.364706 0.215686
0.007843 0.392157 0.058824
0.011765 0.403922 0.066667
0.074510 0.400000 0.054902
0.145098 0.396078 0.058824
0.192157 0.403922 0.066667
0.250980 0.400000 0.066667
0.298039 0.407843 0.074510
0.352941 0.407843 0.074510
0.400000 0.407843 0.078431
0.450980 0.411765 0.078431
0.505882 0.407843 0.078431
0.552941 0.407843 0.090196
0.600000 0.411765 0.090196
0.658824 0.407843 0.125490
0.701961 0.411765 0.133333
0.752941 0.411765 0.141176
0.792157 0.411765 0.145098
0.839216 0.407843 0.160784
0.878431 0.407843 0.168627
0.925490 0.403922 0.180392
0.964706 0.403922 0.184314
1.000000 0.403922 0.180392
0.996078 0.400000 0.203922
1.000000 0.400000 0.211765
0.996078 0.403922 0.235294
0.007843 0.443137 0.082353
0.000000 0.450980 0.078431
0.074510 0.454902 0.074510
0.141176 0.454902 0.074510
0.192157 0.454902 0.074510
0.247059 0.458824 0.082353
0.301961 0.458824 0.082353
0.356863 0.462745 0.090196
0.407843 0.462745 0.090196
0.458824 0.462745 0.094118
0.513725 0.462745 0.094118
0.560784 0.462745 0.101961
0.619608 0.466667 0.101961
0.662745 0.466667 0.117647
0.705882 0.462745 0.129412
0.752941 0.458824 0.141176
0.792157 0.454902 0.152941
0.831373 0.454902 0.164706
0.874510 0.454902 0.180392
0.917647 0.458824 0.188235
0.972549 0.450980 0.196078
1.000000 0.447059 0.203922
0.996078 0.447059 0.207843
1.000000 0.447059 0.227451
1.000000 0.447059 0.239216
0.000000 0.525490 0.090196
0.003922 0.521569 0.082353
0.070588 0.525490 0.090196
0.152941 0.529412 0.098039
0.203922 0.525490 0.094118
0.250980 0.521569 0.094118
0.305882 0.525490 0.090196
0.372549 0.525490 0.098039
0.415686 0.529412 0.098039
0.466667 0.537255 0.113725
0.521569 0.529412 0.109804
0.572549 0.529412 0.113725
0.623529 0.529412 0.113725
0.674510 0.529412 0.121569
0.725490 0.521569 0.133333
0.768627 0.521569 0.149020
0.807843 0.509804 0.164706
0.858824 0.509804 0.180392
0.894118 0.505882 0.188235
0.925490 0.505882 0.200000
0.976471 0.505882 0.207843
1.000000 0.501961 0.223529
1.000000 0.501961 0.231373
1.000000 0.498039 0.243137
0.996078 0.501961 0.270588
0.000000 0.572549 0.086275
0.003922 0.572549 0.113725
0.066667 0.572549 0.105882
0.129412 0.576471 0.090196
0.200000 0.576471 0.094118
0.262745 0.572549 0.105882
0.313725 0.580392 0.105882
0.360784 0.576471 0.105882
0.419608 0.580392 0.117647
0.466667 0.580392 0.117647
0.525490 0.584314 0.125490
0.580392 0.580392 0.133333
0.627451 0.576471 0.129412
0.682353 0.576471 0.133333
0.729412 0.572549 0.137255
0.768627 0.564706 0.137255
0.811765 0.564706 0.160784
0.847059 0.556863 0.168627
0.894118 0.552941 0.188235
0.933333 0.549020 0.207843
0.968627 0.552941 0.223529
1.000000 0.552941 0.235294
1.000000 0.541176 0.231373
1.000000 0.545098 0.250980
0.988235 0.549020 0.266667
0.007843 0.623529 0.109804
0.000000 0.627451 0.109804
0.054902 0.627451 0.105882
0.137255 0.631373 0.137255
0.184314 0.627451 0.109804
0.254902 0.627451 0.125490
0.309804 0.627451 0.121569
0.356863 0.627451 0.121569
0.415686 0.631373 0.129412
0.466667 0.627451 0.125490
0.513725 0.627451 0.125490
0.572549 0.631373 0.141176
0.627451 0.627451 0.141176
0.670588 0.627451 0.141176
0.721569 0.619608 0.145098
0.772549 0.619608 0.152941
0.811765 0.611765 0.160784
0.850980 0.607843 0.172549
0.890196 0.603922 0.192157
0.925490 0.600000 0.200000
0.964706 0.596078 0.219608
1.000000 0.596078 0.231373
1.000000 0.588235 0.250980
0.996078 0.584314 0.266667
1.000000 0.588235 0.282353
0.007843 0.666667 0.121569
0.000000 0.666667 0.125490
0.050980 0.674510 0.117647
0.137255 0.674510 0.125490
0.192157 0.666667 0.113725
0.254902 0.674510 0.125490
0.301961 0.670588 0.129412
0.356863 0.674510 0.137255
0.407843 0.674510 0.137255
0.462745 0.674510 0.137255
0.513725 0.670588 0.141176
0.568627 0.670588 0.141176
0.619608 0.662745 0.149020
0.666667 0.674510 0.152941
0.713725 0.674510 0.160784
0.764706 0.666667 0.160784
0.807843 0.658824 0.160784
0.850980 0.654902 0.172549
0.886275 0.647059 0.188235
0.925490 0.643137 0.207843
0.956863 0.639216 0.219608
0.996078 0.635294 0.247059
1.000000 0.635294 0.262745
1.000000 0.631373 0.270588
1.000000 0.627451 0.290196
0.000000 0.713725 0.125490
0.000000 0.713725 0.137255
0.058824 0.713725 0.125490
0.141176 0.713725 0.137255
0.203922 0.713725 0.133333
0.250980 0.713725 0.133333
0.301961 0.717647 0.137255
0.349020 0.717647 0.137255
0.403922 0.709804 0.141176
0.458824 0.713725 0.149020
0.513725 0.717647 0.149020
0.556863 0.721569 0.156863
0.615686 0.709804 0.160784
0.662745 0.709804 0.168627
0.705882 0.709804 0.168627
0.760784 0.713725 0.180392
0.803922 0.709804 0.184314
0.847059 0.701961 0.184314
0.882353 0.690196 0.188235
0.917647 0.682353 0.196078
0.960784 0.682353 0.227451
0.996078 0.674510 0.235294
0.996078 0.674510 0.250980
0.996078 0.666667 0.278431
1.000000 0.670588 0.294118
0.011765 0.768627 0.160784
0.035294 0.768627 0.168627
0.090196 0.768627 0.172549
0.152941 0.768627 0.168627
0.211765 0.772549 0.168627
0.262745 0.768627 0.168627
0.313725 0.768627 0.168627
0.364706 0.768627 0.168627
0.415686 0.772549 0.172549
0.458824 0.768627 0.176471
0.513725 0.764706 0.180392
0.564706 0.760784 0.176471
0.611765 0.760784 0.180392
0.662745 0.764706 0.180392
0.709804 0.764706 0.188235
0.752941 0.760784 0.192157
0.803922 0.760784 0.196078
0.850980 0.760784 0.211765
0.890196 0.749020 0.215686
0.929412 0.737255 0.223529
0.968627 0.729412 0.239216
1.000000 0.725490 0.250980
1.000000 0.725490 0.270588
1.000000 0.725490 0.286275
1.000000 0.717647 0.317647
0.000000 0.800000 0.176471
0.058824 0.807843 0.160784
0.117647 0.803922 0.188235
0.168627 0.803922 0.172549
0.203922 0.807843 0.180392
0.254902 0.811765 0.176471
0.313725 0.807843 0.176471
0.368627 0.803922 0.188235
0.411765 0.803922 0.184314
0.462745 0.803922 0.188235
0.509804 0.807843 0.188235
0.552941 0.803922 0.192157
0.603922 0.803922 0.196078
0.650980 0.803922 0.196078
0.698039 0.800000 0.200000
0.745098 0.803922 0.211765
0.788235 0.800000 0.215686
0.839216 0.800000 0.215686
0.890196 0.792157 0.223529
0.925490 0.788235 0.231373
0.964706 0.784314 0.247059
1.000000 0.772549 0.278431
1.000000 0.772549 0.290196
1.000000 0.764706 0.313725
1.000000 0.752941 0.337255
0.070588 0.843137 0.196078
0.098039 0.839216 0.192157
0.145098 0.835294 0.203922
0.184314 0.839216 0.192157
0.235294 0.843137 0.192157
0.258824 0.843137 0.200000
0.313725 0.843137 0.200000
0.360784 0.839216 0.200000
0.407843 0.843137 0.200000
0.454902 0.839216 0.200000
0.501961 0.839216 0.207843
0.549020 0.843137 0.211765
0.600000 0.835294 0.207843
0.647059 0.831373 0.211765
0.694118 0.839216 0.223529
0.737255 0.835294 0.223529
0.780392 0.835294 0.227451
0.823529 0.835294 0.235294
0.874510 0.835294 0.250980
0.917647 0.831373 0.258824
0.952941 0.827451 0.266667
0.988235 0.819608 0.274510
1.000000 0.811765 0.278431
1.000000 0.800000 0.309804
0.996078 0.803922 0.341176
0.125490 0.878431 0.207843
0.152941 0.882353 0.219608
0.172549 0.878431 0.223529
0.207843 0.874510 0.219608
0.231373 0.882353 0.223529
0.282353 0.878431 0.211765
0.321569 0.874510 0.219608
0.368627 0.878431 0.219608
0.415686 0.882353 0.227451
0.458824 0.878431 0.235294
0.498039 0.878431 0.231373
0.545098 0.878431 0.239216
0.592157 0.874510 0.239216
0.647059 0.866667 0.243137
0.690196 0.870588 0.250980
0.737255 0.870588 0.254902
0.776471 0.870588 0.250980
0.815686 0.870588 0.254902
0.862745 0.866667 0.262745
0.905882 0.870588 0.270588
0.945098 0.866667 0.282353
0.992157 0.847059 0.286275
1.000000 0.854902 0.305882
0.996078 0.839216 0.325490
1.000000 0.839216 0.352941
0.164706 0.909804 0.235294
0.188235 0.917647 0.254902
0.211765 0.905882 0.247059
0.235294 0.913725 0.254902
0.270588 0.909804 0.254902
0.298039 0.905882 0.254902
0.341176 0.909804 0.254902
0.384314 0.913725 0.266667
0.427451 0.909804 0.258824
0.470588 0.913725 0.262745
0.509804 0.913725 0.266667
0.545098 0.909804 0.258824
0.588235 0.905882 0.266667
0.631373 0.905882 0.274510
0.678431 0.905882 0.278431
0.721569 0.901961 0.274510
0.764706 0.898039 0.282353
0.803922 0.898039 0.286275
0.854902 0.898039 0.294118
0.898039 0.901961 0.301961
0.933333 0.894118 0.305882
0.972549 0.894118 0.317647
0.996078 0.890196 0.337255
1.000000 0.882353 0.356863
1.000000 0.874510 0.368627
0.235294 0.952941 0.294118
0.250980 0.956863 0.301961
0.278431 0.949020 0.298039
0.298039 0.945098 0.298039
0.317647 0.949020 0.298039
0.352941 0.949020 0.309804
0.372549 0.949020 0.298039
0.403922 0.949020 0.301961
0.447059 0.945098 0.298039
0.486275 0.941176 0.309804
0.525490 0.941176 0.305882
0.560784 0.945098 0.313725
0.600000 0.937255 0.313725
0.643137 0.941176 0.313725
0.690196 0.941176 0.325490
0.729412 0.941176 0.329412
0.772549 0.933333 0.329412
0.815686 0.937255 0.337255
0.847059 0.937255 0.341176
0.882353 0.937255 0.352941
0.933333 0.933333 0.360784
0.972549 0.929412 0.364706
0.996078 0.925490 0.384314
1.000000 0.925490 0.396078
1.000000 0.909804 0.423529
0.270588 0.976471 0.313725
0.294118 0.972549 0.313725
0.301961 0.964706 0.317647
0.325490 0.980392 0.333333
0.345098 0.976471 0.317647
0.364706 0.972549 0.329412
0.400000 0.972549 0.341176
0.423529 0.976471 0.325490
0.462745 0.976471 0.333333
0.501961 0.976471 0.337255
0.537255 0.968627 0.337255
0.568627 0.964706 0.345098
0.607843 0.964706 0.349020
0.650980 0.968627 0.360784
0.690196 0.968627 0.364706
0.733333 0.964706 0.368627
0.768627 0.964706 0.372549
0.800000 0.964706 0.384314
0.831373 0.964706 0.388235
0.874510 0.960784 0.392157
0.921569 0.956863 0.396078
0.968627 0.956863 0.403922
0.988235 0.956863 0.419608
0.996078 0.956863 0.439216
0.996078 0.956863 0.439216
0.337255 0.996078 0.380392
0.352941 1.000000 0.368627
0.360784 1.000000 0.380392
0.368627 1.000000 0.380392
0.384314 0.996078 0.372549
0.411765 1.000000 0.384314
0.431373 1.000000 0.380392
0.466667 1.000000 0.380392
0.494118 0.996078 0.380392
0.521569 0.996078 0.380392
0.549020 0.992157 0.388235
0.580392 0.996078 0.400000
0.615686 0.992157 0.400000
0.647059 0.996078 0.407843
0.682353 0.988235 0.407843
0.721569 0.988235 0.411765
0.772549 0.988235 0.415686
0.803922 0.992157 0.427451
0.835294 0.988235 0.435294
0.874510 0.984314 0.447059
0.901961 0.984314 0.447059
0.941176 0.980392 0.466667
0.976471 0.984314 0.462745
0.988235 0.984314 0.486275
1.000000 0.980392 0.486275
0.396078 1.000000 0.427451
0.400000 1.000000 0.403922
0.407843 1.000000 0.419608
0.427451 1.000000 0.431373
0.431373 0.992157 0.427451
0.447059 1.000000 0.431373
0.474510 0.996078 0.427451
0.501961 0.996078 0.431373
0.521569 1.000000 0.431373
0.549020 1.000000 0.439216
0.564706 1.000000 0.439216
0.603922 1.000000 0.443137
0.635294 1.000000 0.447059
0.654902 1.000000 0.447059
0.698039 1.000000 0.458824
0.733333 1.000000 0.470588
0.764706 1.000000 0.474510
0.796078 1.000000 0.474510
0.835294 0.996078 0.478431
0.870588 1.000000 0.486275
0.901961 1.000000 0.498039
0.937255 1.000000 0.509804
0.972549 0.996078 0.517647
0.996078 0.996078 0.525490
1.000000 1.000000 0.521569
0.450980 1.000000 0.478431
0.458824 0.996078 0.478431
0.470588 0.996078 0.482353
0.482353 1.000000 0.470588
0.474510 1.000000 0.474510
0.494118 1.000000 0.478431
0.513725 1.000000 0.474510
0.529412 1.000000 0.478431
0.552941 0.996078 0.482353
0.568627 0.996078 0.490196
0.600000 1.000000 0.498039
0.627451 1.000000 0.498039
0.650980 1.000000 0.498039
0.682353 1.000000 0.498039
0.713725 0.996078 0.501961
0.741176 1.000000 0.513725
0.772549 1.000000 0.525490
0.800000 1.000000 0.525490
0.827451 0.996078 0.533333
0.858824 0.996078 0.533333
0.890196 1.000000 0.549020
0.933333 1.000000 0.552941
0.960784 1.000000 0.560784
0.972549 0.996078 0.572549
0.996078 1.000000 0.584314
0.007843 0.000000 0.043137
0.023529 0.000000 0.047059
0.078431 0.000000 0.047059
0.125490 0.000000 0.050980
0.172549 0.000000 0.050980
0.227451 0.000000 0.058824
0.278431 0.000000 0.062745
0.325490 0.000000 0.062745
0.380392 0.000000 0.074510
0.423529 0.000000 0.078431
0.474510 0.000000 0.074510
0.521569 0.000000 0.074510
0.576471 0.000000 0.074510
0.635294 0.000000 0.082353
0.694118 0.003922 0.094118
0.737255 0.000000 0.105882
0.784314 0.007843 0.113725
0.831373 0.007843 0.121569
0.878431 0.015686 0.125490
0.925490 0.035294 0.141176
0.968627 0.050980 0.149020
0.996078 0.062745 0.156863
1.000000 0.086275 0.172549
1.000000 0.101961 0.192157
0.996078 0.121569 0.203922
0.000000 0.039216 0.047059
0.027451 0.031373 0.047059
0.082353 0.039216 0.062745
0.129412 0.031373 0.047059
0.180392 0.043137 0.066667
0.219608 0.035294 0.066667
0.278431 0.039216 0.058824
0.321569 0.043137 0.066667
0.364706 0.039216 0.070588
0.423529 0.043137 0.078431
0.474510 0.043137 0.078431
0.529412 0.043137 0.082353
0.580392 0.047059 0.094118
0.635294 0.047059 0.094118
0.686275 0.050980 0.101961
0.737255 0.050980 0.101961
0.788235 0.058824 0.113725
0.839216 0.070588 0.125490
0.882353 0.070588 0.133333
0.925490 0.082353 0.145098
0.960784 0.090196 0.149020
0.996078 0.101961 0.168627
1.000000 0.109804 0.176471
1.000000 0.129412 0.188235
1.000000 0.145098 0.211765
0.000000 0.078431 0.058824
0.027451 0.086275 0.058824
0.082353 0.094118 0.058824
0.129412 0.086275 0.062745
0.184314 0.094118 0.070588
0.231373 0.094118 0.078431
0.282353 0.098039 0.074510
0.325490 0.094118 0.078431
0.372549 0.094118 0.078431
0.423529 0.098039 0.074510
0.478431 0.094118 0.082353
0.525490 0.098039 0.086275
0.584314 0.098039 0.090196
0.631373 0.101961 0.090196
0.690196 0.101961 0.109804
0.741176 0.101961 0.113725
0.792157 0.109804 0.117647
0.831373 0.113725 0.129412
0.878431 0.113725 0.137255
0.925490 0.121569 0.141176
0.972549 0.129412 0.156863
1.000000 0.133333 0.172549
0.996078 0.145098 0.176471
1.000000 0.149020 0.192157
1.000000 0.168627 0.215686
0.000000 0.145098 0.062745
0.015686 0.141176 0.058824
0.094118 0.141176 0.062745
0.125490 0.137255 0.070588
0.192157 0.141176 0.066667
0.231373 0.141176 0.078431
0.282353 0.141176 0.086275
0.329412 0.145098 0.082353
0.372549 0.141176 0.078431
0.423529 0.141176 0.082353
0.478431 0.141176 0.082353
0.529412 0.149020 0.086275
0.580392 0.149020 0.098039
0.631373 0.152941 0.094118
0.678431 0.152941 0.105882
0.733333 0.152941 0.113725
0.784314 0.152941 0.113725
0.835294 0.156863 0.129412
0.878431 0.160784 0.137255
0.921569 0.160784 0.152941
0.960784 0.168627 0.160784
0.992157 0.176471 0.160784
0.988235 0.180392 0.180392
1.000000 0.184314 0.196078
0.996078 0.200000 0.215686
0.007843 0.184314 0.070588
0.027451 0.188235 0.070588
0.090196 0.188235 0.070588
0.137255 0.196078 0.074510
0.203922 0.188235 0.074510
0.247059 0.192157 0.086275
0.290196 0.188235 0.082353
0.333333 0.196078 0.086275
0.388235 0.192157 0.086275
0.435294 0.192157 0.094118
0.486275 0.196078 0.098039
0.529412 0.200000 0.098039
0.592157 0.200000 0.109804
0.635294 0.200000 0.121569
0.682353 0.203922 0.113725
0.733333 0.203922 0.117647
0.788235 0.203922 0.125490
0.835294 0.211765 0.137255
0.878431 0.203922 0.149020
0.921569 0.207843 0.156863
0.956863 0.211765 0.164706
0.992157 0.215686 0.180392
1.000000 0.223529 0.188235
1.000000 0.223529 0.196078
1.000000 0.227451 0.207843
0.000000 0.243137 0.074510
0.023529 0.239216 0.074510
0.086275 0.247059 0.082353
0.137255 0.250980 0.078431
0.180392 0.247059 0.074510
0.247059 0.250980 0.086275
0.298039 0.247059 0.082353
0.341176 0.250980 0.086275
0.388235 0.250980 0.094118
0.439216 0.250980 0.101961
0.486275 0.250980 0.109804
0.537255 0.250980 0.121569
0.588235 0.250980 0.121569
0.643137 0.254902 0.129412
0.701961 0.258824 0.141176
0.749020 0.258824 0.141176
0.788235 0.258824 0.133333
0.839216 0.258824 0.141176
0.886275 0.258824 0.156863
0.929412 0.262745 0.164706
0.968627 0.262745 0.172549
0.996078 0.266667 0.184314
0.996078 0.270588 0.192157
0.992157 0.274510 0.203922
1.000000 0.278431 0.227451
0.000000 0.294118 0.074510
0.000000 0.301961 0.090196
0.070588 0.294118 0.086275
0.141176 0.298039 0.090196
0.196078 0.286275 0.074510
0.247059 0.298039 0.090196
0.301961 0.301961 0.098039
0.352941 0.301961 0.094118
0.396078 0.294118 0.101961
0.447059 0.298039 0.113725
0.494118 0.294118 0.117647
0.545098 0.298039 0.129412
0.592157 0.298039 0.133333
0.647059 0.305882 0.129412
0.694118 0.309804 0.133333
0.752941 0.309804 0.152941
0.800000 0.305882 0.156863
0.843137 0.309804 0.160784
0.886275 0.305882 0.164706
0.929412 0.309804 0.164706
0.964706 0.309804 0.168627
0.996078 0.317647 0.192157
1.000000 0.321569 0.203922
1.000000 0.321569 0.223529
0.992157 0.317647 0.231373
0.003922 0.341176 0.086275
0.000000 0.345098 0.082353
0.078431 0.349020 0.094118
0.141176 0.345098 0.086275
0.200000 0.352941 0.105882
0.243137 0.349020 0.086275
0.301961 0.349020 0.098039
0.349020 0.349020 0.098039
0.400000 0.356863 0.113725
0.447059 0.352941 0.109804
0.501961 0.349020 0.117647
0.549020 0.349020 0.125490
0.600000 0.352941 0.141176
0.654902 0.356863 0.152941
0.698039 0.364706 0.152941
0.741176 0.360784 0.160784
0.796078 0.356863 0.160784
0.835294 0.356863 0.164706
0.886275 0.356863 0.172549
0.925490 0.356863 0.180392
0.956863 0.356863 0.184314
0.992157 0.360784 0.196078
1.000000 0.352941 0.219608
1.000000 0.356863 0.219608
1.000000 0.360784 0.223529
0.000000 0.396078 0.090196
0.000000 0.400000 0.101961
0.074510 0.396078 0.098039
0.133333 0.400000 0.105882
0.184314 0.407843 0.105882
0.247059 0.396078 0.094118
0.298039 0.403922 0.101961
0.352941 0.407843 0.105882
0.400000 0.407843 0.113725
0.454902 0.407843 0.117647
0.501961 0.407843 0.125490
0.556863 0.407843 0.129412
0.603922 0.407843 0.137255
0.658824 0.411765 0.149020
0.705882 0.407843 0.164706
0.752941 0.403922 0.168627
0.784314 0.407843 0.172549
0.835294 0.407843 0.184314
0.878431 0.403922 0.180392
0.917647 0.403922 0.184314
0.956863 0.403922 0.196078
1.000000 0.396078 0.200000
0.996078 0.400000 0.207843
1.000000 0.403922 0.211765
1.000000 0.403922 0.239216
0.000000 0.454902 0.101961
0.003922 0.450980 0.109804
0.062745 0.454902 0.101961
0.129412 0.454902 0.101961
0.192157 0.458824 0.117647
0.243137 0.462745 0.121569
0.294118 0.458824 0.121569
0.349020 0.458824 0.125490
0.403922 0.458824 0.117647
0.450980 0.462745 0.121569
0.509804 0.462745 0.125490
0.564706 0.462745 0.129412
0.611765 0.462745 0.129412
0.650980 0.462745 0.141176
0.701961 0.458824 0.156863
0.749020 0.458824 0.172549
0.800000 0.458824 0.180392
0.839216 0.458824 0.192157
0.874510 0.450980 0.196078
0.913725 0.450980 0.200000
0.964706 0.447059 0.203922
0.996078 0.447059 0.215686
0.996078 0.443137 0.223529
1.000000 0.447059 0.235294
1.000000 0.447059 0.239216
0.000000 0.521569 0.121569
0.000000 0.517647 0.117647
0.062745 0.517647 0.121569
0.137255 0.521569 0.125490
0.200000 0.521569 0.121569
0.247059 0.525490 0.125490
0.301961 0.521569 0.125490
0.372549 0.521569 0.133333
0.411765 0.521569 0.121569
0.462745 0.525490 0.137255
0.521569 0.521569 0.137255
