loleis/其他/lut20种/Sports LUT #5.cube
TITLE "Sports LUT #5"
#LUT size
LUT_3D_SIZE 9
#LUT data points
0.070588 0.070588 0.070588
0.156863 0.074510 0.070588
0.282353 0.070588 0.070588
0.403922 0.066667 0.070588
0.552941 0.058824 0.070588
0.717647 0.039216 0.062745
0.850980 0.019608 0.066667
0.972549 0.007843 0.058824
1.000000 0.000000 0.062745
0.054902 0.164706 0.066667
0.152941 0.160784 0.066667
0.270588 0.160784 0.074510
0.400000 0.160784 0.078431
0.560784 0.160784 0.074510
0.709804 0.160784 0.070588
0.843137 0.152941 0.062745
0.964706 0.137255 0.054902
0.996078 0.149020 0.066667
0.019608 0.282353 0.082353
0.133333 0.278431 0.074510
0.270588 0.278431 0.082353
0.407843 0.286275 0.070588
0.568627 0.298039 0.066667
0.713725 0.301961 0.047059
0.854902 0.298039 0.054902
0.972549 0.290196 0.054902
1.000000 0.274510 0.062745
0.003922 0.435294 0.054902
0.078431 0.443137 0.035294
0.266667 0.443137 0.039216
0.411765 0.443137 0.047059
0.568627 0.439216 0.019608
0.713725 0.435294 0.027451
0.843137 0.427451 0.027451
0.952941 0.419608 0.027451
1.000000 0.407843 0.019608
0.000000 0.607843 0.000000
0.011765 0.611765 0.011765
0.231373 0.603922 0.000000
0.396078 0.603922 0.007843
0.564706 0.600000 0.000000
0.709804 0.588235 0.000000
0.835294 0.576471 0.003922
0.960784 0.560784 0.000000
1.000000 0.552941 0.035294
0.000000 0.760784 0.003922
0.000000 0.764706 0.003922
0.156863 0.749020 0.007843
0.376471 0.749020 0.000000
0.545098 0.737255 0.000000
0.690196 0.729412 0.003922
0.835294 0.717647 0.000000
0.949020 0.705882 0.000000
0.996078 0.690196 0.023529
0.007843 0.850980 0.007843
0.000000 0.850980 0.000000
0.054902 0.854902 0.000000
0.333333 0.847059 0.000000
0.501961 0.843137 0.000000
0.647059 0.839216 0.000000
0.788235 0.827451 0.000000
0.937255 0.831373 0.000000
1.000000 0.800000 0.000000
0.003922 0.945098 0.031373
0.003922 0.952941 0.066667
0.047059 0.949020 0.074510
0.309804 0.956863 0.078431
0.474510 0.949020 0.066667
0.615686 0.949020 0.062745
0.760784 0.941176 0.066667
0.905882 0.933333 0.082353
1.000000 0.941176 0.105882
0.000000 1.000000 0.121569
0.000000 1.000000 0.152941
0.117647 0.992157 0.164706
0.313725 1.000000 0.149020
0.458824 1.000000 0.145098
0.584314 1.000000 0.129412
0.721569 1.000000 0.133333
0.839216 1.000000 0.133333
0.960784 0.996078 0.152941
0.074510 0.062745 0.176471
0.164706 0.066667 0.180392
0.282353 0.074510 0.176471
0.403922 0.070588 0.184314
0.556863 0.003922 0.168627
0.717647 0.003922 0.164706
0.847059 0.003922 0.168627
0.976471 0.003922 0.149020
0.992157 0.003922 0.156863
0.050980 0.160784 0.176471
0.156863 0.160784 0.176471
0.262745 0.160784 0.172549
0.396078 0.156863 0.176471
0.556863 0.145098 0.172549
0.698039 0.125490 0.164706
0.827451 0.113725 0.160784
0.949020 0.109804 0.156863
1.000000 0.101961 0.141176
0.000000 0.282353 0.164706
0.117647 0.286275 0.168627
0.262745 0.278431 0.172549
0.403922 0.282353 0.168627
0.556863 0.286275 0.164706
0.717647 0.286275 0.156863
0.843137 0.274510 0.160784
0.968627 0.266667 0.149020
1.000000 0.262745 0.149020
0.000000 0.427451 0.149020
0.000000 0.427451 0.160784
0.239216 0.423529 0.149020
0.400000 0.431373 0.145098
0.552941 0.427451 0.141176
0.690196 0.423529 0.145098
0.819608 0.415686 0.152941
0.937255 0.396078 0.141176
1.000000 0.392157 0.129412
0.000000 0.592157 0.117647
0.000000 0.596078 0.109804
0.188235 0.596078 0.121569
0.396078 0.596078 0.121569
0.560784 0.592157 0.117647
0.705882 0.580392 0.113725
0.831373 0.568627 0.125490
0.956863 0.560784 0.145098
1.000000 0.549020 0.137255
0.000000 0.741176 0.098039
0.003922 0.733333 0.101961
0.129412 0.741176 0.117647
0.356863 0.741176 0.109804
0.529412 0.725490 0.101961
0.682353 0.725490 0.109804
0.827451 0.713725 0.101961
0.941176 0.698039 0.121569
1.000000 0.678431 0.168627
0.003922 0.847059 0.094118
0.003922 0.850980 0.109804
0.000000 0.843137 0.101961
0.313725 0.835294 0.101961
0.490196 0.847059 0.105882
0.643137 0.831373 0.109804
0.784314 0.823529 0.098039
0.917647 0.819608 0.078431
1.000000 0.807843 0.109804
0.000000 0.945098 0.156863
0.000000 0.956863 0.168627
0.058824 0.952941 0.172549
0.313725 0.941176 0.172549
0.474510 0.949020 0.168627
0.623529 0.937255 0.164706
0.756863 0.937255 0.164706
0.890196 0.929412 0.172549
1.000000 0.933333 0.188235
0.000000 1.000000 0.176471
0.000000 1.000000 0.196078
0.101961 0.996078 0.207843
0.301961 1.000000 0.200000
0.454902 1.000000 0.203922
0.596078 1.000000 0.196078
0.717647 1.000000 0.192157
0.839216 1.000000 0.203922
0.949020 1.000000 0.200000
0.058824 0.066667 0.305882
0.149020 0.062745 0.305882
0.282353 0.062745 0.317647
0.411765 0.050980 0.313725
0.556863 0.003922 0.313725
0.729412 0.000000 0.325490
0.854902 0.000000 0.309804
0.984314 0.000000 0.301961
0.988235 0.000000 0.286275
0.019608 0.152941 0.301961
0.137255 0.149020 0.309804
0.270588 0.149020 0.309804
0.407843 0.145098 0.313725
0.556863 0.125490 0.317647
0.717647 0.082353 0.313725
0.835294 0.011765 0.290196
0.964706 0.000000 0.286275
1.000000 0.043137 0.294118
0.000000 0.282353 0.305882
0.078431 0.286275 0.317647
0.258824 0.270588 0.305882
0.411765 0.270588 0.309804
0.564706 0.266667 0.305882
0.717647 0.254902 0.301961
0.847059 0.250980 0.301961
0.976471 0.254902 0.301961
1.000000 0.254902 0.294118
0.007843 0.427451 0.309804
0.003922 0.435294 0.298039
0.207843 0.431373 0.294118
0.400000 0.427451 0.294118
0.560784 0.427451 0.290196
0.690196 0.411765 0.294118
0.827451 0.403922 0.290196
0.941176 0.396078 0.282353
0.996078 0.388235 0.270588
0.000000 0.592157 0.298039
0.000000 0.592157 0.282353
0.101961 0.600000 0.290196
0.372549 0.596078 0.286275
0.552941 0.584314 0.282353
0.701961 0.576471 0.282353
0.831373 0.560784 0.290196
0.952941 0.552941 0.301961
0.996078 0.545098 0.290196
0.000000 0.749020 0.305882
0.003922 0.741176 0.301961
0.003922 0.737255 0.294118
0.345098 0.737255 0.282353
0.525490 0.733333 0.286275
0.678431 0.725490 0.286275
0.831373 0.713725 0.282353
0.941176 0.694118 0.282353
1.000000 0.682353 0.313725
0.000000 0.835294 0.278431
0.000000 0.843137 0.282353
0.000000 0.847059 0.278431
0.317647 0.839216 0.278431
0.486275 0.831373 0.286275
0.639216 0.831373 0.278431
0.780392 0.823529 0.278431
0.925490 0.819608 0.266667
1.000000 0.800000 0.282353
0.011765 0.945098 0.317647
0.000000 0.949020 0.321569
0.117647 0.949020 0.313725
0.325490 0.945098 0.321569
0.486275 0.945098 0.321569
0.627451 0.933333 0.298039
0.756863 0.937255 0.309804
0.890196 0.937255 0.309804
1.000000 0.929412 0.317647
0.000000 1.000000 0.317647
0.003922 0.996078 0.325490
0.176471 1.000000 0.337255
0.325490 1.000000 0.325490
0.466667 1.000000 0.325490
0.607843 0.996078 0.325490
0.729412 1.000000 0.321569
0.843137 1.000000 0.317647
0.960784 0.996078 0.325490
0.035294 0.050980 0.470588
0.160784 0.047059 0.478431
0.286275 0.035294 0.474510
0.427451 0.003922 0.474510
0.576471 0.000000 0.474510
0.725490 0.003922 0.474510
0.854902 0.003922 0.462745
0.972549 0.003922 0.454902
1.000000 0.003922 0.443137
0.000000 0.145098 0.470588
0.109804 0.141176 0.474510
0.270588 0.129412 0.470588
0.423529 0.113725 0.474510
0.572549 0.086275 0.470588
0.713725 0.039216 0.462745
0.847059 0.003922 0.462745
0.964706 0.000000 0.447059
0.996078 0.082353 0.439216
0.000000 0.282353 0.478431
0.000000 0.270588 0.486275
0.227451 0.270588 0.490196
0.415686 0.262745 0.486275
0.580392 0.250980 0.482353
0.721569 0.254902 0.474510
0.847059 0.254902 0.462745
0.972549 0.266667 0.454902
1.000000 0.286275 0.458824
0.000000 0.431373 0.474510
0.000000 0.435294 0.478431
0.168627 0.435294 0.486275
0.380392 0.419608 0.466667
0.560784 0.419608 0.466667
0.694118 0.411765 0.458824
0.827451 0.411765 0.458824
0.945098 0.407843 0.447059
1.000000 0.407843 0.443137
0.000000 0.596078 0.474510
0.000000 0.600000 0.478431
0.050980 0.596078 0.474510
0.360784 0.592157 0.474510
0.537255 0.588235 0.478431
0.698039 0.580392 0.470588
0.827451 0.568627 0.474510
0.945098 0.556863 0.466667
1.000000 0.560784 0.466667
0.000000 0.741176 0.474510
0.003922 0.737255 0.470588
0.054902 0.741176 0.470588
0.345098 0.733333 0.470588
0.533333 0.733333 0.470588
0.686275 0.729412 0.470588
0.827451 0.705882 0.450980
0.941176 0.698039 0.466667
1.000000 0.694118 0.474510
0.000000 0.839216 0.454902
0.003922 0.843137 0.466667
0.125490 0.835294 0.462745
0.337255 0.839216 0.458824
0.501961 0.839216 0.458824
0.643137 0.831373 0.443137
0.784314 0.823529 0.447059
0.921569 0.819608 0.447059
1.000000 0.803922 0.454902
0.000000 0.949020 0.466667
0.007843 0.941176 0.470588
0.239216 0.941176 0.470588
0.364706 0.945098 0.466667
0.505882 0.941176 0.470588
0.639216 0.933333 0.466667
0.772549 0.933333 0.462745
0.894118 0.937255 0.466667
1.000000 0.933333 0.478431
0.039216 1.000000 0.454902
0.164706 1.000000 0.470588
0.270588 1.000000 0.466667
0.380392 1.000000 0.466667
0.505882 1.000000 0.470588
0.623529 1.000000 0.466667
0.733333 1.000000 0.454902
0.850980 1.000000 0.454902
0.956863 1.000000 0.458824
0.000000 0.031373 0.639216
0.152941 0.011765 0.631373
0.290196 0.000000 0.635294
0.431373 0.000000 0.639216
0.576471 0.003922 0.643137
0.725490 0.000000 0.639216
0.854902 0.000000 0.615686
0.972549 0.000000 0.611765
0.996078 0.007843 0.592157
0.007843 0.125490 0.635294
0.090196 0.125490 0.631373
0.262745 0.121569 0.639216
0.419608 0.101961 0.639216
0.564706 0.058824 0.627451
0.713725 0.003922 0.619608
0.839216 0.000000 0.611765
0.956863 0.000000 0.588235
0.996078 0.019608 0.576471
0.000000 0.262745 0.635294
0.003922 0.254902 0.639216
0.207843 0.254902 0.639216
0.403922 0.243137 0.643137
0.572549 0.231373 0.639216
0.717647 0.219608 0.631373
0.854902 0.231373 0.623529
0.964706 0.247059 0.607843
1.000000 0.274510 0.600000
0.003922 0.419608 0.623529
0.003922 0.423529 0.643137
0.117647 0.411765 0.635294
0.360784 0.400000 0.631373
0.549020 0.400000 0.631373
0.701961 0.400000 0.619608
0.823529 0.403922 0.607843
0.937255 0.403922 0.592157
1.000000 0.407843 0.576471
0.000000 0.588235 0.631373
0.003922 0.584314 0.639216
0.023529 0.588235 0.631373
0.352941 0.580392 0.635294
0.533333 0.580392 0.643137
0.694118 0.572549 0.631373
0.815686 0.580392 0.619608
0.933333 0.580392 0.619608
1.000000 0.592157 0.619608
0.000000 0.741176 0.639216
0.000000 0.741176 0.631373
0.074510 0.733333 0.635294
0.349020 0.733333 0.635294
0.533333 0.729412 0.631373
0.678431 0.717647 0.623529
0.815686 0.713725 0.623529
0.929412 0.705882 0.627451
0.996078 0.709804 0.635294
0.007843 0.839216 0.607843
0.003922 0.843137 0.600000
0.101961 0.839216 0.600000
0.352941 0.839216 0.603922
0.521569 0.831373 0.607843
0.658824 0.831373 0.600000
0.788235 0.823529 0.600000
0.917647 0.819608 0.596078
1.000000 0.819608 0.615686
0.000000 0.945098 0.584314
0.023529 0.945098 0.584314
0.286275 0.945098 0.600000
0.423529 0.941176 0.611765
0.537255 0.937255 0.611765
0.654902 0.937255 0.607843
0.768627 0.933333 0.603922
0.894118 0.929412 0.603922
0.996078 0.929412 0.615686
0.258824 1.000000 0.600000
0.313725 1.000000 0.603922
0.372549 1.000000 0.615686
0.447059 0.996078 0.607843
0.533333 1.000000 0.592157
0.654902 1.000000 0.600000
0.752941 0.996078 0.600000
0.858824 1.000000 0.600000
0.968627 1.000000 0.592157
0.000000 0.015686 0.752941
0.125490 0.000000 0.764706
0.266667 0.003922 0.764706
0.415686 0.000000 0.756863
0.549020 0.000000 0.756863
0.686275 0.000000 0.756863
0.827451 0.000000 0.756863
0.960784 0.000000 0.749020
1.000000 0.000000 0.737255
0.003922 0.113725 0.749020
0.054902 0.113725 0.752941
0.250980 0.105882 0.756863
0.392157 0.082353 0.752941
0.537255 0.039216 0.737255
0.674510 0.003922 0.749020
0.819608 0.000000 0.752941
0.952941 0.003922 0.721569
1.000000 0.000000 0.713725
0.000000 0.247059 0.752941
0.011765 0.239216 0.764706
0.203922 0.231373 0.749020
0.380392 0.231373 0.760784
0.533333 0.227451 0.760784
0.682353 0.219608 0.760784
0.827451 0.207843 0.752941
0.952941 0.219608 0.733333
0.992157 0.247059 0.725490
0.007843 0.380392 0.733333
0.000000 0.388235 0.752941
0.098039 0.384314 0.752941
0.345098 0.380392 0.752941
0.513725 0.380392 0.749020
0.654902 0.376471 0.737255
0.807843 0.372549 0.741176
0.937255 0.376471 0.729412
1.000000 0.380392 0.709804
0.000000 0.545098 0.760784
0.011765 0.549020 0.760784
0.086275 0.556863 0.764706
0.349020 0.549020 0.756863
0.509804 0.556863 0.752941
0.662745 0.552941 0.752941
0.815686 0.549020 0.749020
0.937255 0.556863 0.733333
1.000000 0.556863 0.709804
0.000000 0.709804 0.764706
0.000000 0.717647 0.772549
0.137255 0.709804 0.768627
0.356863 0.705882 0.768627
0.525490 0.705882 0.764706
0.670588 0.701961 0.752941
0.803922 0.701961 0.745098
0.913725 0.705882 0.737255
1.000000 0.713725 0.741176
0.000000 0.831373 0.741176
0.000000 0.831373 0.745098
0.043137 0.835294 0.733333
0.333333 0.827451 0.741176
0.501961 0.831373 0.741176
0.654902 0.819608 0.733333
0.784314 0.815686 0.725490
0.909804 0.815686 0.721569
1.000000 0.815686 0.737255
0.000000 0.941176 0.713725
0.000000 0.945098 0.709804
0.219608 0.937255 0.713725
0.380392 0.945098 0.713725
0.541176 0.933333 0.729412
0.670588 0.933333 0.733333
0.784314 0.929412 0.729412
0.901961 0.929412 0.729412
1.000000 0.921569 0.737255
0.062745 1.000000 0.682353
0.196078 1.000000 0.698039
0.301961 1.000000 0.686275
0.466667 1.000000 0.709804
0.584314 0.996078 0.725490
0.678431 1.000000 0.717647
0.776471 0.996078 0.717647
0.870588 1.000000 0.721569
0.968627 1.000000 0.713725
0.000000 0.000000 0.862745
0.098039 0.003922 0.866667
0.247059 0.003922 0.878431
0.384314 0.003922 0.870588
0.525490 0.000000 0.866667
0.658824 0.000000 0.870588
0.796078 0.000000 0.862745
0.933333 0.000000 0.862745
1.000000 0.000000 0.862745
0.000000 0.105882 0.858824
0.031373 0.101961 0.862745
0.239216 0.098039 0.866667
0.376471 0.074510 0.866667
0.505882 0.043137 0.866667
0.647059 0.003922 0.862745
0.780392 0.000000 0.858824
0.905882 0.007843 0.850980
0.996078 0.000000 0.858824
0.000000 0.231373 0.866667
0.000000 0.231373 0.874510
0.188235 0.235294 0.878431
0.364706 0.227451 0.870588
0.505882 0.219608 0.866667
0.647059 0.211765 0.866667
0.780392 0.211765 0.858824
0.921569 0.211765 0.866667
1.000000 0.219608 0.878431
0.000000 0.364706 0.850980
0.000000 0.372549 0.862745
0.137255 0.368627 0.870588
0.341176 0.372549 0.862745
0.494118 0.368627 0.858824
0.623529 0.372549 0.854902
0.776471 0.368627 0.850980
0.909804 0.364706 0.854902
1.000000 0.368627 0.847059
0.000000 0.529412 0.858824
0.003922 0.529412 0.870588
0.156863 0.529412 0.858824
0.356863 0.537255 0.870588
0.509804 0.533333 0.862745
0.643137 0.533333 0.862745
0.780392 0.537255 0.862745
0.917647 0.533333 0.858824
1.000000 0.545098 0.850980
0.000000 0.674510 0.870588
0.000000 0.682353 0.866667
0.200000 0.678431 0.870588
0.376471 0.682353 0.870588
0.521569 0.682353 0.862745
0.666667 0.682353 0.858824
0.788235 0.678431 0.866667
0.913725 0.682353 0.854902
1.000000 0.694118 0.847059
0.000000 0.800000 0.854902
0.000000 0.796078 0.850980
0.176471 0.803922 0.858824
0.356863 0.800000 0.854902
0.509804 0.811765 0.850980
0.658824 0.807843 0.850980
0.776471 0.807843 0.850980
0.890196 0.815686 0.831373
0.996078 0.827451 0.854902
0.000000 0.937255 0.850980
0.000000 0.933333 0.843137
0.219608 0.933333 0.847059
0.380392 0.937255 0.850980
0.529412 0.937255 0.847059
0.658824 0.933333 0.831373
0.796078 0.921569 0.839216
0.894118 0.925490 0.843137
1.000000 0.921569 0.839216
0.141176 1.000000 0.823529
0.215686 1.000000 0.807843
0.321569 1.000000 0.819608
0.447059 1.000000 0.815686
0.556863 1.000000 0.819608
0.690196 1.000000 0.823529
0.811765 1.000000 0.835294
0.890196 1.000000 0.839216
0.980392 1.000000 0.839216
0.011765 0.000000 0.964706
0.074510 0.003922 0.968627
0.231373 0.003922 0.964706
0.360784 0.000000 0.968627
0.501961 0.000000 0.968627
0.627451 0.000000 0.964706
0.752941 0.000000 0.956863
0.878431 0.000000 0.964706
0.992157 0.003922 0.964706
0.000000 0.094118 0.964706
0.003922 0.101961 0.952941
0.211765 0.086275 0.952941
0.356863 0.070588 0.960784
0.486275 0.058824 0.956863
0.619608 0.019608 0.960784
0.749020 0.000000 0.952941
0.870588 0.000000 0.960784
1.000000 0.000000 0.956863
0.000000 0.223529 0.956863
0.000000 0.227451 0.960784
0.192157 0.231373 0.960784
0.345098 0.223529 0.964706
0.482353 0.223529 0.960784
0.619608 0.219608 0.956863
0.749020 0.219608 0.964706
0.874510 0.223529 0.952941
1.000000 0.239216 0.952941
0.000000 0.364706 0.945098
0.000000 0.368627 0.956863
0.172549 0.368627 0.952941
0.341176 0.368627 0.960784
0.478431 0.364706 0.952941
0.611765 0.364706 0.956863
0.741176 0.364706 0.956863
0.870588 0.360784 0.941176
0.992157 0.372549 0.949020
0.003922 0.513725 0.952941
0.039216 0.517647 0.952941
0.243137 0.525490 0.956863
0.376471 0.525490 0.952941
0.498039 0.521569 0.952941
0.627451 0.525490 0.956863
0.752941 0.529412 0.949020
0.870588 0.529412 0.941176
1.000000 0.541176 0.949020
0.039216 0.658824 0.945098
0.141176 0.658824 0.952941
0.274510 0.658824 0.952941
0.403922 0.662745 0.952941
0.537255 0.670588 0.952941
0.658824 0.674510 0.952941
0.772549 0.670588 0.949020
0.878431 0.678431 0.949020
1.000000 0.678431 0.960784
0.000000 0.772549 0.949020
0.160784 0.776471 0.945098
0.282353 0.772549 0.945098
0.407843 0.784314 0.949020
0.541176 0.788235 0.956863
0.658824 0.788235 0.949020
0.780392 0.800000 0.949020
0.890196 0.803922 0.952941
0.996078 0.811765 0.952941
0.192157 0.905882 0.960784
0.247059 0.905882 0.941176
0.349020 0.905882 0.952941
0.447059 0.905882 0.945098
0.560784 0.905882 0.945098
0.682353 0.913725 0.945098
0.796078 0.913725 0.945098
0.901961 0.913725 0.941176
0.996078 0.925490 0.925490
0.215686 1.000000 0.933333
0.274510 1.000000 0.945098
0.352941 1.000000 0.945098
0.458824 1.000000 0.937255
0.576471 1.000000 0.937255
0.690196 0.996078 0.933333
0.807843 1.000000 0.925490
0.913725 0.996078 0.937255
0.988235 0.996078 0.945098
0.000000 0.000000 0.996078
0.050980 0.000000 1.000000
0.223529 0.000000 1.000000
0.341176 0.000000 1.000000
0.470588 0.000000 1.000000
0.588235 0.000000 1.000000
0.709804 0.000000 1.000000
0.831373 0.003922 1.000000
0.945098 0.000000 0.988235
0.000000 0.086275 1.000000
0.011765 0.090196 1.000000
0.203922 0.086275 1.000000
0.337255 0.074510 1.000000
0.466667 0.062745 1.000000
0.580392 0.039216 0.996078
0.701961 0.007843 0.996078
0.823529 0.011765 1.000000
0.960784 0.070588 1.000000
0.003922 0.211765 0.996078
0.000000 0.227451 0.992157
0.192157 0.231373 1.000000
0.333333 0.223529 1.000000
0.462745 0.223529 1.000000
0.592157 0.223529 1.000000
0.705882 0.219608 0.996078
0.835294 0.231373 1.000000
0.956863 0.250980 1.000000
0.000000 0.360784 0.992157
0.003922 0.352941 1.000000
0.192157 0.352941 1.000000
0.325490 0.356863 0.996078
0.462745 0.352941 0.992157
0.580392 0.349020 1.000000
0.713725 0.356863 1.000000
0.827451 0.364706 1.000000
0.952941 0.388235 1.000000
0.125490 0.509804 1.000000
0.188235 0.509804 1.000000
0.282353 0.509804 1.000000
0.388235 0.509804 1.000000
0.494118 0.509804 1.000000
0.607843 0.513725 1.000000
0.725490 0.513725 1.000000
0.843137 0.521569 1.000000
0.952941 0.545098 0.988235
0.278431 0.647059 1.000000
0.305882 0.650980 1.000000
0.376471 0.650980 0.988235
0.466667 0.662745 1.000000
0.552941 0.658824 1.000000
0.650980 0.658824 0.992157
0.752941 0.658824 0.996078
0.858824 0.670588 1.000000
0.968627 0.690196 0.996078
0.298039 0.768627 1.000000
0.352941 0.768627 1.000000
0.403922 0.768627 1.000000
0.494118 0.768627 1.000000
0.584314 0.784314 1.000000
0.686275 0.784314 0.996078
0.780392 0.792157 1.000000
0.890196 0.792157 1.000000
0.968627 0.803922 0.992157
0.329412 0.890196 1.000000
0.376471 0.890196 1.000000
0.431373 0.894118 1.000000
0.509804 0.894118 1.000000
0.607843 0.898039 1.000000
0.705882 0.901961 1.000000
0.811765 0.909804 0.996078
0.913725 0.917647 0.996078
0.964706 0.933333 0.992157
0.337255 0.996078 1.000000
0.364706 1.000000 1.000000
0.427451 1.000000 0.996078
0.509804 0.996078 1.000000
0.600000 1.000000 1.000000
0.717647 1.000000 0.996078
0.835294 1.000000 0.996078
0.937255 1.000000 1.000000
1.000000 1.000000 1.000000
