loleis/其他/lut20种/Sports LUT #3.cube
TITLE "Sports LUT #3"
#LUT size
LUT_3D_SIZE 5
#LUT data points
0.000000 0.000000 0.000000
0.294118 0.003922 0.000000
0.576471 0.015686 0.000000
0.843137 0.019608 0.015686
1.000000 0.000000 0.062745
0.000000 0.294118 0.000000
0.282353 0.290196 0.000000
0.572549 0.301961 0.000000
0.839216 0.290196 0.047059
1.000000 0.274510 0.090196
0.000000 0.588235 0.066667
0.254902 0.600000 0.066667
0.564706 0.592157 0.074510
0.823529 0.560784 0.117647
0.988235 0.556863 0.121569
0.000000 0.831373 0.156863
0.192157 0.843137 0.168627
0.517647 0.839216 0.172549
0.811765 0.823529 0.160784
1.000000 0.827451 0.172549
0.003922 1.000000 0.278431
0.266667 1.000000 0.286275
0.525490 1.000000 0.282353
0.772549 1.000000 0.286275
0.988235 1.000000 0.313725
0.000000 0.003922 0.325490
0.290196 0.000000 0.321569
0.576471 0.003922 0.321569
0.827451 0.066667 0.313725
1.000000 0.058824 0.325490
0.000000 0.286275 0.313725
0.274510 0.290196 0.325490
0.568627 0.298039 0.317647
0.815686 0.294118 0.313725
0.996078 0.286275 0.321569
0.000000 0.588235 0.325490
0.239216 0.588235 0.321569
0.545098 0.580392 0.325490
0.803922 0.549020 0.329412
1.000000 0.549020 0.325490
0.003922 0.823529 0.356863
0.207843 0.827451 0.360784
0.517647 0.823529 0.356863
0.796078 0.815686 0.352941
1.000000 0.815686 0.352941
0.003922 1.000000 0.392157
0.286275 1.000000 0.400000
0.529412 0.996078 0.400000
0.780392 1.000000 0.415686
1.000000 1.000000 0.419608
0.003922 0.000000 0.627451
0.258824 0.000000 0.619608
0.556863 0.003922 0.619608
0.819608 0.066667 0.596078
0.996078 0.137255 0.600000
0.003922 0.286275 0.615686
0.243137 0.290196 0.611765
0.549020 0.294118 0.607843
0.807843 0.305882 0.596078
1.000000 0.337255 0.603922
0.000000 0.580392 0.607843
0.239216 0.580392 0.615686
0.541176 0.580392 0.615686
0.796078 0.572549 0.607843
0.996078 0.564706 0.600000
0.062745 0.819608 0.603922
0.286275 0.831373 0.615686
0.545098 0.819608 0.607843
0.800000 0.819608 0.592157
1.000000 0.823529 0.592157
0.168627 1.000000 0.607843
0.329412 1.000000 0.600000
0.541176 0.996078 0.600000
0.784314 1.000000 0.600000
0.996078 1.000000 0.607843
0.000000 0.011765 0.839216
0.227451 0.043137 0.843137
0.509804 0.074510 0.831373
0.792157 0.082353 0.823529
1.000000 0.113725 0.839216
0.003922 0.282353 0.831373
0.227451 0.290196 0.835294
0.509804 0.298039 0.835294
0.780392 0.305882 0.819608
1.000000 0.321569 0.835294
0.003922 0.560784 0.819608
0.266667 0.572549 0.831373
0.529412 0.564706 0.819608
0.796078 0.564706 0.823529
1.000000 0.549020 0.815686
0.007843 0.811765 0.831373
0.250980 0.815686 0.819608
0.521569 0.819608 0.819608
0.800000 0.803922 0.811765
1.000000 0.819608 0.827451
0.203922 1.000000 0.811765
0.356863 1.000000 0.803922
0.600000 1.000000 0.815686
0.819608 0.996078 0.827451
0.992157 1.000000 0.835294
0.000000 0.074510 0.996078
0.184314 0.078431 1.000000
0.494118 0.090196 0.996078
0.784314 0.086275 1.000000
1.000000 0.145098 1.000000
0.000000 0.286275 1.000000
0.184314 0.298039 1.000000
0.498039 0.298039 1.000000
0.784314 0.301961 1.000000
0.996078 0.329412 1.000000
0.086275 0.560784 1.000000
0.286275 0.560784 1.000000
0.533333 0.556863 0.996078
0.784314 0.549020 0.996078
1.000000 0.560784 1.000000
0.192157 0.796078 0.992157
0.341176 0.796078 0.996078
0.560784 0.803922 1.000000
0.807843 0.811765 1.000000
0.996078 0.827451 1.000000
0.400000 0.996078 1.000000
0.494118 1.000000 0.996078
0.678431 0.996078 1.000000
0.905882 1.000000 0.992157
1.000000 1.000000 1.000000
