loleis/其他/lut20种/Sports LUT #16.cube
TITLE "Sports LUT #16"
#LUT size
LUT_3D_SIZE 5
#LUT data points
0.086275 0.094118 0.082353
0.207843 0.090196 0.090196
0.454902 0.078431 0.082353
0.768627 0.043137 0.035294
1.000000 0.003922 0.003922
0.094118 0.215686 0.094118
0.215686 0.215686 0.082353
0.470588 0.243137 0.054902
0.776471 0.262745 0.000000
1.000000 0.243137 0.000000
0.000000 0.509804 0.000000
0.235294 0.513725 0.000000
0.509804 0.517647 0.000000
0.784314 0.505882 0.003922
1.000000 0.498039 0.000000
0.000000 0.784314 0.011765
0.133333 0.784314 0.007843
0.490196 0.780392 0.000000
0.772549 0.776471 0.000000
1.000000 0.752941 0.003922
0.011765 0.996078 0.003922
0.000000 0.996078 0.000000
0.431373 1.000000 0.000000
0.733333 0.996078 0.000000
0.992157 0.996078 0.000000
0.090196 0.086275 0.207843
0.207843 0.086275 0.211765
0.466667 0.007843 0.223529
0.776471 0.000000 0.200000
1.000000 0.003922 0.149020
0.023529 0.211765 0.211765
0.211765 0.211765 0.211765
0.494118 0.203922 0.207843
0.784314 0.172549 0.176471
0.992157 0.149020 0.141176
0.000000 0.501961 0.121569
0.121569 0.513725 0.125490
0.509804 0.513725 0.113725
0.784314 0.494118 0.113725
0.996078 0.474510 0.078431
0.000000 0.776471 0.000000
0.003922 0.780392 0.000000
0.458824 0.776471 0.000000
0.768627 0.768627 0.000000
1.000000 0.741176 0.000000
0.000000 0.996078 0.000000
0.003922 0.996078 0.011765
0.411765 1.000000 0.000000
0.721569 1.000000 0.000000
0.996078 1.000000 0.003922
0.058824 0.066667 0.494118
0.254902 0.019608 0.498039
0.494118 0.003922 0.498039
0.788235 0.000000 0.501961
1.000000 0.000000 0.466667
0.000000 0.184314 0.513725
0.172549 0.172549 0.525490
0.501961 0.117647 0.521569
0.792157 0.015686 0.490196
0.992157 0.000000 0.458824
0.003922 0.505882 0.517647
0.000000 0.521569 0.517647
0.501961 0.494118 0.498039
0.792157 0.486275 0.486275
1.000000 0.458824 0.462745
0.000000 0.796078 0.439216
0.000000 0.792157 0.431373
0.427451 0.780392 0.427451
0.776471 0.772549 0.411765
1.000000 0.741176 0.411765
0.000000 1.000000 0.356863
0.000000 0.996078 0.364706
0.368627 0.996078 0.360784
0.713725 1.000000 0.352941
0.992157 1.000000 0.337255
0.000000 0.000000 0.772549
0.247059 0.000000 0.764706
0.501961 0.000000 0.772549
0.772549 0.000000 0.776471
1.000000 0.000000 0.760784
0.000000 0.145098 0.776471
0.125490 0.129412 0.780392
0.482353 0.043137 0.780392
0.776471 0.000000 0.772549
0.996078 0.003922 0.737255
0.007843 0.450980 0.764706
0.000000 0.439216 0.776471
0.415686 0.419608 0.780392
0.776471 0.407843 0.776471
1.000000 0.431373 0.764706
0.003922 0.768627 0.752941
0.007843 0.768627 0.776471
0.396078 0.764706 0.764706
0.752941 0.752941 0.752941
1.000000 0.749020 0.752941
0.000000 1.000000 0.713725
0.000000 1.000000 0.705882
0.352941 1.000000 0.701961
0.709804 0.996078 0.709804
0.988235 1.000000 0.698039
0.007843 0.000000 0.996078
0.219608 0.000000 0.996078
0.474510 0.000000 1.000000
0.741176 0.000000 1.000000
1.000000 0.003922 1.000000
0.011765 0.082353 1.000000
0.050980 0.062745 1.000000
0.454902 0.000000 1.000000
0.729412 0.003922 1.000000
0.988235 0.011765 1.000000
0.000000 0.384314 0.996078
0.000000 0.372549 1.000000
0.368627 0.360784 1.000000
0.705882 0.349020 1.000000
1.000000 0.349020 1.000000
0.003922 0.698039 0.996078
0.000000 0.701961 0.996078
0.341176 0.709804 1.000000
0.705882 0.701961 1.000000
1.000000 0.701961 0.996078
0.000000 0.996078 0.996078
0.003922 1.000000 1.000000
0.321569 1.000000 1.000000
0.701961 1.000000 1.000000
1.000000 1.000000 1.000000
