loleis/其他/lut20种/Sports LUT #10.cube
TITLE "Sports LUT #10"
#LUT size
LUT_3D_SIZE 9
#LUT data points
0.133333 0.133333 0.125490
0.219608 0.137255 0.133333
0.337255 0.137255 0.133333
0.466667 0.137255 0.137255
0.615686 0.133333 0.141176
0.745098 0.133333 0.145098
0.874510 0.133333 0.156863
0.980392 0.137255 0.164706
0.996078 0.145098 0.180392
0.141176 0.215686 0.137255
0.203922 0.215686 0.133333
0.321569 0.207843 0.145098
0.450980 0.211765 0.141176
0.592157 0.211765 0.149020
0.729412 0.207843 0.149020
0.843137 0.200000 0.152941
0.956863 0.196078 0.156863
1.000000 0.203922 0.176471
0.109804 0.329412 0.137255
0.192157 0.337255 0.133333
0.325490 0.333333 0.137255
0.466667 0.333333 0.145098
0.619608 0.337255 0.149020
0.752941 0.333333 0.152941
0.870588 0.325490 0.164706
0.984314 0.321569 0.168627
1.000000 0.325490 0.184314
0.078431 0.462745 0.129412
0.184314 0.474510 0.141176
0.325490 0.474510 0.133333
0.466667 0.478431 0.137255
0.611765 0.470588 0.133333
0.721569 0.458824 0.152941
0.831373 0.435294 0.160784
0.945098 0.431373 0.164706
1.000000 0.423529 0.180392
0.003922 0.623529 0.141176
0.156863 0.643137 0.133333
0.317647 0.643137 0.133333
0.466667 0.631373 0.137255
0.615686 0.623529 0.133333
0.741176 0.603922 0.141176
0.850980 0.584314 0.164706
0.960784 0.568627 0.192157
0.992157 0.572549 0.203922
0.027451 0.792157 0.180392
0.164706 0.796078 0.184314
0.325490 0.780392 0.180392
0.458824 0.772549 0.180392
0.600000 0.756863 0.176471
0.729412 0.741176 0.180392
0.854902 0.725490 0.172549
0.968627 0.705882 0.196078
0.992157 0.709804 0.235294
0.000000 0.854902 0.172549
0.164706 0.858824 0.196078
0.298039 0.858824 0.200000
0.431373 0.858824 0.203922
0.552941 0.847059 0.200000
0.690196 0.839216 0.192157
0.807843 0.827451 0.192157
0.945098 0.819608 0.192157
0.988235 0.815686 0.231373
0.160784 0.964706 0.262745
0.247059 0.984314 0.270588
0.345098 0.976471 0.286275
0.454902 0.976471 0.282353
0.564706 0.968627 0.266667
0.694118 0.960784 0.274510
0.815686 0.949020 0.266667
0.937255 0.952941 0.278431
0.996078 0.952941 0.298039
0.247059 0.996078 0.305882
0.333333 1.000000 0.337255
0.400000 1.000000 0.349020
0.470588 1.000000 0.345098
0.572549 1.000000 0.337255
0.678431 1.000000 0.333333
0.792157 1.000000 0.329412
0.894118 1.000000 0.345098
0.992157 1.000000 0.360784
0.129412 0.129412 0.223529
0.211765 0.137255 0.223529
0.317647 0.141176 0.219608
0.458824 0.133333 0.235294
0.596078 0.109804 0.219608
0.737255 0.098039 0.219608
0.850980 0.101961 0.223529
0.960784 0.109804 0.215686
1.000000 0.121569 0.231373
0.137255 0.207843 0.215686
0.192157 0.207843 0.219608
0.305882 0.200000 0.219608
0.439216 0.200000 0.219608
0.580392 0.188235 0.219608
0.717647 0.188235 0.215686
0.835294 0.188235 0.215686
0.941176 0.180392 0.211765
1.000000 0.188235 0.227451
0.101961 0.321569 0.215686
0.188235 0.329412 0.219608
0.317647 0.329412 0.215686
0.454902 0.321569 0.215686
0.603922 0.321569 0.223529
0.733333 0.317647 0.215686
0.843137 0.309804 0.223529
0.960784 0.298039 0.223529
1.000000 0.301961 0.235294
0.000000 0.450980 0.196078
0.149020 0.458824 0.200000
0.298039 0.454902 0.207843
0.443137 0.450980 0.203922
0.588235 0.447059 0.203922
0.709804 0.439216 0.215686
0.823529 0.427451 0.215686
0.929412 0.419608 0.223529
1.000000 0.415686 0.231373
0.000000 0.607843 0.207843
0.105882 0.611765 0.215686
0.294118 0.619608 0.203922
0.450980 0.611765 0.203922
0.596078 0.603922 0.207843
0.717647 0.584314 0.203922
0.831373 0.568627 0.227451
0.945098 0.552941 0.247059
1.000000 0.552941 0.250980
0.000000 0.764706 0.239216
0.125490 0.760784 0.231373
0.301961 0.756863 0.235294
0.439216 0.752941 0.239216
0.584314 0.737255 0.231373
0.717647 0.725490 0.227451
0.839216 0.705882 0.223529
0.949020 0.690196 0.247059
0.996078 0.694118 0.278431
0.003922 0.831373 0.227451
0.121569 0.847059 0.239216
0.270588 0.839216 0.239216
0.415686 0.831373 0.235294
0.541176 0.827451 0.231373
0.670588 0.823529 0.231373
0.800000 0.815686 0.239216
0.929412 0.811765 0.239216
1.000000 0.807843 0.262745
0.149020 0.960784 0.301961
0.239216 0.976471 0.301961
0.337255 0.976471 0.321569
0.447059 0.968627 0.313725
0.560784 0.956863 0.313725
0.682353 0.952941 0.294118
0.803922 0.941176 0.298039
0.929412 0.937255 0.305882
1.000000 0.945098 0.329412
0.235294 0.992157 0.329412
0.282353 1.000000 0.321569
0.360784 1.000000 0.337255
0.450980 1.000000 0.345098
0.560784 0.996078 0.341176
0.678431 1.000000 0.360784
0.784314 0.996078 0.368627
0.898039 1.000000 0.368627
0.992157 0.996078 0.384314
0.125490 0.129412 0.349020
0.207843 0.133333 0.349020
0.325490 0.125490 0.349020
0.454902 0.129412 0.349020
0.607843 0.101961 0.352941
0.756863 0.074510 0.352941
0.854902 0.086275 0.337255
0.964706 0.086275 0.333333
1.000000 0.133333 0.345098
0.109804 0.200000 0.333333
0.196078 0.192157 0.349020
0.313725 0.192157 0.352941
0.447059 0.196078 0.341176
0.588235 0.184314 0.352941
0.717647 0.172549 0.333333
0.835294 0.164706 0.329412
0.952941 0.164706 0.329412
1.000000 0.172549 0.333333
0.066667 0.317647 0.352941
0.172549 0.317647 0.349020
0.309804 0.309804 0.341176
0.458824 0.317647 0.356863
0.600000 0.313725 0.356863
0.741176 0.309804 0.345098
0.843137 0.305882 0.345098
0.956863 0.301961 0.333333
1.000000 0.309804 0.349020
0.000000 0.450980 0.337255
0.094118 0.458824 0.337255
0.278431 0.454902 0.333333
0.439216 0.450980 0.329412
0.580392 0.443137 0.333333
0.698039 0.435294 0.333333
0.827451 0.427451 0.337255
0.937255 0.419608 0.337255
1.000000 0.419608 0.333333
0.000000 0.603922 0.329412
0.000000 0.611765 0.333333
0.262745 0.615686 0.333333
0.439216 0.607843 0.329412
0.592157 0.603922 0.333333
0.709804 0.576471 0.325490
0.823529 0.560784 0.345098
0.945098 0.552941 0.349020
1.000000 0.556863 0.352941
0.000000 0.756863 0.376471
0.117647 0.752941 0.364706
0.290196 0.745098 0.356863
0.431373 0.745098 0.356863
0.576471 0.733333 0.352941
0.709804 0.725490 0.352941
0.831373 0.701961 0.337255
0.945098 0.686275 0.345098
1.000000 0.698039 0.376471
0.011765 0.819608 0.333333
0.109804 0.831373 0.345098
0.266667 0.839216 0.349020
0.403922 0.831373 0.341176
0.533333 0.823529 0.333333
0.674510 0.815686 0.337255
0.807843 0.811765 0.341176
0.945098 0.807843 0.345098
1.000000 0.803922 0.352941
0.152941 0.952941 0.376471
0.231373 0.960784 0.388235
0.337255 0.960784 0.403922
0.443137 0.960784 0.392157
0.564706 0.952941 0.392157
0.682353 0.949020 0.372549
0.800000 0.937255 0.372549
0.925490 0.941176 0.368627
1.000000 0.937255 0.392157
0.243137 1.000000 0.392157
0.278431 0.996078 0.407843
0.360784 1.000000 0.407843
0.454902 1.000000 0.400000
0.556863 1.000000 0.411765
0.678431 1.000000 0.423529
0.788235 1.000000 0.427451
0.894118 1.000000 0.435294
0.996078 1.000000 0.435294
0.117647 0.129412 0.509804
0.207843 0.121569 0.505882
0.333333 0.121569 0.505882
0.466667 0.101961 0.509804
0.619608 0.066667 0.509804
0.749020 0.050980 0.490196
0.858824 0.070588 0.478431
0.964706 0.105882 0.474510
1.000000 0.156863 0.482353
0.086275 0.188235 0.490196
0.184314 0.192157 0.486275
0.317647 0.180392 0.494118
0.454902 0.172549 0.494118
0.596078 0.156863 0.494118
0.725490 0.152941 0.486275
0.839216 0.160784 0.470588
0.945098 0.176471 0.466667
0.996078 0.196078 0.466667
0.007843 0.313725 0.505882
0.101961 0.305882 0.501961
0.294118 0.298039 0.517647
0.466667 0.298039 0.517647
0.619608 0.294118 0.505882
0.737255 0.305882 0.490196
0.847059 0.309804 0.482353
0.956863 0.321569 0.474510
1.000000 0.341176 0.490196
0.000000 0.458824 0.498039
0.003922 0.458824 0.509804
0.262745 0.454902 0.509804
0.431373 0.447059 0.494118
0.588235 0.439216 0.490196
0.698039 0.439216 0.478431
0.815686 0.443137 0.474510
0.933333 0.435294 0.478431
1.000000 0.435294 0.470588
0.003922 0.607843 0.498039
0.000000 0.611765 0.517647
0.262745 0.615686 0.505882
0.435294 0.607843 0.501961
0.588235 0.600000 0.494118
0.705882 0.584314 0.501961
0.819608 0.572549 0.501961
0.933333 0.572549 0.482353
1.000000 0.572549 0.482353
0.035294 0.756863 0.521569
0.172549 0.752941 0.517647
0.309804 0.749020 0.517647
0.450980 0.737255 0.517647
0.580392 0.733333 0.509804
0.713725 0.729412 0.498039
0.831373 0.705882 0.482353
0.937255 0.694118 0.494118
0.996078 0.698039 0.505882
0.027451 0.827451 0.478431
0.192157 0.835294 0.498039
0.298039 0.835294 0.490196
0.423529 0.831373 0.482353
0.545098 0.831373 0.482353
0.678431 0.819608 0.466667
0.803922 0.815686 0.474510
0.933333 0.811765 0.458824
1.000000 0.811765 0.478431
0.196078 0.952941 0.501961
0.270588 0.964706 0.509804
0.352941 0.960784 0.501961
0.458824 0.956863 0.498039
0.564706 0.952941 0.498039
0.682353 0.945098 0.494118
0.803922 0.941176 0.486275
0.929412 0.941176 0.498039
1.000000 0.937255 0.494118
0.254902 0.996078 0.490196
0.309804 0.996078 0.498039
0.376471 1.000000 0.498039
0.458824 1.000000 0.498039
0.564706 1.000000 0.498039
0.678431 1.000000 0.498039
0.784314 0.996078 0.509804
0.898039 1.000000 0.517647
0.992157 1.000000 0.517647
0.113725 0.125490 0.647059
0.203922 0.117647 0.647059
0.317647 0.105882 0.647059
0.454902 0.090196 0.639216
0.600000 0.047059 0.650980
0.741176 0.000000 0.643137
0.843137 0.015686 0.619608
0.952941 0.058824 0.596078
0.996078 0.117647 0.607843
0.078431 0.176471 0.631373
0.172549 0.172549 0.643137
0.298039 0.176471 0.643137
0.435294 0.164706 0.631373
0.580392 0.149020 0.631373
0.713725 0.125490 0.615686
0.831373 0.133333 0.603922
0.941176 0.156863 0.584314
1.000000 0.172549 0.576471
0.003922 0.278431 0.650980
0.082353 0.290196 0.650980
0.286275 0.290196 0.650980
0.443137 0.290196 0.654902
0.596078 0.282353 0.654902
0.733333 0.274510 0.631373
0.835294 0.290196 0.615686
0.952941 0.301961 0.600000
1.000000 0.317647 0.600000
0.011765 0.431373 0.635294
0.007843 0.435294 0.654902
0.250980 0.427451 0.643137
0.407843 0.427451 0.643137
0.564706 0.411765 0.619608
0.705882 0.423529 0.619608
0.811765 0.431373 0.600000
0.921569 0.431373 0.596078
1.000000 0.427451 0.592157
0.000000 0.584314 0.639216
0.003922 0.600000 0.650980
0.270588 0.600000 0.643137
0.427451 0.592157 0.647059
0.572549 0.588235 0.635294
0.698039 0.580392 0.627451
0.811765 0.576471 0.615686
0.933333 0.580392 0.619608
0.996078 0.584314 0.611765
0.086275 0.749020 0.658824
0.184314 0.749020 0.658824
0.313725 0.741176 0.650980
0.447059 0.737255 0.647059
0.572549 0.729412 0.635294
0.705882 0.721569 0.631373
0.823529 0.701961 0.623529
0.925490 0.701961 0.623529
0.996078 0.713725 0.627451
0.000000 0.831373 0.600000
0.164706 0.843137 0.623529
0.294118 0.839216 0.615686
0.415686 0.839216 0.611765
0.552941 0.823529 0.607843
0.682353 0.819608 0.600000
0.800000 0.811765 0.588235
0.929412 0.807843 0.592157
0.996078 0.811765 0.607843
0.109804 0.952941 0.588235
0.239216 0.952941 0.611765
0.360784 0.956863 0.615686
0.462745 0.960784 0.619608
0.568627 0.952941 0.619608
0.686275 0.945098 0.603922
0.800000 0.941176 0.596078
0.921569 0.937255 0.603922
1.000000 0.945098 0.600000
0.258824 1.000000 0.600000
0.325490 1.000000 0.607843
0.384314 0.996078 0.607843
0.458824 1.000000 0.600000
0.564706 1.000000 0.596078
0.678431 1.000000 0.600000
0.792157 0.996078 0.603922
0.898039 1.000000 0.611765
1.000000 1.000000 0.615686
0.105882 0.121569 0.752941
0.184314 0.113725 0.741176
0.309804 0.109804 0.756863
0.427451 0.090196 0.752941
0.564706 0.058824 0.760784
0.678431 0.011765 0.745098
0.831373 0.000000 0.741176
0.945098 0.003922 0.737255
1.000000 0.035294 0.725490
0.050980 0.172549 0.729412
0.152941 0.180392 0.737255
0.282353 0.164706 0.737255
0.407843 0.156863 0.737255
0.541176 0.137255 0.737255
0.682353 0.129412 0.741176
0.811765 0.098039 0.733333
0.933333 0.113725 0.725490
1.000000 0.137255 0.725490
0.003922 0.282353 0.745098
0.098039 0.278431 0.756863
0.254902 0.274510 0.745098
0.403922 0.270588 0.745098
0.545098 0.262745 0.752941
0.678431 0.262745 0.741176
0.819608 0.254902 0.741176
0.945098 0.266667 0.729412
0.996078 0.278431 0.725490
0.000000 0.407843 0.737255
0.003922 0.396078 0.733333
0.235294 0.396078 0.741176
0.384314 0.400000 0.741176
0.533333 0.400000 0.737255
0.666667 0.400000 0.733333
0.803922 0.396078 0.729412
0.929412 0.407843 0.725490
1.000000 0.407843 0.709804
0.000000 0.545098 0.745098
0.003922 0.552941 0.745098
0.239216 0.552941 0.745098
0.403922 0.552941 0.745098
0.541176 0.549020 0.737255
0.674510 0.549020 0.741176
0.819608 0.545098 0.741176
0.933333 0.552941 0.729412
0.992157 0.560784 0.705882
0.062745 0.713725 0.760784
0.176471 0.709804 0.756863
0.294118 0.709804 0.764706
0.423529 0.705882 0.760784
0.549020 0.698039 0.749020
0.682353 0.690196 0.741176
0.807843 0.690196 0.737255
0.929412 0.694118 0.733333
1.000000 0.698039 0.737255
0.003922 0.815686 0.745098
0.066667 0.819608 0.737255
0.243137 0.823529 0.729412
0.380392 0.819608 0.725490
0.521569 0.815686 0.733333
0.662745 0.819608 0.725490
0.800000 0.807843 0.721569
0.917647 0.807843 0.721569
1.000000 0.811765 0.725490
0.000000 0.945098 0.709804
0.133333 0.952941 0.725490
0.270588 0.952941 0.721569
0.400000 0.945098 0.713725
0.533333 0.937255 0.717647
0.666667 0.937255 0.713725
0.800000 0.929412 0.721569
0.917647 0.929412 0.713725
0.996078 0.929412 0.709804
0.117647 1.000000 0.694118
0.196078 1.000000 0.698039
0.301961 1.000000 0.686275
0.462745 1.000000 0.717647
0.568627 1.000000 0.713725
0.682353 0.996078 0.709804
0.796078 1.000000 0.709804
0.894118 1.000000 0.721569
0.992157 0.996078 0.721569
0.090196 0.105882 0.862745
0.164706 0.113725 0.870588
0.290196 0.105882 0.866667
0.403922 0.090196 0.854902
0.533333 0.054902 0.858824
0.658824 0.019608 0.854902
0.796078 0.000000 0.847059
0.921569 0.000000 0.850980
1.000000 0.000000 0.862745
0.035294 0.160784 0.839216
0.152941 0.164706 0.850980
0.266667 0.160784 0.854902
0.400000 0.152941 0.847059
0.525490 0.141176 0.850980
0.650980 0.125490 0.850980
0.780392 0.113725 0.847059
0.917647 0.098039 0.843137
0.988235 0.098039 0.862745
0.000000 0.262745 0.843137
0.086275 0.262745 0.862745
0.247059 0.258824 0.866667
0.388235 0.258824 0.858824
0.517647 0.258824 0.854902
0.654902 0.250980 0.850980
0.792157 0.254902 0.850980
0.921569 0.250980 0.854902
1.000000 0.254902 0.870588
0.000000 0.388235 0.835294
0.003922 0.380392 0.850980
0.227451 0.388235 0.850980
0.368627 0.388235 0.847059
0.509804 0.388235 0.847059
0.639216 0.384314 0.839216
0.780392 0.388235 0.843137
0.913725 0.384314 0.847059
1.000000 0.384314 0.847059
0.000000 0.525490 0.858824
0.035294 0.525490 0.839216
0.243137 0.525490 0.847059
0.384314 0.533333 0.850980
0.521569 0.533333 0.850980
0.654902 0.529412 0.854902
0.792157 0.525490 0.850980
0.925490 0.525490 0.850980
1.000000 0.533333 0.843137
0.043137 0.670588 0.858824
0.149020 0.678431 0.862745
0.270588 0.670588 0.858824
0.396078 0.674510 0.854902
0.525490 0.666667 0.854902
0.658824 0.666667 0.858824
0.796078 0.666667 0.850980
0.929412 0.662745 0.847059
0.992157 0.674510 0.835294
0.000000 0.796078 0.854902
0.125490 0.796078 0.866667
0.254902 0.796078 0.847059
0.380392 0.796078 0.847059
0.517647 0.807843 0.858824
0.654902 0.803922 0.847059
0.788235 0.796078 0.843137
0.925490 0.800000 0.843137
1.000000 0.815686 0.847059
0.003922 0.933333 0.854902
0.011765 0.937255 0.858824
0.227451 0.929412 0.847059
0.372549 0.937255 0.847059
0.513725 0.937255 0.847059
0.650980 0.937255 0.823529
0.792157 0.929412 0.835294
0.925490 0.933333 0.847059
1.000000 0.929412 0.850980
0.129412 1.000000 0.831373
0.211765 1.000000 0.827451
0.305882 1.000000 0.827451
0.423529 1.000000 0.823529
0.541176 1.000000 0.815686
0.690196 1.000000 0.823529
0.815686 1.000000 0.835294
0.901961 1.000000 0.835294
0.992157 1.000000 0.843137
0.082353 0.098039 0.968627
0.160784 0.098039 0.972549
0.274510 0.094118 0.968627
0.392157 0.074510 0.964706
0.517647 0.047059 0.968627
0.643137 0.019608 0.960784
0.768627 0.000000 0.964706
0.898039 0.003922 0.964706
1.000000 0.000000 0.956863
0.011765 0.152941 0.960784
0.129412 0.149020 0.956863
0.262745 0.152941 0.972549
0.388235 0.141176 0.968627
0.509804 0.133333 0.964706
0.643137 0.121569 0.964706
0.764706 0.105882 0.964706
0.890196 0.101961 0.964706
1.000000 0.117647 0.972549
0.000000 0.250980 0.949020
0.090196 0.254902 0.968627
0.235294 0.254902 0.960784
0.376471 0.254902 0.968627
0.505882 0.247059 0.972549
0.639216 0.247059 0.968627
0.772549 0.247059 0.964706
0.898039 0.250980 0.964706
0.996078 0.262745 0.964706
0.000000 0.372549 0.956863
0.000000 0.376471 0.960784
0.219608 0.376471 0.964706
0.360784 0.376471 0.960784
0.501961 0.372549 0.964706
0.631373 0.372549 0.960784
0.764706 0.372549 0.952941
0.894118 0.372549 0.964706
1.000000 0.380392 0.956863
0.003922 0.509804 0.968627
0.098039 0.517647 0.964706
0.243137 0.517647 0.964706
0.368627 0.513725 0.964706
0.505882 0.517647 0.968627
0.635294 0.517647 0.964706
0.768627 0.517647 0.964706
0.901961 0.517647 0.960784
1.000000 0.509804 0.968627
0.019608 0.658824 0.968627
0.137255 0.650980 0.972549
0.258824 0.654902 0.960784
0.380392 0.647059 0.964706
0.509804 0.647059 0.964706
0.647059 0.650980 0.972549
0.772549 0.650980 0.956863
0.905882 0.650980 0.964706
0.996078 0.647059 0.968627
0.003922 0.772549 0.968627
0.129412 0.784314 0.956863
0.258824 0.776471 0.964706
0.380392 0.784314 0.960784
0.517647 0.784314 0.968627
0.643137 0.788235 0.964706
0.776471 0.788235 0.964706
0.909804 0.788235 0.960784
1.000000 0.788235 0.964706
0.113725 0.905882 0.945098
0.192157 0.909804 0.964706
0.286275 0.917647 0.956863
0.411765 0.913725 0.964706
0.529412 0.913725 0.964706
0.650980 0.917647 0.952941
0.792157 0.917647 0.960784
0.925490 0.925490 0.956863
0.996078 0.937255 0.949020
0.164706 0.996078 0.949020
0.211765 1.000000 0.960784
0.313725 1.000000 0.949020
0.427451 1.000000 0.949020
0.560784 1.000000 0.945098
0.686275 1.000000 0.945098
0.827451 1.000000 0.933333
0.945098 0.996078 0.956863
1.000000 1.000000 0.968627
0.086275 0.090196 1.000000
0.160784 0.086275 0.996078
0.266667 0.086275 1.000000
0.380392 0.074510 1.000000
0.501961 0.058824 1.000000
0.623529 0.043137 1.000000
0.745098 0.019608 1.000000
0.878431 0.000000 1.000000
1.000000 0.027451 0.996078
0.000000 0.141176 0.996078
0.129412 0.141176 1.000000
0.243137 0.141176 1.000000
0.372549 0.137255 1.000000
0.490196 0.129412 0.996078
0.615686 0.121569 1.000000
0.745098 0.113725 1.000000
0.878431 0.113725 1.000000
1.000000 0.121569 0.988235
0.000000 0.243137 1.000000
0.113725 0.247059 1.000000
0.243137 0.243137 0.996078
0.368627 0.247059 1.000000
0.501961 0.243137 1.000000
0.619608 0.247059 0.992157
0.741176 0.243137 1.000000
0.886275 0.243137 1.000000
0.992157 0.262745 1.000000
0.000000 0.360784 1.000000
0.050980 0.360784 1.000000
0.215686 0.364706 1.000000
0.352941 0.360784 1.000000
0.490196 0.364706 1.000000
0.611765 0.356863 0.992157
0.745098 0.360784 1.000000
0.878431 0.364706 1.000000
0.996078 0.376471 1.000000
0.000000 0.501961 0.992157
0.109804 0.498039 1.000000
0.250980 0.501961 0.996078
0.368627 0.501961 0.996078
0.494118 0.498039 0.996078
0.619608 0.498039 1.000000
0.741176 0.498039 0.996078
0.882353 0.505882 1.000000
1.000000 0.513725 1.000000
0.215686 0.643137 1.000000
0.254902 0.643137 1.000000
0.329412 0.647059 0.996078
0.423529 0.647059 1.000000
0.513725 0.635294 1.000000
0.627451 0.631373 0.996078
0.756863 0.635294 1.000000
0.890196 0.639216 1.000000
0.996078 0.650980 0.988235
0.262745 0.756863 0.988235
0.294118 0.756863 1.000000
0.360784 0.764706 0.996078
0.450980 0.756863 1.000000
0.556863 0.768627 1.000000
0.658824 0.772549 1.000000
0.772549 0.776471 1.000000
0.905882 0.776471 0.992157
1.000000 0.788235 1.000000
0.352941 0.874510 0.996078
0.376471 0.874510 1.000000
0.427451 0.870588 0.996078
0.509804 0.874510 0.996078
0.607843 0.886275 1.000000
0.709804 0.894118 0.996078
0.831373 0.909804 1.000000
0.941176 0.929412 0.996078
0.996078 0.941176 0.992157
0.450980 0.972549 1.000000
0.474510 0.972549 1.000000
0.513725 0.972549 1.000000
0.576471 0.972549 1.000000
0.666667 0.976471 1.000000
0.784314 0.984314 1.000000
0.905882 0.988235 1.000000
1.000000 1.000000 1.000000
1.000000 1.000000 0.992157
