loleis/其他/lut20种/Sports LUT #9.cube
TITLE "Sports LUT #9"
#LUT size
LUT_3D_SIZE 25
#LUT data points
0.000000 0.000000 0.000000
0.035294 0.003922 0.000000
0.078431 0.000000 0.000000
0.125490 0.003922 0.000000
0.188235 0.000000 0.007843
0.219608 0.000000 0.003922
0.266667 0.000000 0.003922
0.313725 0.000000 0.003922
0.356863 0.000000 0.000000
0.403922 0.000000 0.000000
0.454902 0.000000 0.000000
0.501961 0.000000 0.000000
0.549020 0.000000 0.000000
0.600000 0.003922 0.000000
0.650980 0.000000 0.000000
0.698039 0.000000 0.000000
0.752941 0.000000 0.000000
0.800000 0.000000 0.003922
0.854902 0.000000 0.003922
0.898039 0.003922 0.007843
0.937255 0.000000 0.000000
0.988235 0.000000 0.003922
0.996078 0.000000 0.000000
1.000000 0.003922 0.003922
0.996078 0.000000 0.000000
0.000000 0.039216 0.003922
0.039216 0.039216 0.007843
0.086275 0.035294 0.000000
0.133333 0.039216 0.000000
0.168627 0.043137 0.000000
0.215686 0.043137 0.000000
0.266667 0.035294 0.003922
0.305882 0.031373 0.000000
0.356863 0.031373 0.000000
0.407843 0.027451 0.000000
0.450980 0.023529 0.003922
0.501961 0.015686 0.007843
0.549020 0.007843 0.000000
0.600000 0.003922 0.000000
0.650980 0.000000 0.000000
0.705882 0.000000 0.003922
0.756863 0.000000 0.000000
0.800000 0.000000 0.003922
0.854902 0.000000 0.000000
0.901961 0.000000 0.000000
0.937255 0.003922 0.000000
0.980392 0.000000 0.003922
0.996078 0.000000 0.000000
0.996078 0.000000 0.000000
0.996078 0.007843 0.003922
0.000000 0.082353 0.000000
0.039216 0.086275 0.007843
0.086275 0.082353 0.000000
0.129412 0.082353 0.000000
0.172549 0.086275 0.003922
0.223529 0.078431 0.007843
0.266667 0.086275 0.000000
0.309804 0.082353 0.003922
0.364706 0.078431 0.003922
0.411765 0.078431 0.000000
0.454902 0.074510 0.000000
0.498039 0.070588 0.000000
0.545098 0.070588 0.000000
0.588235 0.066667 0.000000
0.647059 0.058824 0.000000
0.694118 0.050980 0.003922
0.752941 0.039216 0.000000
0.796078 0.023529 0.000000
0.847059 0.011765 0.000000
0.886275 0.003922 0.000000
0.937255 0.000000 0.000000
0.976471 0.000000 0.000000
0.996078 0.000000 0.000000
0.992157 0.000000 0.003922
1.000000 0.003922 0.000000
0.000000 0.125490 0.003922
0.031373 0.129412 0.003922
0.090196 0.125490 0.003922
0.129412 0.125490 0.003922
0.180392 0.121569 0.000000
0.219608 0.129412 0.000000
0.270588 0.129412 0.000000
0.317647 0.125490 0.000000
0.356863 0.125490 0.000000
0.403922 0.125490 0.000000
0.454902 0.129412 0.003922
0.494118 0.121569 0.000000
0.549020 0.113725 0.000000
0.600000 0.117647 0.000000
0.647059 0.117647 0.000000
0.698039 0.113725 0.000000
0.752941 0.109804 0.003922
0.800000 0.101961 0.000000
0.843137 0.098039 0.003922
0.890196 0.090196 0.000000
0.929412 0.082353 0.000000
0.972549 0.074510 0.000000
1.000000 0.054902 0.000000
0.996078 0.054902 0.003922
1.000000 0.039216 0.000000
0.003922 0.172549 0.000000
0.047059 0.168627 0.000000
0.086275 0.176471 0.011765
0.129412 0.172549 0.003922
0.176471 0.172549 0.000000
0.219608 0.168627 0.000000
0.266667 0.172549 0.000000
0.309804 0.176471 0.000000
0.360784 0.168627 0.007843
0.403922 0.172549 0.007843
0.443137 0.176471 0.000000
0.498039 0.172549 0.000000
0.549020 0.168627 0.000000
0.596078 0.168627 0.000000
0.647059 0.164706 0.000000
0.698039 0.164706 0.000000
0.745098 0.160784 0.003922
0.792157 0.156863 0.003922
0.843137 0.152941 0.000000
0.886275 0.149020 0.003922
0.925490 0.141176 0.000000
0.972549 0.137255 0.003922
0.996078 0.133333 0.000000
1.000000 0.121569 0.000000
1.000000 0.113725 0.000000
0.000000 0.219608 0.003922
0.039216 0.223529 0.007843
0.098039 0.215686 0.003922
0.145098 0.219608 0.000000
0.176471 0.231373 0.000000
0.231373 0.223529 0.000000
0.266667 0.227451 0.000000
0.329412 0.227451 0.003922
0.364706 0.219608 0.003922
0.411765 0.219608 0.000000
0.462745 0.215686 0.003922
0.513725 0.219608 0.000000
0.568627 0.219608 0.000000
0.615686 0.219608 0.000000
0.662745 0.219608 0.000000
0.713725 0.215686 0.000000
0.768627 0.215686 0.003922
0.807843 0.215686 0.007843
0.858824 0.207843 0.003922
0.898039 0.207843 0.011765
0.937255 0.203922 0.003922
0.984314 0.200000 0.000000
0.996078 0.196078 0.000000
0.996078 0.196078 0.000000
1.000000 0.180392 0.000000
0.003922 0.266667 0.003922
0.015686 0.270588 0.003922
0.086275 0.270588 0.000000
0.133333 0.258824 0.003922
0.192157 0.270588 0.000000
0.223529 0.266667 0.000000
0.278431 0.266667 0.003922
0.321569 0.262745 0.000000
0.364706 0.266667 0.003922
0.415686 0.262745 0.000000
0.462745 0.266667 0.000000
0.513725 0.266667 0.003922
0.560784 0.266667 0.000000
0.615686 0.266667 0.000000
0.666667 0.270588 0.003922
0.705882 0.270588 0.000000
0.756863 0.266667 0.007843
0.803922 0.262745 0.007843
0.854902 0.258824 0.000000
0.898039 0.258824 0.003922
0.937255 0.258824 0.000000
0.980392 0.254902 0.003922
1.000000 0.243137 0.000000
1.000000 0.235294 0.007843
1.000000 0.235294 0.007843
0.007843 0.309804 0.000000
0.011765 0.313725 0.000000
0.074510 0.317647 0.000000
0.129412 0.313725 0.000000
0.184314 0.313725 0.000000
0.227451 0.321569 0.000000
0.270588 0.313725 0.003922
0.321569 0.317647 0.003922
0.372549 0.309804 0.003922
0.415686 0.317647 0.003922
0.466667 0.313725 0.003922
0.513725 0.313725 0.003922
0.572549 0.309804 0.003922
0.615686 0.305882 0.003922
0.666667 0.317647 0.003922
0.713725 0.317647 0.003922
0.756863 0.313725 0.000000
0.796078 0.313725 0.000000
0.843137 0.309804 0.003922
0.886275 0.309804 0.003922
0.933333 0.301961 0.000000
0.976471 0.298039 0.000000
1.000000 0.294118 0.000000
0.996078 0.298039 0.007843
1.000000 0.278431 0.000000
0.003922 0.356863 0.003922
0.011765 0.360784 0.000000
0.070588 0.356863 0.000000
0.121569 0.360784 0.000000
0.168627 0.368627 0.003922
0.223529 0.360784 0.007843
0.270588 0.360784 0.003922
0.321569 0.364706 0.003922
0.364706 0.360784 0.000000
0.423529 0.356863 0.000000
0.474510 0.356863 0.003922
0.513725 0.360784 0.003922
0.560784 0.360784 0.000000
0.619608 0.364706 0.003922
0.662745 0.360784 0.007843
0.709804 0.360784 0.000000
0.756863 0.360784 0.000000
0.803922 0.356863 0.007843
0.839216 0.352941 0.000000
0.886275 0.356863 0.003922
0.929412 0.349020 0.000000
0.976471 0.345098 0.000000
0.992157 0.345098 0.000000
1.000000 0.337255 0.003922
1.000000 0.329412 0.007843
0.007843 0.407843 0.007843
0.000000 0.411765 0.000000
0.058824 0.403922 0.000000
0.113725 0.407843 0.000000
0.172549 0.415686 0.000000
0.227451 0.411765 0.000000
0.274510 0.415686 0.000000
0.325490 0.415686 0.000000
0.380392 0.407843 0.000000
0.423529 0.411765 0.000000
0.470588 0.415686 0.003922
0.521569 0.407843 0.007843
0.572549 0.411765 0.000000
0.615686 0.407843 0.000000
0.670588 0.407843 0.000000
0.709804 0.407843 0.000000
0.752941 0.403922 0.000000
0.796078 0.407843 0.000000
0.839216 0.403922 0.000000
0.882353 0.400000 0.000000
0.937255 0.396078 0.000000
0.972549 0.392157 0.000000
0.992157 0.388235 0.000000
1.000000 0.388235 0.000000
0.996078 0.380392 0.000000
0.000000 0.478431 0.003922
0.000000 0.470588 0.000000
0.031373 0.478431 0.000000
0.109804 0.478431 0.007843
0.176471 0.470588 0.003922
0.219608 0.478431 0.000000
0.286275 0.474510 0.000000
0.341176 0.478431 0.007843
0.384314 0.478431 0.000000
0.431373 0.474510 0.000000
0.482353 0.474510 0.000000
0.529412 0.474510 0.000000
0.588235 0.474510 0.003922
0.631373 0.474510 0.000000
0.682353 0.470588 0.000000
0.725490 0.466667 0.000000
0.772549 0.462745 0.000000
0.815686 0.458824 0.000000
0.858824 0.454902 0.000000
0.898039 0.450980 0.000000
0.941176 0.447059 0.003922
0.980392 0.443137 0.000000
1.000000 0.439216 0.000000
1.000000 0.439216 0.000000
1.000000 0.435294 0.000000
0.003922 0.517647 0.000000
0.003922 0.517647 0.000000
0.000000 0.521569 0.003922
0.109804 0.525490 0.000000
0.152941 0.529412 0.003922
0.231373 0.529412 0.003922
0.278431 0.529412 0.000000
0.337255 0.521569 0.003922
0.384314 0.525490 0.007843
0.431373 0.521569 0.000000
0.482353 0.521569 0.000000
0.533333 0.521569 0.000000
0.576471 0.521569 0.000000
0.623529 0.521569 0.000000
0.670588 0.521569 0.000000
0.725490 0.517647 0.000000
0.772549 0.509804 0.000000
0.811765 0.509804 0.000000
0.850980 0.501961 0.000000
0.894118 0.494118 0.000000
0.937255 0.498039 0.003922
0.980392 0.494118 0.007843
1.000000 0.486275 0.000000
1.000000 0.486275 0.000000
1.000000 0.482353 0.000000
0.003922 0.564706 0.007843
0.000000 0.568627 0.007843
0.000000 0.568627 0.000000
0.074510 0.568627 0.003922
0.149020 0.572549 0.003922
0.200000 0.576471 0.000000
0.274510 0.568627 0.000000
0.325490 0.576471 0.003922
0.376471 0.568627 0.003922
0.423529 0.572549 0.000000
0.470588 0.568627 0.000000
0.521569 0.568627 0.000000
0.576471 0.568627 0.000000
0.623529 0.564706 0.003922
0.674510 0.564706 0.000000
0.721569 0.560784 0.003922
0.764706 0.556863 0.000000
0.807843 0.552941 0.000000
0.858824 0.545098 0.000000
0.898039 0.545098 0.003922
0.941176 0.537255 0.000000
0.976471 0.529412 0.000000
0.992157 0.533333 0.000000
1.000000 0.525490 0.003922
0.992157 0.529412 0.003922
0.003922 0.611765 0.000000
0.000000 0.615686 0.000000
0.000000 0.619608 0.000000
0.054902 0.615686 0.011765
0.137255 0.623529 0.011765
0.207843 0.623529 0.003922
0.274510 0.615686 0.000000
0.321569 0.611765 0.000000
0.364706 0.615686 0.000000
0.423529 0.619608 0.000000
0.470588 0.615686 0.000000
0.521569 0.615686 0.003922
0.568627 0.611765 0.000000
0.627451 0.607843 0.000000
0.670588 0.607843 0.000000
0.713725 0.600000 0.000000
0.764706 0.603922 0.000000
0.803922 0.592157 0.000000
0.850980 0.596078 0.000000
0.894118 0.588235 0.000000
0.933333 0.588235 0.000000
0.972549 0.580392 0.007843
1.000000 0.576471 0.007843
1.000000 0.568627 0.000000
0.992157 0.576471 0.000000
0.003922 0.650980 0.003922
0.000000 0.666667 0.011765
0.003922 0.658824 0.000000
0.007843 0.662745 0.003922
0.129412 0.658824 0.011765
0.184314 0.666667 0.007843
0.258824 0.662745 0.000000
0.317647 0.662745 0.000000
0.364706 0.662745 0.000000
0.415686 0.658824 0.000000
0.474510 0.654902 0.000000
0.513725 0.658824 0.007843
0.564706 0.654902 0.003922
0.611765 0.654902 0.003922
0.662745 0.650980 0.003922
0.709804 0.650980 0.003922
0.752941 0.647059 0.000000
0.803922 0.639216 0.003922
0.847059 0.639216 0.000000
0.886275 0.631373 0.000000
0.929412 0.631373 0.000000
0.972549 0.627451 0.000000
1.000000 0.619608 0.000000
1.000000 0.615686 0.003922
1.000000 0.607843 0.003922
0.003922 0.725490 0.000000
0.003922 0.725490 0.000000
0.000000 0.725490 0.000000
0.007843 0.729412 0.000000
0.109804 0.717647 0.003922
0.192157 0.721569 0.011765
0.250980 0.721569 0.003922
0.313725 0.721569 0.011765
0.368627 0.721569 0.000000
0.423529 0.717647 0.007843
0.474510 0.713725 0.000000
0.517647 0.713725 0.000000
0.572549 0.709804 0.003922
0.619608 0.709804 0.007843
0.674510 0.709804 0.007843
0.717647 0.709804 0.007843
0.772549 0.705882 0.007843
0.811765 0.705882 0.003922
0.854902 0.694118 0.003922
0.894118 0.694118 0.000000
0.929412 0.682353 0.000000
0.972549 0.674510 0.000000
1.000000 0.670588 0.000000
1.000000 0.666667 0.000000
1.000000 0.666667 0.003922
0.003922 0.752941 0.003922
0.003922 0.752941 0.000000
0.000000 0.764706 0.000000
0.000000 0.756863 0.000000
0.074510 0.756863 0.000000
0.168627 0.756863 0.000000
0.235294 0.760784 0.000000
0.298039 0.756863 0.000000
0.352941 0.756863 0.000000
0.403922 0.756863 0.000000
0.458824 0.752941 0.003922
0.513725 0.752941 0.003922
0.560784 0.752941 0.007843
0.611765 0.749020 0.003922
0.658824 0.745098 0.003922
0.705882 0.749020 0.000000
0.756863 0.745098 0.003922
0.800000 0.741176 0.000000
0.850980 0.741176 0.003922
0.898039 0.737255 0.000000
0.933333 0.733333 0.000000
0.980392 0.721569 0.000000
1.000000 0.713725 0.000000
0.992157 0.713725 0.007843
1.000000 0.705882 0.003922
0.000000 0.788235 0.000000
0.003922 0.800000 0.003922
0.007843 0.796078 0.000000
0.000000 0.800000 0.000000
0.047059 0.800000 0.000000
0.160784 0.788235 0.011765
0.223529 0.792157 0.000000
0.282353 0.796078 0.003922
0.345098 0.792157 0.000000
0.396078 0.796078 0.000000
0.450980 0.792157 0.000000
0.501961 0.796078 0.000000
0.552941 0.792157 0.000000
0.600000 0.792157 0.000000
0.654902 0.784314 0.000000
0.694118 0.780392 0.000000
0.741176 0.784314 0.000000
0.792157 0.784314 0.003922
0.835294 0.784314 0.000000
0.882353 0.780392 0.000000
0.925490 0.776471 0.000000
0.972549 0.768627 0.000000
1.000000 0.756863 0.000000
1.000000 0.749020 0.000000
1.000000 0.749020 0.000000
0.000000 0.835294 0.003922
0.015686 0.831373 0.007843
0.000000 0.835294 0.000000
0.000000 0.839216 0.000000
0.000000 0.835294 0.000000
0.129412 0.835294 0.000000
0.207843 0.835294 0.003922
0.278431 0.839216 0.007843
0.329412 0.835294 0.000000
0.388235 0.839216 0.000000
0.443137 0.827451 0.000000
0.498039 0.827451 0.003922
0.549020 0.823529 0.000000
0.592157 0.827451 0.003922
0.635294 0.823529 0.000000
0.690196 0.823529 0.003922
0.729412 0.815686 0.000000
0.784314 0.823529 0.000000
0.823529 0.815686 0.000000
0.878431 0.823529 0.000000
0.917647 0.815686 0.003922
0.964706 0.803922 0.000000
1.000000 0.800000 0.003922
1.000000 0.792157 0.000000
1.000000 0.792157 0.000000
0.000000 0.870588 0.003922
0.000000 0.878431 0.000000
0.003922 0.874510 0.000000
0.000000 0.874510 0.007843
0.003922 0.870588 0.000000
0.105882 0.874510 0.003922
0.200000 0.874510 0.003922
0.254902 0.878431 0.000000
0.309804 0.878431 0.000000
0.376471 0.878431 0.003922
0.431373 0.870588 0.000000
0.474510 0.866667 0.000000
0.529412 0.866667 0.000000
0.576471 0.866667 0.000000
0.627451 0.862745 0.000000
0.678431 0.862745 0.000000
0.721569 0.862745 0.000000
0.764706 0.858824 0.003922
0.819608 0.858824 0.003922
0.866667 0.854902 0.003922
0.909804 0.858824 0.000000
0.952941 0.854902 0.003922
0.992157 0.850980 0.003922
1.000000 0.839216 0.000000
1.000000 0.831373 0.000000
0.000000 0.929412 0.003922
0.003922 0.921569 0.000000
0.007843 0.925490 0.003922
0.000000 0.921569 0.000000
0.000000 0.925490 0.000000
0.094118 0.929412 0.000000
0.192157 0.925490 0.000000
0.250980 0.921569 0.000000
0.317647 0.921569 0.003922
0.364706 0.913725 0.000000
0.423529 0.917647 0.000000
0.470588 0.917647 0.000000
0.521569 0.913725 0.000000
0.568627 0.913725 0.000000
0.623529 0.913725 0.000000
0.666667 0.909804 0.000000
0.717647 0.905882 0.000000
0.764706 0.905882 0.003922
0.811765 0.901961 0.000000
0.854902 0.901961 0.000000
0.909804 0.898039 0.000000
0.956863 0.890196 0.000000
0.988235 0.890196 0.000000
0.996078 0.886275 0.007843
0.996078 0.882353 0.000000
0.000000 0.952941 0.000000
0.000000 0.952941 0.003922
0.000000 0.952941 0.000000
0.003922 0.952941 0.003922
0.000000 0.956863 0.000000
0.047059 0.956863 0.000000
0.164706 0.945098 0.000000
0.247059 0.952941 0.000000
0.298039 0.956863 0.003922
0.356863 0.952941 0.000000
0.411765 0.952941 0.000000
0.462745 0.945098 0.000000
0.517647 0.945098 0.000000
0.564706 0.945098 0.003922
0.611765 0.945098 0.000000
0.658824 0.945098 0.003922
0.709804 0.941176 0.000000
0.752941 0.937255 0.000000
0.800000 0.937255 0.000000
0.850980 0.929412 0.000000
0.894118 0.937255 0.000000
0.945098 0.933333 0.003922
0.972549 0.933333 0.003922
1.000000 0.929412 0.000000
0.996078 0.929412 0.000000
0.000000 0.984314 0.000000
0.000000 0.980392 0.000000
0.000000 0.992157 0.000000
0.000000 0.988235 0.003922
0.003922 0.988235 0.003922
0.000000 0.988235 0.000000
0.156863 0.984314 0.000000
0.219608 0.984314 0.003922
0.278431 0.980392 0.000000
0.341176 0.980392 0.000000
0.396078 0.980392 0.000000
0.450980 0.980392 0.000000
0.505882 0.976471 0.003922
0.549020 0.976471 0.000000
0.600000 0.976471 0.003922
0.643137 0.976471 0.000000
0.694118 0.968627 0.000000
0.737255 0.968627 0.000000
0.788235 0.968627 0.000000
0.827451 0.968627 0.000000
0.882353 0.968627 0.003922
0.917647 0.964706 0.000000
0.956863 0.964706 0.000000
1.000000 0.964706 0.003922
0.992157 0.968627 0.003922
0.000000 1.000000 0.000000
0.000000 0.996078 0.000000
0.000000 1.000000 0.000000
0.000000 1.000000 0.000000
0.000000 0.996078 0.000000
0.003922 1.000000 0.000000
0.113725 0.996078 0.000000
0.211765 0.992157 0.007843
0.278431 1.000000 0.003922
0.337255 1.000000 0.003922
0.388235 1.000000 0.003922
0.439216 1.000000 0.003922
0.486275 0.996078 0.000000
0.541176 1.000000 0.000000
0.588235 1.000000 0.000000
0.631373 0.996078 0.000000
0.682353 1.000000 0.000000
0.721569 0.996078 0.000000
0.768627 1.000000 0.007843
0.815686 1.000000 0.003922
0.854902 1.000000 0.003922
0.898039 0.996078 0.007843
0.949020 0.992157 0.003922
0.992157 0.992157 0.000000
1.000000 0.988235 0.003922
0.007843 0.992157 0.000000
0.000000 0.996078 0.007843
0.011765 0.996078 0.000000
0.000000 1.000000 0.000000
0.000000 1.000000 0.003922
0.003922 1.000000 0.000000
0.090196 1.000000 0.000000
0.196078 1.000000 0.000000
0.262745 0.996078 0.003922
0.313725 0.996078 0.000000
0.380392 0.996078 0.000000
0.423529 1.000000 0.000000
0.478431 1.000000 0.000000
0.525490 1.000000 0.000000
0.576471 0.996078 0.000000
0.619608 1.000000 0.000000
0.662745 1.000000 0.000000
0.705882 1.000000 0.000000
0.752941 1.000000 0.000000
0.800000 1.000000 0.000000
0.835294 0.996078 0.000000
0.890196 0.996078 0.000000
0.949020 1.000000 0.000000
0.972549 1.000000 0.003922
0.996078 1.000000 0.003922
0.000000 0.000000 0.039216
0.047059 0.000000 0.043137
0.078431 0.000000 0.043137
0.125490 0.000000 0.039216
0.184314 0.000000 0.050980
0.227451 0.000000 0.054902
0.270588 0.000000 0.035294
0.313725 0.000000 0.035294
0.360784 0.003922 0.023529
0.407843 0.003922 0.019608
0.458824 0.000000 0.023529
0.505882 0.000000 0.015686
0.560784 0.000000 0.015686
0.603922 0.000000 0.007843
0.654902 0.000000 0.000000
0.705882 0.000000 0.003922
0.760784 0.000000 0.000000
0.800000 0.000000 0.000000
0.847059 0.003922 0.000000
0.886275 0.000000 0.003922
0.929412 0.007843 0.000000
0.972549 0.000000 0.000000
0.996078 0.000000 0.000000
0.996078 0.000000 0.000000
1.000000 0.003922 0.003922
0.000000 0.031373 0.039216
0.039216 0.031373 0.043137
0.086275 0.039216 0.047059
0.121569 0.035294 0.043137
0.172549 0.031373 0.039216
0.215686 0.039216 0.027451
0.270588 0.027451 0.047059
0.309804 0.015686 0.031373
0.356863 0.019608 0.031373
0.407843 0.015686 0.023529
0.458824 0.007843 0.019608
0.505882 0.000000 0.015686
0.549020 0.000000 0.003922
0.600000 0.003922 0.000000
0.643137 0.000000 0.000000
0.701961 0.000000 0.000000
0.756863 0.000000 0.003922
0.800000 0.007843 0.007843
0.847059 0.000000 0.003922
0.894118 0.000000 0.003922
0.933333 0.000000 0.000000
0.980392 0.000000 0.003922
1.000000 0.003922 0.003922
0.996078 0.000000 0.000000
0.996078 0.000000 0.011765
0.007843 0.078431 0.031373
0.043137 0.082353 0.050980
0.078431 0.086275 0.043137
0.133333 0.078431 0.043137
0.180392 0.086275 0.039216
0.219608 0.086275 0.039216
0.262745 0.082353 0.031373
0.313725 0.078431 0.035294
0.364706 0.074510 0.023529
0.411765 0.074510 0.023529
0.458824 0.062745 0.015686
0.501961 0.062745 0.007843
0.552941 0.058824 0.003922
0.603922 0.054902 0.003922
0.643137 0.039216 0.000000
0.701961 0.031373 0.000000
0.752941 0.019608 0.000000
0.800000 0.007843 0.000000
0.847059 0.003922 0.000000
0.894118 0.000000 0.000000
0.933333 0.000000 0.000000
0.980392 0.000000 0.007843
0.996078 0.000000 0.000000
0.992157 0.000000 0.000000
1.000000 0.003922 0.000000
0.000000 0.121569 0.023529
0.039216 0.133333 0.039216
0.078431 0.125490 0.031373
0.141176 0.121569 0.035294
0.184314 0.129412 0.027451
0.223529 0.125490 0.039216
0.274510 0.129412 0.027451
0.317647 0.121569 0.023529
0.345098 0.121569 0.015686
0.407843 0.117647 0.011765
0.454902 0.113725 0.007843
0.501961 0.117647 0.011765
0.545098 0.113725 0.007843
0.600000 0.109804 0.000000
0.647059 0.105882 0.000000
0.698039 0.105882 0.000000
0.745098 0.094118 0.000000
0.800000 0.094118 0.003922
0.843137 0.078431 0.000000
0.886275 0.078431 0.000000
0.929412 0.070588 0.000000
0.976471 0.054902 0.000000
1.000000 0.043137 0.000000
1.000000 0.035294 0.007843
0.996078 0.023529 0.000000
0.000000 0.180392 0.031373
0.031373 0.172549 0.023529
0.090196 0.168627 0.023529
0.133333 0.172549 0.035294
0.180392 0.172549 0.023529
0.223529 0.168627 0.023529
0.270588 0.168627 0.023529
0.321569 0.172549 0.027451
0.368627 0.164706 0.019608
0.411765 0.168627 0.023529
0.458824 0.168627 0.015686
0.501961 0.156863 0.007843
0.560784 0.160784 0.003922
0.603922 0.160784 0.003922
0.654902 0.160784 0.003922
0.701961 0.156863 0.003922
0.749020 0.152941 0.000000
0.792157 0.149020 0.000000
0.839216 0.149020 0.000000
0.878431 0.141176 0.000000
0.929412 0.133333 0.003922
0.968627 0.129412 0.000000
1.000000 0.125490 0.000000
1.000000 0.117647 0.000000
1.000000 0.109804 0.000000
0.000000 0.223529 0.011765
0.027451 0.223529 0.015686
0.090196 0.227451 0.015686
0.125490 0.231373 0.015686
0.184314 0.219608 0.011765
0.231373 0.219608 0.003922
0.274510 0.223529 0.007843
0.317647 0.219608 0.000000
0.368627 0.223529 0.015686
0.411765 0.215686 0.007843
0.462745 0.215686 0.007843
0.509804 0.215686 0.000000
0.564706 0.211765 0.003922
0.611765 0.215686 0.000000
0.662745 0.219608 0.000000
0.713725 0.215686 0.000000
0.760784 0.207843 0.000000
0.800000 0.207843 0.000000
0.854902 0.203922 0.007843
0.894118 0.200000 0.003922
0.941176 0.196078 0.000000
0.980392 0.188235 0.000000
1.000000 0.188235 0.000000
1.000000 0.180392 0.000000
0.996078 0.180392 0.000000
0.000000 0.266667 0.003922
0.023529 0.266667 0.011765
0.074510 0.270588 0.000000
0.129412 0.266667 0.000000
0.180392 0.262745 0.000000
0.227451 0.262745 0.000000
0.282353 0.270588 0.000000
0.321569 0.266667 0.011765
0.360784 0.262745 0.003922
0.415686 0.262745 0.000000
0.462745 0.262745 0.003922
0.513725 0.258824 0.000000
0.564706 0.262745 0.000000
0.611765 0.262745 0.000000
0.662745 0.266667 0.000000
0.709804 0.266667 0.000000
0.764706 0.266667 0.003922
0.807843 0.262745 0.007843
0.850980 0.254902 0.000000
0.898039 0.250980 0.000000
0.937255 0.250980 0.000000
0.984314 0.247059 0.000000
1.000000 0.239216 0.000000
0.996078 0.235294 0.000000
1.000000 0.235294 0.000000
0.000000 0.309804 0.000000
0.003922 0.313725 0.000000
0.070588 0.309804 0.000000
0.121569 0.313725 0.000000
0.176471 0.313725 0.000000
0.231373 0.317647 0.000000
0.274510 0.309804 0.000000
0.325490 0.313725 0.003922
0.372549 0.309804 0.003922
0.419608 0.313725 0.003922
0.462745 0.309804 0.000000
0.513725 0.313725 0.000000
0.560784 0.313725 0.000000
0.611765 0.309804 0.000000
0.662745 0.313725 0.000000
0.709804 0.313725 0.007843
0.752941 0.309804 0.003922
0.800000 0.305882 0.003922
0.847059 0.309804 0.003922
0.890196 0.301961 0.000000
0.937255 0.298039 0.000000
0.980392 0.290196 0.000000
1.000000 0.290196 0.003922
0.996078 0.286275 0.000000
0.992157 0.282353 0.000000
0.011765 0.349020 0.000000
0.003922 0.356863 0.003922
0.050980 0.360784 0.003922
0.109804 0.364706 0.003922
0.180392 0.360784 0.007843
0.219608 0.364706 0.000000
0.270588 0.364706 0.000000
0.325490 0.360784 0.000000
0.368627 0.364706 0.003922
0.419608 0.360784 0.000000
0.466667 0.360784 0.003922
0.513725 0.360784 0.003922
0.560784 0.360784 0.003922
0.611765 0.360784 0.007843
0.658824 0.364706 0.007843
0.705882 0.356863 0.000000
0.752941 0.356863 0.000000
0.796078 0.349020 0.000000
0.843137 0.352941 0.000000
0.890196 0.349020 0.000000
0.929412 0.349020 0.000000
0.968627 0.341176 0.003922
1.000000 0.337255 0.003922
1.000000 0.333333 0.000000
1.000000 0.333333 0.011765
0.000000 0.407843 0.003922
0.000000 0.415686 0.000000
0.031373 0.403922 0.000000
0.113725 0.407843 0.011765
0.164706 0.411765 0.000000
0.223529 0.415686 0.003922
0.270588 0.411765 0.000000
0.313725 0.415686 0.000000
0.364706 0.415686 0.003922
0.419608 0.411765 0.007843
0.466667 0.411765 0.000000
0.517647 0.411765 0.000000
0.560784 0.407843 0.000000
0.607843 0.407843 0.000000
0.658824 0.403922 0.000000
0.705882 0.403922 0.000000
0.749020 0.400000 0.000000
0.800000 0.400000 0.003922
0.843137 0.400000 0.000000
0.886275 0.392157 0.000000
0.929412 0.388235 0.000000
0.976471 0.388235 0.007843
1.000000 0.384314 0.003922
1.000000 0.384314 0.003922
1.000000 0.380392 0.000000
0.011765 0.474510 0.003922
0.000000 0.470588 0.000000
0.011765 0.474510 0.000000
0.094118 0.478431 0.003922
0.168627 0.474510 0.003922
0.223529 0.474510 0.000000
0.278431 0.474510 0.000000
0.325490 0.474510 0.007843
0.388235 0.470588 0.000000
0.431373 0.466667 0.000000
0.478431 0.470588 0.000000
