loleis/其他/lut20种/Sports LUT #4.cube
TITLE "Sports LUT #4"
#LUT size
LUT_3D_SIZE 9
#LUT data points
0.145098 0.109804 0.121569
0.184314 0.109804 0.125490
0.239216 0.113725 0.133333
0.313725 0.113725 0.141176
0.411765 0.117647 0.145098
0.537255 0.125490 0.145098
0.698039 0.125490 0.164706
0.858824 0.137255 0.168627
0.980392 0.152941 0.176471
0.172549 0.156863 0.121569
0.196078 0.152941 0.137255
0.258824 0.149020 0.145098
0.333333 0.152941 0.152941
0.435294 0.160784 0.152941
0.568627 0.168627 0.152941
0.729412 0.184314 0.156863
0.878431 0.196078 0.168627
0.996078 0.215686 0.196078
0.188235 0.215686 0.152941
0.203922 0.215686 0.149020
0.258824 0.215686 0.145098
0.341176 0.219608 0.149020
0.439216 0.239216 0.156863
0.568627 0.254902 0.156863
0.721569 0.274510 0.168627
0.866667 0.286275 0.176471
0.996078 0.298039 0.196078
0.196078 0.337255 0.156863
0.227451 0.325490 0.160784
0.290196 0.337255 0.156863
0.376471 0.345098 0.152941
0.490196 0.360784 0.152941
0.619608 0.380392 0.164706
0.764706 0.400000 0.176471
0.894118 0.411765 0.188235
1.000000 0.423529 0.219608
0.207843 0.474510 0.149020
0.227451 0.458824 0.137255
0.294118 0.462745 0.141176
0.392157 0.478431 0.152941
0.509804 0.494118 0.152941
0.631373 0.509804 0.156863
0.772549 0.521569 0.168627
0.894118 0.533333 0.200000
1.000000 0.541176 0.266667
0.184314 0.576471 0.129412
0.231373 0.584314 0.137255
0.294118 0.584314 0.133333
0.396078 0.603922 0.141176
0.513725 0.623529 0.149020
0.647059 0.639216 0.156863
0.788235 0.650980 0.180392
0.905882 0.654902 0.231373
1.000000 0.658824 0.286275
0.211765 0.780392 0.180392
0.235294 0.776471 0.164706
0.321569 0.764706 0.176471
0.439216 0.776471 0.192157
0.545098 0.780392 0.200000
0.678431 0.784314 0.223529
0.807843 0.800000 0.270588
0.917647 0.807843 0.313725
1.000000 0.800000 0.372549
0.305882 0.890196 0.294118
0.321569 0.886275 0.270588
0.376471 0.886275 0.258824
0.474510 0.894118 0.286275
0.572549 0.894118 0.321569
0.690196 0.901961 0.352941
0.807843 0.909804 0.388235
0.909804 0.909804 0.431373
0.996078 0.917647 0.466667
0.529412 1.000000 0.533333
0.533333 1.000000 0.517647
0.564706 1.000000 0.517647
0.611765 1.000000 0.541176
0.690196 0.996078 0.564706
0.776471 1.000000 0.596078
0.854902 1.000000 0.623529
0.929412 1.000000 0.662745
1.000000 1.000000 0.705882
0.156863 0.117647 0.160784
0.184314 0.113725 0.160784
0.247059 0.121569 0.164706
0.325490 0.121569 0.172549
0.435294 0.117647 0.176471
0.568627 0.113725 0.188235
0.725490 0.113725 0.196078
0.890196 0.121569 0.207843
1.000000 0.145098 0.211765
0.168627 0.156863 0.184314
0.211765 0.152941 0.180392
0.258824 0.152941 0.172549
0.352941 0.160784 0.176471
0.462745 0.160784 0.192157
0.600000 0.172549 0.192157
0.737255 0.168627 0.196078
0.866667 0.172549 0.203922
0.992157 0.207843 0.219608
0.184314 0.223529 0.180392
0.215686 0.223529 0.180392
0.274510 0.219608 0.184314
0.352941 0.227451 0.184314
0.454902 0.247059 0.192157
0.592157 0.254902 0.188235
0.749020 0.274510 0.200000
0.898039 0.282353 0.207843
0.996078 0.301961 0.231373
0.200000 0.352941 0.180392
0.215686 0.356863 0.184314
0.301961 0.352941 0.184314
0.396078 0.364706 0.180392
0.501961 0.376471 0.184314
0.623529 0.384314 0.200000
0.752941 0.392157 0.207843
0.874510 0.396078 0.211765
1.000000 0.407843 0.239216
0.172549 0.494118 0.172549
0.219608 0.482353 0.180392
0.290196 0.482353 0.172549
0.403922 0.494118 0.188235
0.529412 0.509804 0.192157
0.654902 0.517647 0.196078
0.792157 0.537255 0.223529
0.905882 0.537255 0.254902
1.000000 0.549020 0.298039
0.152941 0.611765 0.164706
0.207843 0.607843 0.168627
0.301961 0.615686 0.172549
0.396078 0.627451 0.172549
0.529412 0.635294 0.192157
0.654902 0.647059 0.203922
0.796078 0.666667 0.223529
0.917647 0.670588 0.266667
0.992157 0.678431 0.329412
0.211765 0.788235 0.231373
0.243137 0.788235 0.219608
0.333333 0.784314 0.223529
0.443137 0.784314 0.231373
0.564706 0.792157 0.250980
0.682353 0.800000 0.274510
0.800000 0.796078 0.298039
0.909804 0.784314 0.301961
1.000000 0.800000 0.392157
0.313725 0.898039 0.337255
0.325490 0.898039 0.321569
0.388235 0.898039 0.301961
0.482353 0.894118 0.329412
0.584314 0.901961 0.356863
0.690196 0.905882 0.396078
0.811765 0.913725 0.423529
0.921569 0.913725 0.470588
1.000000 0.909804 0.501961
0.545098 0.992157 0.549020
0.568627 1.000000 0.556863
0.592157 1.000000 0.564706
0.627451 1.000000 0.572549
0.698039 1.000000 0.584314
0.772549 1.000000 0.600000
0.854902 1.000000 0.627451
0.929412 1.000000 0.654902
1.000000 1.000000 0.705882
0.152941 0.113725 0.211765
0.184314 0.113725 0.215686
0.250980 0.117647 0.223529
0.329412 0.121569 0.231373
0.443137 0.113725 0.247059
0.576471 0.086275 0.250980
0.737255 0.015686 0.258824
0.882353 0.019608 0.270588
1.000000 0.086275 0.294118
0.160784 0.156863 0.227451
0.196078 0.149020 0.227451
0.262745 0.152941 0.239216
0.349020 0.156863 0.243137
0.466667 0.152941 0.258824
0.603922 0.137255 0.262745
0.745098 0.125490 0.262745
0.886275 0.137255 0.270588
1.000000 0.180392 0.294118
0.180392 0.223529 0.239216
0.207843 0.219608 0.239216
0.278431 0.219608 0.239216
0.352941 0.227451 0.247059
0.466667 0.235294 0.250980
0.603922 0.243137 0.262745
0.756863 0.250980 0.266667
0.898039 0.266667 0.286275
0.992157 0.290196 0.305882
0.156863 0.352941 0.247059
0.200000 0.349020 0.258824
0.286275 0.356863 0.254902
0.396078 0.368627 0.258824
0.509804 0.368627 0.266667
0.627451 0.376471 0.278431
0.760784 0.388235 0.278431
0.890196 0.388235 0.282353
1.000000 0.403922 0.313725
0.105882 0.501961 0.243137
0.168627 0.486275 0.254902
0.274510 0.494118 0.254902
0.388235 0.501961 0.250980
0.529412 0.509804 0.258824
0.666667 0.517647 0.270588
0.788235 0.529412 0.294118
0.909804 0.537255 0.325490
1.000000 0.549020 0.372549
0.098039 0.623529 0.250980
0.168627 0.619608 0.247059
0.274510 0.631373 0.254902
0.396078 0.635294 0.262745
0.533333 0.639216 0.266667
0.662745 0.650980 0.278431
0.800000 0.662745 0.301961
0.917647 0.674510 0.349020
1.000000 0.678431 0.419608
0.192157 0.792157 0.305882
0.235294 0.784314 0.301961
0.321569 0.792157 0.305882
0.435294 0.796078 0.309804
0.560784 0.800000 0.325490
0.686275 0.800000 0.345098
0.800000 0.792157 0.349020
0.917647 0.788235 0.384314
0.996078 0.800000 0.450980
0.337255 0.898039 0.396078
0.345098 0.898039 0.388235
0.392157 0.901961 0.376471
0.490196 0.901961 0.400000
0.592157 0.905882 0.423529
0.713725 0.909804 0.458824
0.807843 0.917647 0.482353
0.917647 0.921569 0.521569
0.992157 0.917647 0.549020
0.545098 1.000000 0.572549
0.560784 1.000000 0.588235
0.603922 1.000000 0.592157
0.647059 1.000000 0.615686
0.698039 1.000000 0.615686
0.776471 1.000000 0.631373
0.847059 1.000000 0.650980
0.929412 1.000000 0.678431
1.000000 1.000000 0.717647
0.160784 0.109804 0.282353
0.196078 0.109804 0.290196
0.254902 0.113725 0.294118
0.337255 0.109804 0.309804
0.447059 0.094118 0.333333
0.572549 0.074510 0.345098
0.729412 0.003922 0.372549
0.894118 0.000000 0.380392
0.996078 0.000000 0.388235
0.156863 0.149020 0.305882
0.200000 0.149020 0.317647
0.266667 0.141176 0.325490
0.352941 0.141176 0.333333
0.466667 0.133333 0.349020
0.607843 0.121569 0.364706
0.760784 0.094118 0.380392
0.890196 0.086275 0.380392
0.992157 0.152941 0.403922
0.164706 0.227451 0.317647
0.188235 0.215686 0.317647
0.254902 0.219608 0.333333
0.360784 0.215686 0.345098
0.478431 0.223529 0.356863
0.607843 0.227451 0.364706
0.756863 0.231373 0.376471
0.905882 0.247059 0.388235
1.000000 0.274510 0.407843
0.156863 0.349020 0.364706
0.188235 0.341176 0.360784
0.270588 0.352941 0.364706
0.388235 0.352941 0.364706
0.501961 0.368627 0.372549
0.639216 0.368627 0.380392
0.768627 0.376471 0.384314
0.890196 0.388235 0.392157
1.000000 0.403922 0.411765
0.050980 0.494118 0.376471
0.145098 0.486275 0.352941
0.239216 0.490196 0.356863
0.372549 0.490196 0.356863
0.517647 0.509804 0.360784
0.658824 0.517647 0.392157
0.788235 0.525490 0.419608
0.909804 0.541176 0.431373
1.000000 0.556863 0.462745
0.000000 0.619608 0.356863
0.047059 0.623529 0.349020
0.231373 0.627451 0.352941
0.372549 0.635294 0.356863
0.525490 0.643137 0.368627
0.666667 0.654902 0.392157
0.800000 0.662745 0.403922
0.909804 0.670588 0.454902
1.000000 0.678431 0.494118
0.149020 0.792157 0.411765
0.203922 0.784314 0.407843
0.298039 0.784314 0.400000
0.423529 0.792157 0.415686
0.556863 0.796078 0.431373
0.686275 0.800000 0.447059
0.800000 0.800000 0.462745
0.909804 0.796078 0.482353
0.996078 0.811765 0.545098
0.341176 0.901961 0.486275
0.341176 0.901961 0.478431
0.396078 0.898039 0.470588
0.494118 0.898039 0.486275
0.588235 0.905882 0.501961
0.698039 0.913725 0.517647
0.815686 0.913725 0.545098
0.921569 0.921569 0.576471
0.992157 0.917647 0.607843
0.552941 1.000000 0.627451
0.568627 1.000000 0.627451
0.603922 1.000000 0.631373
0.647059 1.000000 0.647059
0.709804 1.000000 0.658824
0.772549 1.000000 0.666667
0.850980 1.000000 0.694118
0.933333 1.000000 0.713725
1.000000 1.000000 0.749020
0.164706 0.109804 0.411765
0.200000 0.105882 0.403922
0.266667 0.101961 0.423529
0.360784 0.094118 0.427451
0.466667 0.074510 0.458824
0.584314 0.027451 0.466667
0.756863 0.000000 0.490196
0.898039 0.000000 0.505882
1.000000 0.000000 0.517647
0.156863 0.141176 0.439216
0.203922 0.141176 0.427451
0.270588 0.137255 0.439216
0.376471 0.125490 0.462745
0.482353 0.117647 0.474510
0.619608 0.090196 0.494118
0.756863 0.058824 0.498039
0.894118 0.039216 0.509804
1.000000 0.121569 0.521569
0.129412 0.207843 0.447059
0.176471 0.207843 0.450980
0.266667 0.203922 0.450980
0.368627 0.203922 0.462745
0.486275 0.200000 0.470588
0.623529 0.203922 0.486275
0.768627 0.219608 0.505882
0.909804 0.235294 0.517647
0.996078 0.266667 0.513725
0.078431 0.352941 0.486275
0.145098 0.341176 0.486275
0.243137 0.337255 0.486275
0.364706 0.337255 0.498039
0.517647 0.341176 0.509804
0.650980 0.356863 0.509804
0.772549 0.364706 0.501961
0.898039 0.372549 0.509804
1.000000 0.400000 0.521569
0.000000 0.498039 0.501961
0.094118 0.498039 0.494118
0.231373 0.486275 0.494118
0.368627 0.490196 0.498039
0.517647 0.501961 0.505882
0.654902 0.513725 0.521569
0.788235 0.529412 0.537255
0.905882 0.545098 0.556863
1.000000 0.564706 0.580392
0.000000 0.623529 0.482353
0.011765 0.619608 0.486275
0.200000 0.631373 0.486275
0.356863 0.639216 0.494118
0.517647 0.639216 0.505882
0.662745 0.650980 0.513725
0.796078 0.658824 0.541176
0.901961 0.674510 0.580392
1.000000 0.686275 0.596078
0.145098 0.792157 0.525490
0.176471 0.784314 0.517647
0.286275 0.780392 0.529412
0.415686 0.788235 0.537255
0.552941 0.796078 0.549020
0.686275 0.803922 0.568627
0.803922 0.796078 0.564706
0.921569 0.792157 0.584314
1.000000 0.815686 0.643137
0.321569 0.909804 0.560784
0.321569 0.901961 0.556863
0.396078 0.898039 0.556863
0.490196 0.901961 0.572549
0.588235 0.909804 0.588235
0.701961 0.913725 0.607843
0.815686 0.917647 0.631373
0.917647 0.917647 0.643137
1.000000 0.921569 0.682353
0.552941 0.996078 0.690196
0.568627 0.996078 0.678431
0.592157 0.996078 0.678431
0.647059 1.000000 0.701961
0.701961 1.000000 0.705882
0.772549 0.996078 0.717647
0.854902 1.000000 0.729412
0.937255 1.000000 0.756863
0.996078 1.000000 0.776471
0.176471 0.094118 0.560784
0.207843 0.090196 0.568627
0.290196 0.086275 0.580392
0.380392 0.058824 0.592157
0.498039 0.019608 0.596078
0.627451 0.000000 0.619608
0.768627 0.000000 0.635294
0.901961 0.000000 0.631373
1.000000 0.000000 0.635294
0.160784 0.133333 0.588235
0.211765 0.129412 0.603922
0.282353 0.121569 0.600000
0.388235 0.105882 0.600000
0.490196 0.086275 0.600000
0.619608 0.039216 0.611765
0.749020 0.000000 0.619608
0.886275 0.000000 0.623529
1.000000 0.054902 0.631373
0.062745 0.207843 0.615686
0.149020 0.207843 0.611765
0.250980 0.203922 0.603922
0.376471 0.196078 0.619608
0.513725 0.192157 0.627451
0.647059 0.180392 0.635294
0.776471 0.184314 0.635294
0.909804 0.215686 0.639216
0.996078 0.250980 0.643137
0.000000 0.329412 0.611765
0.043137 0.329412 0.631373
0.207843 0.321569 0.619608
0.349020 0.321569 0.623529
0.505882 0.321569 0.635294
0.643137 0.317647 0.623529
0.768627 0.329412 0.619608
0.878431 0.349020 0.619608
1.000000 0.372549 0.623529
0.000000 0.501961 0.643137
0.000000 0.494118 0.650980
0.203922 0.498039 0.650980
0.360784 0.498039 0.654902
0.513725 0.494118 0.650980
0.654902 0.494118 0.650980
0.788235 0.505882 0.650980
0.901961 0.529412 0.662745
1.000000 0.556863 0.674510
0.000000 0.639216 0.643137
0.000000 0.635294 0.643137
0.200000 0.643137 0.635294
0.368627 0.650980 0.647059
0.517647 0.650980 0.654902
0.666667 0.658824 0.670588
0.788235 0.670588 0.670588
0.894118 0.674510 0.678431
1.000000 0.698039 0.698039
0.145098 0.792157 0.674510
0.211765 0.788235 0.674510
0.305882 0.796078 0.670588
0.427451 0.792157 0.670588
0.556863 0.796078 0.674510
0.674510 0.788235 0.666667
0.800000 0.784314 0.670588
0.909804 0.792157 0.682353
0.996078 0.815686 0.725490
0.368627 0.905882 0.686275
0.380392 0.909804 0.690196
0.415686 0.901961 0.690196
0.513725 0.909804 0.690196
0.611765 0.913725 0.701961
0.717647 0.913725 0.713725
0.819608 0.913725 0.717647
0.921569 0.917647 0.737255
1.000000 0.917647 0.752941
0.545098 1.000000 0.752941
0.556863 1.000000 0.749020
0.596078 0.996078 0.749020
0.639216 0.996078 0.756863
0.701961 0.996078 0.764706
0.764706 1.000000 0.764706
0.854902 1.000000 0.788235
0.933333 1.000000 0.796078
0.996078 1.000000 0.819608
0.176471 0.062745 0.721569
0.215686 0.062745 0.717647
0.294118 0.043137 0.729412
0.396078 0.007843 0.741176
0.513725 0.000000 0.745098
0.643137 0.000000 0.764706
0.764706 0.000000 0.752941
0.901961 0.000000 0.760784
1.000000 0.003922 0.756863
0.137255 0.105882 0.737255
0.188235 0.109804 0.725490
0.282353 0.098039 0.741176
0.392157 0.082353 0.745098
0.498039 0.050980 0.741176
0.627451 0.003922 0.745098
0.760784 0.000000 0.749020
0.898039 0.000000 0.756863
0.996078 0.000000 0.749020
0.003922 0.196078 0.741176
0.125490 0.200000 0.745098
0.243137 0.188235 0.764706
0.372549 0.184314 0.756863
0.505882 0.176471 0.756863
0.635294 0.160784 0.760784
0.772549 0.152941 0.760784
0.905882 0.172549 0.764706
1.000000 0.239216 0.788235
0.000000 0.305882 0.741176
0.003922 0.305882 0.752941
0.176471 0.305882 0.756863
0.341176 0.305882 0.756863
0.482353 0.309804 0.752941
0.635294 0.309804 0.764706
0.756863 0.309804 0.752941
0.898039 0.325490 0.760784
1.000000 0.356863 0.756863
0.000000 0.470588 0.768627
0.000000 0.474510 0.760784
0.149020 0.474510 0.772549
0.325490 0.466667 0.772549
0.486275 0.470588 0.768627
0.635294 0.474510 0.772549
0.780392 0.482353 0.776471
0.901961 0.498039 0.776471
1.000000 0.533333 0.772549
0.000000 0.639216 0.776471
0.003922 0.643137 0.780392
0.219608 0.639216 0.780392
0.368627 0.639216 0.792157
0.513725 0.639216 0.788235
0.654902 0.639216 0.776471
0.796078 0.647059 0.792157
0.905882 0.654902 0.788235
0.996078 0.690196 0.784314
0.098039 0.780392 0.784314
0.196078 0.784314 0.776471
0.298039 0.784314 0.784314
0.427451 0.788235 0.784314
0.537255 0.788235 0.788235
0.670588 0.788235 0.788235
0.784314 0.784314 0.784314
0.894118 0.792157 0.788235
1.000000 0.815686 0.800000
0.352941 0.913725 0.796078
0.388235 0.909804 0.803922
0.439216 0.909804 0.800000
0.521569 0.909804 0.800000
0.607843 0.917647 0.803922
0.709804 0.917647 0.815686
0.811765 0.913725 0.807843
0.917647 0.917647 0.823529
0.992157 0.925490 0.823529
0.537255 1.000000 0.831373
0.556863 1.000000 0.827451
0.584314 0.996078 0.827451
0.627451 1.000000 0.827451
0.698039 1.000000 0.835294
0.760784 1.000000 0.839216
0.839216 1.000000 0.847059
0.933333 1.000000 0.858824
1.000000 0.996078 0.874510
0.149020 0.027451 0.878431
0.200000 0.019608 0.882353
0.290196 0.000000 0.870588
0.400000 0.000000 0.878431
0.509804 0.000000 0.874510
0.627451 0.000000 0.878431
0.752941 0.000000 0.882353
0.886275 0.000000 0.886275
1.000000 0.000000 0.878431
0.133333 0.090196 0.874510
0.180392 0.082353 0.878431
0.274510 0.070588 0.878431
0.384314 0.047059 0.882353
0.501961 0.003922 0.870588
0.631373 0.000000 0.882353
0.752941 0.000000 0.874510
0.882353 0.000000 0.878431
0.996078 0.000000 0.882353
0.000000 0.180392 0.878431
0.101961 0.192157 0.882353
0.239216 0.176471 0.898039
0.376471 0.164706 0.878431
0.490196 0.160784 0.874510
0.627451 0.149020 0.878431
0.756863 0.152941 0.882353
0.894118 0.168627 0.882353
0.996078 0.211765 0.882353
0.000000 0.294118 0.874510
0.003922 0.294118 0.870588
0.145098 0.301961 0.886275
0.341176 0.301961 0.882353
0.474510 0.294118 0.874510
0.607843 0.294118 0.870588
0.749020 0.298039 0.874510
0.882353 0.301961 0.874510
1.000000 0.329412 0.878431
0.000000 0.447059 0.886275
0.000000 0.462745 0.886275
0.070588 0.454902 0.890196
0.301961 0.443137 0.890196
0.462745 0.454902 0.886275
0.619608 0.454902 0.886275
0.760784 0.462745 0.886275
0.890196 0.478431 0.890196
0.996078 0.509804 0.878431
0.000000 0.631373 0.898039
0.000000 0.627451 0.894118
0.200000 0.627451 0.898039
0.352941 0.619608 0.898039
0.501961 0.619608 0.894118
0.635294 0.623529 0.894118
0.768627 0.631373 0.898039
0.894118 0.639216 0.898039
0.996078 0.666667 0.898039
0.137255 0.768627 0.882353
0.211765 0.772549 0.898039
0.309804 0.768627 0.898039
0.415686 0.772549 0.894118
0.537255 0.768627 0.894118
0.650980 0.772549 0.894118
0.776471 0.772549 0.898039
0.901961 0.784314 0.894118
1.000000 0.811765 0.905882
0.376471 0.905882 0.917647
0.400000 0.909804 0.917647
0.447059 0.909804 0.909804
0.521569 0.905882 0.901961
0.615686 0.905882 0.901961
0.713725 0.909804 0.913725
0.815686 0.909804 0.909804
0.905882 0.913725 0.909804
0.996078 0.925490 0.925490
0.552941 0.996078 0.925490
0.556863 1.000000 0.913725
0.592157 0.996078 0.913725
0.631373 1.000000 0.925490
0.694118 0.996078 0.917647
0.768627 1.000000 0.913725
0.847059 1.000000 0.925490
0.925490 1.000000 0.925490
0.996078 1.000000 0.937255
0.133333 0.003922 0.996078
0.192157 0.000000 0.996078
0.282353 0.000000 0.996078
0.388235 0.000000 1.000000
0.505882 0.000000 0.992157
0.631373 0.000000 0.996078
0.745098 0.003922 0.992157
0.874510 0.000000 0.996078
1.000000 0.000000 0.996078
0.094118 0.062745 0.984314
0.160784 0.054902 0.984314
0.270588 0.043137 0.996078
0.372549 0.011765 0.980392
0.486275 0.007843 0.992157
0.619608 0.000000 0.980392
0.745098 0.003922 0.992157
0.874510 0.000000 0.996078
1.000000 0.078431 1.000000
0.000000 0.164706 0.984314
0.054902 0.172549 0.996078
0.219608 0.172549 0.988235
0.356863 0.160784 0.996078
0.490196 0.156863 1.000000
0.619608 0.152941 1.000000
0.741176 0.156863 0.992157
0.874510 0.184314 0.988235
0.996078 0.247059 0.996078
0.007843 0.282353 1.000000
0.000000 0.274510 0.992157
0.113725 0.278431 0.992157
0.313725 0.278431 0.988235
0.466667 0.278431 0.984314
0.603922 0.278431 0.984314
0.733333 0.290196 0.980392
0.866667 0.313725 0.996078
0.992157 0.364706 1.000000
0.000000 0.415686 0.996078
0.007843 0.423529 1.000000
0.007843 0.427451 0.984314
0.282353 0.423529 1.000000
0.450980 0.431373 0.996078
0.592157 0.439216 0.992157
0.741176 0.450980 0.996078
0.870588 0.478431 1.000000
1.000000 0.525490 1.000000
0.000000 0.607843 0.996078
0.000000 0.603922 0.996078
0.184314 0.607843 1.000000
0.317647 0.600000 1.000000
0.462745 0.592157 0.996078
0.607843 0.603922 1.000000
0.749020 0.611765 1.000000
0.886275 0.635294 1.000000
1.000000 0.666667 1.000000
0.231373 0.764706 1.000000
0.282353 0.764706 1.000000
0.349020 0.764706 1.000000
0.435294 0.752941 1.000000
0.521569 0.756863 1.000000
0.631373 0.749020 0.992157
0.760784 0.760784 1.000000
0.894118 0.772549 1.000000
0.996078 0.788235 1.000000
0.454902 0.901961 1.000000
0.470588 0.901961 1.000000
0.505882 0.894118 1.000000
0.560784 0.898039 0.996078
0.627451 0.901961 1.000000
0.705882 0.901961 1.000000
0.796078 0.898039 0.996078
0.901961 0.901961 1.000000
1.000000 0.909804 0.996078
0.596078 1.000000 0.996078
0.607843 1.000000 1.000000
0.639216 1.000000 0.996078
0.670588 1.000000 1.000000
0.709804 1.000000 0.996078
0.784314 1.000000 1.000000
0.850980 1.000000 1.000000
0.937255 1.000000 1.000000
1.000000 1.000000 1.000000
