loleis/其他/lut20种/Sports LUT #13.cube
TITLE "Sports LUT #13"
#LUT size
LUT_3D_SIZE 9
#LUT data points
0.000000 0.000000 0.000000
0.235294 0.000000 0.000000
0.427451 0.003922 0.003922
0.584314 0.000000 0.023529
0.721569 0.015686 0.058824
0.831373 0.070588 0.105882
0.925490 0.117647 0.156863
1.000000 0.160784 0.192157
0.992157 0.196078 0.219608
0.000000 0.239216 0.007843
0.243137 0.235294 0.011765
0.423529 0.227451 0.019608
0.572549 0.215686 0.043137
0.709804 0.203922 0.082353
0.823529 0.207843 0.133333
0.909804 0.219608 0.168627
0.992157 0.235294 0.207843
1.000000 0.250980 0.231373
0.000000 0.407843 0.074510
0.203922 0.407843 0.074510
0.396078 0.400000 0.086275
0.560784 0.388235 0.109804
0.690196 0.368627 0.141176
0.807843 0.356863 0.172549
0.901961 0.356863 0.203922
0.996078 0.349020 0.223529
1.000000 0.352941 0.250980
0.054902 0.552941 0.149020
0.207843 0.552941 0.160784
0.368627 0.549020 0.164706
0.525490 0.545098 0.176471
0.674510 0.525490 0.200000
0.788235 0.505882 0.215686
0.886275 0.486275 0.235294
0.988235 0.474510 0.254902
1.000000 0.470588 0.282353
0.149020 0.670588 0.219608
0.227451 0.666667 0.235294
0.356863 0.662745 0.231373
0.498039 0.662745 0.239216
0.635294 0.658824 0.243137
0.764706 0.635294 0.254902
0.870588 0.619608 0.274510
0.980392 0.600000 0.290196
1.000000 0.596078 0.301961
0.219608 0.768627 0.290196
0.266667 0.768627 0.294118
0.356863 0.764706 0.290196
0.482353 0.756863 0.301961
0.607843 0.752941 0.298039
0.733333 0.749020 0.305882
0.854902 0.745098 0.317647
0.960784 0.729412 0.321569
0.996078 0.717647 0.356863
0.282353 0.858824 0.349020
0.313725 0.862745 0.341176
0.384314 0.850980 0.341176
0.482353 0.854902 0.345098
0.596078 0.850980 0.349020
0.713725 0.850980 0.349020
0.823529 0.843137 0.349020
0.945098 0.843137 0.360784
1.000000 0.831373 0.380392
0.325490 0.949020 0.376471
0.356863 0.952941 0.388235
0.407843 0.952941 0.384314
0.501961 0.945098 0.388235
0.596078 0.956863 0.388235
0.701961 0.949020 0.388235
0.815686 0.945098 0.400000
0.929412 0.937255 0.403922
1.000000 0.941176 0.403922
0.380392 1.000000 0.423529
0.411765 0.996078 0.431373
0.443137 1.000000 0.427451
0.517647 0.996078 0.427451
0.596078 1.000000 0.427451
0.690196 1.000000 0.431373
0.788235 1.000000 0.435294
0.901961 1.000000 0.439216
0.984314 1.000000 0.447059
0.007843 0.000000 0.258824
0.239216 0.000000 0.262745
0.427451 0.000000 0.254902
0.572549 0.090196 0.262745
0.701961 0.133333 0.262745
0.815686 0.172549 0.278431
0.905882 0.203922 0.286275
1.000000 0.219608 0.294118
0.996078 0.247059 0.309804
0.003922 0.243137 0.262745
0.223529 0.239216 0.250980
0.403922 0.235294 0.262745
0.560784 0.235294 0.266667
0.701961 0.243137 0.274510
0.811765 0.250980 0.274510
0.894118 0.262745 0.286275
1.000000 0.278431 0.301961
1.000000 0.282353 0.313725
0.074510 0.403922 0.274510
0.231373 0.403922 0.274510
0.388235 0.403922 0.274510
0.549020 0.396078 0.274510
0.682353 0.388235 0.274510
0.792157 0.376471 0.290196
0.894118 0.372549 0.298039
0.984314 0.376471 0.305882
0.996078 0.380392 0.313725
0.121569 0.549020 0.286275
0.235294 0.541176 0.298039
0.372549 0.549020 0.286275
0.525490 0.545098 0.286275
0.662745 0.529412 0.290196
0.780392 0.505882 0.301961
0.878431 0.494118 0.309804
0.968627 0.486275 0.321569
1.000000 0.486275 0.337255
0.196078 0.658824 0.313725
0.250980 0.654902 0.305882
0.368627 0.658824 0.317647
0.501961 0.658824 0.313725
0.643137 0.650980 0.321569
0.756863 0.635294 0.321569
0.866667 0.623529 0.337255
0.972549 0.611765 0.356863
0.992157 0.607843 0.368627
0.247059 0.756863 0.341176
0.301961 0.752941 0.349020
0.380392 0.760784 0.356863
0.494118 0.756863 0.352941
0.611765 0.745098 0.364706
0.725490 0.745098 0.345098
0.854902 0.745098 0.364706
0.952941 0.733333 0.368627
0.992157 0.729412 0.388235
0.298039 0.843137 0.384314
0.329412 0.850980 0.392157
0.396078 0.847059 0.380392
0.494118 0.850980 0.392157
0.596078 0.850980 0.388235
0.701961 0.847059 0.392157
0.827451 0.843137 0.400000
0.937255 0.835294 0.392157
0.988235 0.839216 0.411765
0.341176 0.949020 0.407843
0.372549 0.949020 0.431373
0.427451 0.956863 0.415686
0.505882 0.949020 0.423529
0.596078 0.949020 0.423529
0.701961 0.949020 0.427451
0.807843 0.949020 0.431373
0.921569 0.941176 0.435294
0.992157 0.941176 0.439216
0.396078 0.996078 0.439216
0.407843 1.000000 0.454902
0.458824 1.000000 0.450980
0.521569 1.000000 0.462745
0.600000 1.000000 0.458824
0.694118 1.000000 0.466667
0.788235 1.000000 0.462745
0.890196 1.000000 0.466667
0.976471 1.000000 0.474510
0.000000 0.003922 0.439216
0.207843 0.003922 0.435294
0.407843 0.019608 0.435294
0.560784 0.098039 0.427451
0.694118 0.168627 0.415686
0.807843 0.219608 0.407843
0.886275 0.274510 0.419608
0.988235 0.305882 0.435294
0.992157 0.325490 0.427451
0.050980 0.231373 0.427451
0.227451 0.235294 0.435294
0.392157 0.239216 0.423529
0.552941 0.250980 0.423529
0.682353 0.270588 0.427451
0.796078 0.298039 0.415686
0.890196 0.325490 0.431373
0.984314 0.345098 0.427451
1.000000 0.352941 0.423529
0.109804 0.396078 0.423529
0.239216 0.407843 0.431373
0.388235 0.400000 0.419608
0.537255 0.400000 0.423529
0.674510 0.400000 0.431373
0.780392 0.407843 0.423529
0.878431 0.411765 0.427451
0.984314 0.415686 0.435294
1.000000 0.423529 0.454902
0.172549 0.545098 0.419608
0.254902 0.549020 0.419608
0.388235 0.549020 0.431373
0.525490 0.545098 0.427451
0.662745 0.529412 0.431373
0.760784 0.517647 0.427451
0.866667 0.509804 0.427451
0.968627 0.509804 0.439216
1.000000 0.513725 0.443137
0.258824 0.654902 0.435294
0.301961 0.658824 0.435294
0.396078 0.662745 0.439216
0.505882 0.654902 0.431373
0.631373 0.650980 0.439216
0.745098 0.635294 0.439216
0.854902 0.627451 0.447059
0.960784 0.619608 0.450980
1.000000 0.615686 0.454902
0.321569 0.756863 0.458824
0.349020 0.756863 0.454902
0.415686 0.752941 0.458824
0.509804 0.752941 0.458824
0.615686 0.749020 0.458824
0.725490 0.749020 0.466667
0.847059 0.741176 0.462745
0.945098 0.729412 0.466667
0.996078 0.721569 0.478431
0.349020 0.850980 0.470588
0.396078 0.850980 0.470588
0.435294 0.847059 0.474510
0.509804 0.850980 0.478431
0.611765 0.843137 0.474510
0.713725 0.847059 0.474510
0.827451 0.843137 0.470588
0.937255 0.839216 0.486275
1.000000 0.835294 0.494118
0.388235 0.949020 0.494118
0.403922 0.949020 0.490196
0.450980 0.949020 0.498039
0.529412 0.949020 0.494118
0.615686 0.945098 0.498039
0.698039 0.945098 0.486275
0.815686 0.945098 0.494118
0.925490 0.941176 0.505882
1.000000 0.937255 0.513725
0.419608 1.000000 0.521569
0.431373 1.000000 0.513725
0.478431 1.000000 0.509804
0.537255 1.000000 0.517647
0.611765 1.000000 0.505882
0.705882 0.996078 0.513725
0.796078 1.000000 0.513725
0.890196 1.000000 0.509804
0.984314 1.000000 0.525490
0.003922 0.011765 0.580392
0.200000 0.023529 0.580392
0.376471 0.074510 0.576471
0.545098 0.117647 0.576471
0.690196 0.172549 0.568627
0.800000 0.223529 0.541176
0.882353 0.282353 0.537255
0.984314 0.329412 0.533333
1.000000 0.372549 0.545098
0.113725 0.239216 0.580392
0.235294 0.235294 0.572549
0.376471 0.243137 0.572549
0.541176 0.254902 0.572549
0.674510 0.266667 0.560784
0.788235 0.301961 0.537255
0.874510 0.341176 0.537255
0.972549 0.372549 0.545098
1.000000 0.407843 0.545098
0.164706 0.392157 0.572549
0.262745 0.396078 0.576471
0.392157 0.403922 0.572549
0.533333 0.403922 0.572549
0.670588 0.411765 0.560784
0.764706 0.423529 0.549020
0.866667 0.447059 0.549020
0.964706 0.462745 0.552941
1.000000 0.470588 0.556863
0.188235 0.537255 0.560784
0.274510 0.537255 0.568627
0.396078 0.541176 0.572549
0.525490 0.537255 0.556863
0.647059 0.545098 0.556863
0.745098 0.537255 0.560784
0.850980 0.541176 0.564706
0.952941 0.541176 0.560784
1.000000 0.541176 0.556863
0.270588 0.654902 0.556863
0.325490 0.654902 0.560784
0.427451 0.654902 0.560784
0.525490 0.650980 0.560784
0.635294 0.647059 0.572549
0.745098 0.643137 0.576471
0.843137 0.643137 0.568627
0.949020 0.643137 0.564706
1.000000 0.639216 0.556863
0.352941 0.752941 0.556863
0.403922 0.752941 0.572549
0.454902 0.752941 0.572549
0.541176 0.749020 0.568627
0.627451 0.749020 0.576471
0.733333 0.745098 0.576471
0.831373 0.741176 0.568627
0.945098 0.737255 0.572549
1.000000 0.733333 0.568627
0.392157 0.843137 0.572549
0.419608 0.847059 0.580392
0.470588 0.843137 0.576471
0.533333 0.847059 0.576471
0.627451 0.850980 0.580392
0.721569 0.843137 0.576471
0.823529 0.847059 0.572549
0.949020 0.843137 0.572549
1.000000 0.835294 0.588235
0.423529 0.952941 0.580392
0.435294 0.949020 0.580392
0.478431 0.952941 0.588235
0.552941 0.949020 0.580392
0.627451 0.945098 0.584314
0.713725 0.945098 0.584314
0.811765 0.945098 0.576471
0.921569 0.941176 0.580392
0.992157 0.937255 0.588235
0.443137 1.000000 0.600000
0.466667 0.996078 0.592157
0.505882 0.996078 0.588235
0.556863 1.000000 0.592157
0.627451 1.000000 0.592157
0.713725 1.000000 0.588235
0.800000 1.000000 0.588235
0.894118 1.000000 0.588235
0.980392 1.000000 0.596078
0.062745 0.062745 0.682353
0.192157 0.090196 0.690196
0.349020 0.125490 0.686275
0.498039 0.160784 0.682353
0.647059 0.200000 0.686275
0.788235 0.235294 0.686275
0.886275 0.282353 0.650980
0.972549 0.333333 0.643137
1.000000 0.376471 0.639216
0.160784 0.239216 0.682353
0.235294 0.247059 0.690196
0.372549 0.258824 0.690196
0.509804 0.266667 0.686275
0.647059 0.286275 0.682353
0.776471 0.309804 0.678431
0.874510 0.341176 0.662745
0.968627 0.376471 0.647059
1.000000 0.400000 0.635294
0.231373 0.396078 0.678431
0.286275 0.400000 0.666667
0.380392 0.407843 0.682353
0.521569 0.403922 0.678431
0.635294 0.411765 0.678431
0.756863 0.427451 0.662745
0.862745 0.443137 0.654902
0.960784 0.458824 0.650980
1.000000 0.478431 0.647059
0.270588 0.525490 0.674510
0.329412 0.521569 0.678431
0.419608 0.529412 0.674510
0.521569 0.537255 0.674510
0.631373 0.537255 0.662745
0.741176 0.541176 0.662745
0.843137 0.552941 0.658824
0.941176 0.549020 0.658824
1.000000 0.560784 0.654902
0.313725 0.647059 0.666667
0.356863 0.650980 0.670588
0.439216 0.647059 0.670588
0.533333 0.647059 0.670588
0.635294 0.647059 0.666667
0.737255 0.647059 0.670588
0.839216 0.647059 0.662745
0.941176 0.647059 0.666667
1.000000 0.647059 0.674510
0.376471 0.749020 0.662745
0.403922 0.749020 0.662745
0.458824 0.745098 0.666667
0.541176 0.741176 0.666667
0.635294 0.741176 0.666667
0.737255 0.741176 0.670588
0.831373 0.745098 0.662745
0.941176 0.741176 0.666667
0.992157 0.749020 0.666667
0.400000 0.843137 0.662745
0.427451 0.843137 0.662745
0.478431 0.843137 0.666667
0.545098 0.843137 0.662745
0.631373 0.850980 0.666667
0.721569 0.847059 0.662745
0.827451 0.839216 0.662745
0.941176 0.835294 0.666667
1.000000 0.843137 0.670588
0.415686 0.941176 0.654902
0.443137 0.941176 0.662745
0.498039 0.945098 0.662745
0.564706 0.945098 0.666667
0.631373 0.945098 0.666667
0.729412 0.945098 0.678431
0.823529 0.941176 0.658824
0.917647 0.941176 0.658824
1.000000 0.941176 0.670588
0.474510 0.996078 0.670588
0.490196 1.000000 0.662745
0.529412 0.996078 0.666667
0.580392 1.000000 0.670588
0.639216 1.000000 0.666667
0.725490 0.996078 0.670588
0.807843 1.000000 0.670588
0.901961 1.000000 0.670588
0.988235 1.000000 0.674510
0.121569 0.125490 0.784314
0.203922 0.137255 0.788235
0.341176 0.160784 0.780392
0.478431 0.192157 0.784314
0.611765 0.231373 0.784314
0.745098 0.258824 0.776471
0.866667 0.298039 0.772549
0.968627 0.341176 0.756863
1.000000 0.372549 0.749020
0.184314 0.254902 0.780392
0.250980 0.262745 0.784314
0.356863 0.266667 0.776471
0.486275 0.282353 0.776471
0.607843 0.294118 0.768627
0.741176 0.321569 0.776471
0.854902 0.345098 0.760784
0.964706 0.372549 0.752941
1.000000 0.411765 0.760784
0.266667 0.403922 0.772549
0.321569 0.403922 0.768627
0.396078 0.407843 0.772549
0.501961 0.411765 0.768627
0.619608 0.423529 0.772549
0.737255 0.431373 0.768627
0.847059 0.443137 0.768627
0.952941 0.462745 0.760784
0.996078 0.482353 0.749020
0.317647 0.521569 0.756863
0.356863 0.529412 0.776471
0.439216 0.533333 0.768627
0.529412 0.537255 0.768627
0.631373 0.537255 0.764706
0.729412 0.545098 0.760784
0.831373 0.545098 0.760784
0.937255 0.549020 0.760784
1.000000 0.552941 0.752941
0.356863 0.635294 0.760784
0.388235 0.635294 0.764706
0.462745 0.639216 0.768627
0.545098 0.643137 0.764706
0.627451 0.647059 0.764706
0.725490 0.643137 0.764706
0.835294 0.643137 0.760784
0.945098 0.647059 0.764706
0.996078 0.643137 0.752941
0.400000 0.745098 0.760784
0.423529 0.737255 0.764706
0.474510 0.745098 0.772549
0.549020 0.741176 0.768627
0.635294 0.741176 0.768627
0.729412 0.741176 0.760784
0.827451 0.741176 0.752941
0.941176 0.745098 0.756863
0.988235 0.752941 0.760784
0.407843 0.835294 0.752941
0.427451 0.843137 0.752941
0.478431 0.843137 0.768627
0.545098 0.839216 0.756863
0.631373 0.839216 0.760784
0.725490 0.839216 0.752941
0.823529 0.843137 0.756863
0.937255 0.839216 0.760784
1.000000 0.839216 0.760784
0.411765 0.949020 0.768627
0.435294 0.952941 0.756863
0.482353 0.945098 0.749020
0.552941 0.941176 0.756863
0.639216 0.941176 0.760784
0.733333 0.941176 0.760784
0.827451 0.941176 0.760784
0.925490 0.937255 0.760784
1.000000 0.933333 0.752941
0.466667 1.000000 0.749020
0.478431 1.000000 0.745098
0.525490 0.996078 0.745098
0.596078 1.000000 0.764706
0.666667 0.996078 0.760784
0.745098 1.000000 0.764706
0.823529 1.000000 0.760784
0.901961 0.996078 0.760784
0.984314 1.000000 0.768627
0.168627 0.168627 0.882353
0.231373 0.180392 0.878431
0.341176 0.196078 0.882353
0.466667 0.227451 0.878431
0.584314 0.254902 0.874510
0.713725 0.286275 0.878431
0.827451 0.313725 0.862745
0.952941 0.349020 0.874510
0.992157 0.380392 0.862745
0.207843 0.266667 0.874510
0.274510 0.270588 0.870588
0.364706 0.286275 0.878431
0.470588 0.298039 0.874510
0.588235 0.317647 0.874510
0.717647 0.341176 0.874510
0.827451 0.360784 0.862745
0.945098 0.380392 0.862745
1.000000 0.415686 0.858824
0.301961 0.403922 0.870588
0.329412 0.415686 0.882353
0.403922 0.415686 0.874510
0.490196 0.415686 0.870588
0.603922 0.431373 0.874510
0.717647 0.435294 0.866667
0.823529 0.447059 0.866667
0.945098 0.466667 0.862745
0.996078 0.482353 0.858824
0.376471 0.533333 0.874510
0.396078 0.533333 0.862745
0.454902 0.533333 0.870588
0.529412 0.537255 0.862745
0.619608 0.545098 0.866667
0.721569 0.549020 0.858824
0.827451 0.549020 0.854902
0.933333 0.552941 0.862745
1.000000 0.552941 0.854902
0.407843 0.627451 0.858824
0.419608 0.635294 0.858824
0.478431 0.639216 0.858824
0.556863 0.643137 0.866667
0.631373 0.639216 0.862745
0.721569 0.639216 0.858824
0.827451 0.643137 0.858824
0.929412 0.643137 0.858824
0.996078 0.647059 0.866667
0.415686 0.733333 0.850980
0.439216 0.737255 0.862745
0.482353 0.733333 0.870588
0.556863 0.737255 0.866667
0.635294 0.741176 0.858824
0.721569 0.741176 0.858824
0.831373 0.741176 0.854902
0.937255 0.737255 0.858824
1.000000 0.741176 0.850980
0.423529 0.835294 0.847059
0.435294 0.839216 0.866667
0.486275 0.835294 0.858824
0.549020 0.835294 0.858824
0.639216 0.839216 0.854902
0.729412 0.839216 0.854902
0.823529 0.835294 0.854902
0.933333 0.835294 0.850980
0.992157 0.850980 0.866667
0.403922 0.945098 0.854902
0.443137 0.941176 0.858824
0.478431 0.941176 0.847059
0.549020 0.941176 0.847059
0.631373 0.941176 0.858824
0.729412 0.941176 0.850980
0.827451 0.937255 0.850980
0.925490 0.937255 0.862745
1.000000 0.937255 0.866667
0.466667 1.000000 0.850980
0.490196 1.000000 0.839216
0.525490 1.000000 0.839216
0.588235 1.000000 0.839216
0.666667 1.000000 0.847059
0.764706 1.000000 0.850980
0.850980 0.996078 0.862745
0.917647 1.000000 0.862745
0.992157 1.000000 0.854902
0.203922 0.203922 0.972549
0.258824 0.211765 0.972549
0.349020 0.227451 0.972549
0.458824 0.247059 0.976471
0.576471 0.274510 0.972549
0.694118 0.305882 0.968627
0.811765 0.333333 0.964706
0.925490 0.364706 0.968627
1.000000 0.396078 0.968627
0.243137 0.290196 0.972549
0.282353 0.290196 0.968627
0.368627 0.298039 0.972549
0.466667 0.313725 0.968627
0.584314 0.329412 0.972549
0.694118 0.352941 0.968627
0.803922 0.372549 0.956863
0.921569 0.400000 0.952941
1.000000 0.419608 0.952941
0.313725 0.411765 0.968627
0.345098 0.415686 0.980392
0.415686 0.419608 0.976471
0.494118 0.423529 0.964706
0.596078 0.431373 0.964706
0.705882 0.443137 0.960784
0.811765 0.462745 0.964706
0.913725 0.478431 0.952941
1.000000 0.482353 0.949020
0.380392 0.529412 0.949020
0.419608 0.529412 0.960784
0.458824 0.541176 0.960784
0.533333 0.545098 0.964706
0.619608 0.545098 0.964706
0.709804 0.541176 0.952941
0.815686 0.552941 0.956863
0.913725 0.552941 0.949020
1.000000 0.552941 0.956863
0.423529 0.639216 0.960784
0.447059 0.639216 0.949020
0.498039 0.643137 0.960784
0.556863 0.639216 0.949020
0.635294 0.639216 0.952941
0.725490 0.639216 0.960784
0.819608 0.643137 0.960784
0.921569 0.643137 0.956863
1.000000 0.639216 0.952941
0.447059 0.729412 0.956863
0.462745 0.733333 0.956863
0.509804 0.729412 0.960784
0.568627 0.733333 0.960784
0.639216 0.737255 0.956863
0.733333 0.745098 0.960784
0.819608 0.741176 0.949020
0.925490 0.741176 0.952941
1.000000 0.737255 0.968627
0.443137 0.831373 0.952941
0.454902 0.835294 0.960784
0.509804 0.823529 0.952941
0.568627 0.827451 0.952941
0.643137 0.835294 0.952941
0.729412 0.835294 0.949020
0.827451 0.843137 0.956863
0.917647 0.839216 0.945098
0.996078 0.839216 0.945098
0.450980 0.933333 0.960784
0.474510 0.937255 0.945098
0.509804 0.933333 0.945098
0.576471 0.933333 0.945098
0.650980 0.929412 0.945098
0.741176 0.933333 0.952941
0.835294 0.933333 0.949020
0.933333 0.937255 0.945098
1.000000 0.941176 0.952941
0.482353 1.000000 0.945098
0.498039 1.000000 0.949020
0.537255 1.000000 0.945098
0.600000 1.000000 0.949020
0.670588 1.000000 0.941176
0.760784 1.000000 0.941176
0.858824 1.000000 0.945098
0.949020 1.000000 0.960784
0.996078 1.000000 0.960784
0.247059 0.243137 0.996078
0.274510 0.247059 1.000000
0.356863 0.258824 0.996078
0.450980 0.278431 1.000000
0.560784 0.298039 0.996078
0.670588 0.325490 1.000000
0.780392 0.356863 1.000000
0.894118 0.380392 1.000000
1.000000 0.419608 1.000000
0.270588 0.309804 1.000000
0.305882 0.313725 0.992157
0.372549 0.317647 1.000000
0.474510 0.333333 1.000000
0.572549 0.349020 1.000000
0.670588 0.364706 1.000000
0.784314 0.388235 1.000000
0.886275 0.415686 1.000000
0.996078 0.439216 1.000000
0.345098 0.411765 1.000000
0.372549 0.419608 1.000000
0.415686 0.423529 1.000000
0.490196 0.431373 1.000000
0.588235 0.443137 1.000000
0.690196 0.450980 0.996078
0.792157 0.462745 1.000000
0.898039 0.482353 1.000000
1.000000 0.498039 1.000000
0.411765 0.537255 1.000000
0.431373 0.533333 1.000000
0.478431 0.537255 1.000000
0.533333 0.537255 1.000000
0.615686 0.541176 0.996078
0.698039 0.545098 0.996078
0.796078 0.549020 0.996078
0.901961 0.556863 1.000000
0.996078 0.564706 1.000000
0.470588 0.643137 0.992157
0.478431 0.639216 1.000000
0.509804 0.639216 1.000000
0.564706 0.639216 1.000000
0.635294 0.639216 0.992157
0.713725 0.639216 1.000000
0.803922 0.647059 0.996078
0.901961 0.647059 1.000000
0.992157 0.654902 0.996078
0.494118 0.733333 0.996078
0.505882 0.729412 1.000000
0.545098 0.729412 0.996078
0.600000 0.737255 1.000000
0.658824 0.741176 1.000000
0.737255 0.741176 1.000000
0.819608 0.737255 0.992157
0.909804 0.745098 1.000000
0.988235 0.745098 1.000000
0.501961 0.819608 1.000000
0.521569 0.819608 1.000000
0.556863 0.815686 1.000000
0.607843 0.819608 1.000000
0.678431 0.823529 1.000000
0.756863 0.831373 0.996078
0.831373 0.839216 1.000000
0.913725 0.843137 0.992157
1.000000 0.850980 1.000000
0.513725 0.925490 1.000000
0.529412 0.917647 1.000000
0.564706 0.921569 0.996078
0.615686 0.921569 1.000000
0.686275 0.933333 1.000000
0.768627 0.933333 0.996078
0.858824 0.933333 0.992157
0.941176 0.949020 1.000000
0.988235 0.956863 1.000000
0.537255 1.000000 1.000000
0.556863 0.996078 1.000000
0.584314 1.000000 1.000000
0.631373 1.000000 0.996078
0.705882 1.000000 1.000000
0.788235 1.000000 1.000000
0.890196 1.000000 0.996078
0.976471 0.996078 1.000000
1.000000 0.996078 1.000000
