loleis/其他/lut20种/Sports LUT #17.cube
TITLE "Sports LUT #17"
#LUT size
LUT_3D_SIZE 25
#LUT data points
0.000000 0.000000 0.000000
0.047059 0.000000 0.000000
0.113725 0.003922 0.000000
0.172549 0.000000 0.000000
0.239216 0.000000 0.000000
0.298039 0.000000 0.000000
0.352941 0.000000 0.000000
0.403922 0.000000 0.003922
0.447059 0.000000 0.000000
0.494118 0.000000 0.003922
0.545098 0.003922 0.000000
0.596078 0.000000 0.000000
0.643137 0.000000 0.000000
0.690196 0.000000 0.000000
0.741176 0.000000 0.000000
0.784314 0.000000 0.000000
0.835294 0.003922 0.000000
0.874510 0.000000 0.000000
0.913725 0.000000 0.000000
0.949020 0.000000 0.000000
0.980392 0.000000 0.007843
1.000000 0.000000 0.015686
1.000000 0.000000 0.031373
1.000000 0.003922 0.047059
1.000000 0.000000 0.062745
0.000000 0.035294 0.000000
0.066667 0.039216 0.000000
0.129412 0.031373 0.003922
0.172549 0.039216 0.003922
0.247059 0.019608 0.003922
0.298039 0.019608 0.000000
0.352941 0.007843 0.003922
0.403922 0.003922 0.000000
0.450980 0.003922 0.003922
0.494118 0.000000 0.003922
0.541176 0.000000 0.000000
0.588235 0.000000 0.000000
0.635294 0.000000 0.000000
0.690196 0.000000 0.000000
0.741176 0.003922 0.000000
0.792157 0.000000 0.000000
0.831373 0.000000 0.000000
0.870588 0.000000 0.000000
0.909804 0.000000 0.000000
0.952941 0.003922 0.000000
0.984314 0.003922 0.011765
1.000000 0.000000 0.023529
1.000000 0.000000 0.031373
0.992157 0.015686 0.047059
0.996078 0.027451 0.058824
0.015686 0.090196 0.003922
0.078431 0.094118 0.000000
0.137255 0.094118 0.007843
0.196078 0.086275 0.003922
0.235294 0.094118 0.000000
0.305882 0.082353 0.007843
0.349020 0.082353 0.000000
0.396078 0.078431 0.000000
0.450980 0.078431 0.000000
0.494118 0.074510 0.000000
0.541176 0.066667 0.000000
0.592157 0.058824 0.000000
0.639216 0.062745 0.000000
0.686275 0.058824 0.000000
0.733333 0.054902 0.000000
0.780392 0.050980 0.000000
0.827451 0.050980 0.000000
0.862745 0.047059 0.000000
0.901961 0.050980 0.000000
0.945098 0.058824 0.003922
0.972549 0.062745 0.007843
1.000000 0.058824 0.015686
1.000000 0.070588 0.031373
0.996078 0.086275 0.039216
0.992157 0.086275 0.054902
0.047059 0.149020 0.000000
0.090196 0.149020 0.000000
0.145098 0.145098 0.000000
0.200000 0.145098 0.007843
0.247059 0.145098 0.000000
0.309804 0.141176 0.003922
0.349020 0.145098 0.000000
0.396078 0.137255 0.000000
0.443137 0.137255 0.000000
0.494118 0.129412 0.000000
0.541176 0.129412 0.003922
0.592157 0.133333 0.003922
0.635294 0.129412 0.003922
0.690196 0.129412 0.000000
0.729412 0.129412 0.003922
0.780392 0.125490 0.000000
0.827451 0.125490 0.000000
0.866667 0.125490 0.000000
0.901961 0.121569 0.000000
0.941176 0.129412 0.007843
0.976471 0.121569 0.011765
0.992157 0.125490 0.011765
1.000000 0.133333 0.031373
1.000000 0.137255 0.043137
1.000000 0.141176 0.054902
0.066667 0.203922 0.000000
0.109804 0.203922 0.007843
0.160784 0.200000 0.000000
0.203922 0.203922 0.007843
0.262745 0.200000 0.000000
0.309804 0.200000 0.003922
0.352941 0.196078 0.000000
0.396078 0.192157 0.000000
0.443137 0.192157 0.003922
0.494118 0.196078 0.003922
0.537255 0.192157 0.003922
0.584314 0.192157 0.000000
0.635294 0.196078 0.000000
0.682353 0.192157 0.003922
0.729412 0.188235 0.003922
0.776471 0.184314 0.000000
0.819608 0.184314 0.000000
0.858824 0.184314 0.000000
0.898039 0.184314 0.000000
0.937255 0.184314 0.007843
0.972549 0.176471 0.015686
0.996078 0.176471 0.015686
1.000000 0.180392 0.027451
0.996078 0.180392 0.039216
1.000000 0.184314 0.054902
0.086275 0.262745 0.000000
0.125490 0.262745 0.003922
0.164706 0.262745 0.003922
0.215686 0.262745 0.003922
0.266667 0.262745 0.007843
0.313725 0.258824 0.003922
0.356863 0.258824 0.000000
0.411765 0.254902 0.011765
0.454902 0.254902 0.007843
0.494118 0.254902 0.007843
0.549020 0.254902 0.000000
0.600000 0.254902 0.003922
0.647059 0.258824 0.003922
0.694118 0.254902 0.003922
0.741176 0.250980 0.000000
0.788235 0.247059 0.003922
0.831373 0.250980 0.000000
0.870588 0.243137 0.000000
0.909804 0.243137 0.003922
0.949020 0.239216 0.015686
0.984314 0.235294 0.019608
1.000000 0.235294 0.031373
1.000000 0.235294 0.047059
1.000000 0.235294 0.062745
0.992157 0.243137 0.078431
0.101961 0.309804 0.000000
0.125490 0.317647 0.000000
0.164706 0.317647 0.000000
0.223529 0.313725 0.000000
0.262745 0.313725 0.000000
0.305882 0.309804 0.000000
0.356863 0.313725 0.000000
0.411765 0.309804 0.007843
0.450980 0.309804 0.003922
0.498039 0.305882 0.003922
0.545098 0.301961 0.000000
0.592157 0.305882 0.003922
0.643137 0.305882 0.003922
0.698039 0.305882 0.007843
0.741176 0.301961 0.003922
0.780392 0.301961 0.000000
0.819608 0.301961 0.007843
0.862745 0.301961 0.003922
0.909804 0.298039 0.007843
0.952941 0.290196 0.019608
0.988235 0.294118 0.031373
0.996078 0.290196 0.043137
0.992157 0.286275 0.047059
1.000000 0.282353 0.062745
1.000000 0.290196 0.082353
0.117647 0.356863 0.000000
0.145098 0.368627 0.000000
0.168627 0.360784 0.000000
0.215686 0.368627 0.003922
0.266667 0.356863 0.000000
0.301961 0.368627 0.000000
0.356863 0.360784 0.000000
0.403922 0.360784 0.007843
0.454902 0.364706 0.000000
0.501961 0.364706 0.003922
0.545098 0.360784 0.000000
0.596078 0.364706 0.003922
0.639216 0.360784 0.000000
0.686275 0.360784 0.000000
0.741176 0.356863 0.000000
0.784314 0.352941 0.003922
0.827451 0.352941 0.003922
0.862745 0.345098 0.011765
0.901961 0.345098 0.023529
0.941176 0.341176 0.027451
0.976471 0.337255 0.043137
1.000000 0.333333 0.050980
1.000000 0.329412 0.062745
1.000000 0.329412 0.070588
1.000000 0.337255 0.094118
0.113725 0.407843 0.003922
0.141176 0.419608 0.003922
0.176471 0.415686 0.007843
0.223529 0.415686 0.000000
0.258824 0.423529 0.000000
0.305882 0.419608 0.003922
0.352941 0.419608 0.003922
0.403922 0.415686 0.000000
0.447059 0.415686 0.000000
0.498039 0.415686 0.000000
0.545098 0.415686 0.000000
0.596078 0.411765 0.000000
0.643137 0.415686 0.000000
0.694118 0.407843 0.000000
0.745098 0.407843 0.003922
0.784314 0.407843 0.003922
0.819608 0.403922 0.003922
0.858824 0.396078 0.011765
0.894118 0.392157 0.011765
0.933333 0.388235 0.023529
0.968627 0.384314 0.023529
0.996078 0.384314 0.050980
1.000000 0.380392 0.058824
1.000000 0.376471 0.078431
0.988235 0.372549 0.070588
0.121569 0.466667 0.000000
0.152941 0.470588 0.000000
0.180392 0.466667 0.003922
0.215686 0.470588 0.007843
0.250980 0.478431 0.003922
0.298039 0.478431 0.000000
0.349020 0.470588 0.000000
0.396078 0.474510 0.000000
0.450980 0.470588 0.000000
0.494118 0.470588 0.000000
0.545098 0.466667 0.000000
0.592157 0.466667 0.000000
0.647059 0.462745 0.000000
0.686275 0.466667 0.000000
0.733333 0.454902 0.000000
0.772549 0.454902 0.000000
0.815686 0.447059 0.003922
0.854902 0.443137 0.015686
0.894118 0.443137 0.027451
0.933333 0.439216 0.039216
0.972549 0.431373 0.043137
1.000000 0.427451 0.050980
1.000000 0.423529 0.054902
1.000000 0.419608 0.066667
1.000000 0.419608 0.082353
0.121569 0.545098 0.003922
0.149020 0.545098 0.003922
0.180392 0.545098 0.000000
0.219608 0.545098 0.000000
0.262745 0.541176 0.000000
0.301961 0.541176 0.000000
0.356863 0.541176 0.000000
0.411765 0.545098 0.003922
0.458824 0.541176 0.003922
0.505882 0.537255 0.000000
0.549020 0.533333 0.000000
0.603922 0.533333 0.000000
0.654902 0.529412 0.000000
0.698039 0.525490 0.000000
0.745098 0.517647 0.000000
0.784314 0.509804 0.000000
0.823529 0.509804 0.019608
0.866667 0.501961 0.027451
0.901961 0.494118 0.043137
0.941176 0.490196 0.062745
0.976471 0.486275 0.070588
1.000000 0.486275 0.078431
1.000000 0.482353 0.086275
0.996078 0.478431 0.086275
1.000000 0.462745 0.113725
0.129412 0.576471 0.000000
0.137255 0.584314 0.003922
0.176471 0.592157 0.003922
0.211765 0.588235 0.003922
0.258824 0.584314 0.000000
0.298039 0.588235 0.003922
0.356863 0.588235 0.000000
0.396078 0.588235 0.000000
0.443137 0.584314 0.000000
0.494118 0.584314 0.000000
0.549020 0.588235 0.003922
0.603922 0.588235 0.003922
0.647059 0.580392 0.000000
0.698039 0.572549 0.000000
0.741176 0.564706 0.000000
0.780392 0.560784 0.000000
0.819608 0.556863 0.003922
0.854902 0.549020 0.023529
0.894118 0.545098 0.050980
0.929412 0.537255 0.066667
0.968627 0.533333 0.078431
0.992157 0.533333 0.086275
1.000000 0.529412 0.090196
0.996078 0.513725 0.105882
0.996078 0.521569 0.113725
0.105882 0.635294 0.000000
0.121569 0.627451 0.000000
0.180392 0.627451 0.007843
0.207843 0.631373 0.000000
0.247059 0.631373 0.000000
0.290196 0.635294 0.000000
0.337255 0.631373 0.000000
0.388235 0.631373 0.000000
0.435294 0.631373 0.000000
0.486275 0.627451 0.000000
0.537255 0.623529 0.000000
0.584314 0.623529 0.007843
0.639216 0.619608 0.007843
0.682353 0.619608 0.003922
0.733333 0.615686 0.000000
0.776471 0.607843 0.000000
0.811765 0.600000 0.003922
0.847059 0.596078 0.011765
0.886275 0.592157 0.031373
0.925490 0.588235 0.050980
0.960784 0.580392 0.070588
0.996078 0.572549 0.086275
0.992157 0.564706 0.090196
1.000000 0.560784 0.109804
1.000000 0.556863 0.109804
0.105882 0.670588 0.000000
0.129412 0.662745 0.000000
0.172549 0.674510 0.003922
0.203922 0.674510 0.000000
0.247059 0.670588 0.000000
0.290196 0.666667 0.000000
0.337255 0.674510 0.011765
0.388235 0.670588 0.003922
0.435294 0.666667 0.000000
0.482353 0.670588 0.003922
0.525490 0.666667 0.000000
0.576471 0.662745 0.000000
0.627451 0.662745 0.000000
0.674510 0.666667 0.000000
0.717647 0.662745 0.007843
0.760784 0.654902 0.000000
0.800000 0.647059 0.000000
0.847059 0.643137 0.011765
0.882353 0.635294 0.035294
0.921569 0.631373 0.054902
0.952941 0.619608 0.062745
0.992157 0.611765 0.090196
1.000000 0.611765 0.101961
0.996078 0.607843 0.109804
0.992157 0.603922 0.133333
0.098039 0.705882 0.000000
0.125490 0.709804 0.003922
0.164706 0.713725 0.000000
0.203922 0.713725 0.000000
0.243137 0.709804 0.003922
0.286275 0.709804 0.000000
0.333333 0.705882 0.000000
0.376471 0.709804 0.000000
0.419608 0.709804 0.000000
0.470588 0.709804 0.000000
0.517647 0.705882 0.000000
0.568627 0.705882 0.000000
0.611765 0.701961 0.000000
0.658824 0.701961 0.000000
0.705882 0.701961 0.000000
0.749020 0.701961 0.000000
0.800000 0.694118 0.000000
0.835294 0.686275 0.015686
0.878431 0.674510 0.031373
0.909804 0.666667 0.035294
0.941176 0.662745 0.066667
0.976471 0.654902 0.074510
1.000000 0.647059 0.094118
1.000000 0.639216 0.101961
1.000000 0.635294 0.117647
0.117647 0.768627 0.031373
0.141176 0.768627 0.031373
0.168627 0.768627 0.027451
0.207843 0.768627 0.031373
0.247059 0.768627 0.035294
0.294118 0.764706 0.035294
0.337255 0.764706 0.023529
0.388235 0.756863 0.031373
0.431373 0.764706 0.023529
0.470588 0.764706 0.027451
0.521569 0.756863 0.027451
0.564706 0.756863 0.023529
0.615686 0.756863 0.035294
0.658824 0.752941 0.031373
0.709804 0.745098 0.035294
0.752941 0.745098 0.043137
0.807843 0.745098 0.035294
0.843137 0.737255 0.035294
0.882353 0.733333 0.054902
0.917647 0.729412 0.070588
0.960784 0.717647 0.086275
0.996078 0.709804 0.101961
1.000000 0.701961 0.121569
1.000000 0.690196 0.137255
1.000000 0.690196 0.145098
0.109804 0.796078 0.047059
0.145098 0.788235 0.039216
0.172549 0.800000 0.039216
0.211765 0.800000 0.043137
0.250980 0.796078 0.047059
0.286275 0.800000 0.054902
0.325490 0.800000 0.050980
0.372549 0.800000 0.054902
0.419608 0.796078 0.058824
0.470588 0.792157 0.054902
0.509804 0.792157 0.054902
0.560784 0.792157 0.054902
0.607843 0.788235 0.054902
0.650980 0.788235 0.050980
0.701961 0.788235 0.058824
0.733333 0.788235 0.066667
0.780392 0.780392 0.058824
0.831373 0.776471 0.054902
0.878431 0.772549 0.070588
0.909804 0.768627 0.078431
0.949020 0.760784 0.086275
0.992157 0.749020 0.109804
1.000000 0.741176 0.129412
0.996078 0.741176 0.145098
0.996078 0.733333 0.149020
0.121569 0.827451 0.062745
0.152941 0.835294 0.074510
0.172549 0.827451 0.074510
0.215686 0.831373 0.074510
0.254902 0.831373 0.078431
0.290196 0.827451 0.074510
0.329412 0.827451 0.078431
0.376471 0.827451 0.078431
0.415686 0.827451 0.078431
0.462745 0.827451 0.074510
0.505882 0.823529 0.074510
0.552941 0.823529 0.074510
0.600000 0.823529 0.066667
0.643137 0.819608 0.070588
0.682353 0.819608 0.082353
0.729412 0.815686 0.082353
0.776471 0.819608 0.082353
0.815686 0.815686 0.086275
0.858824 0.811765 0.090196
0.905882 0.807843 0.098039
0.945098 0.800000 0.105882
0.976471 0.796078 0.113725
0.996078 0.784314 0.125490
1.000000 0.776471 0.149020
1.000000 0.768627 0.156863
0.133333 0.862745 0.086275
0.160784 0.866667 0.098039
0.176471 0.858824 0.098039
0.215686 0.866667 0.098039
0.250980 0.862745 0.090196
0.290196 0.862745 0.098039
0.329412 0.862745 0.094118
0.368627 0.862745 0.094118
0.407843 0.862745 0.098039
0.458824 0.862745 0.098039
0.498039 0.862745 0.101961
0.537255 0.854902 0.098039
0.580392 0.854902 0.094118
0.635294 0.850980 0.105882
0.674510 0.850980 0.101961
0.725490 0.854902 0.105882
0.760784 0.850980 0.098039
0.803922 0.847059 0.094118
0.843137 0.839216 0.098039
0.894118 0.839216 0.105882
0.933333 0.839216 0.109804
0.968627 0.835294 0.117647
0.992157 0.827451 0.121569
1.000000 0.815686 0.141176
1.000000 0.803922 0.160784
0.164706 0.898039 0.109804
0.172549 0.898039 0.121569
0.188235 0.894118 0.125490
0.223529 0.894118 0.109804
0.258824 0.894118 0.113725
0.294118 0.890196 0.117647
0.337255 0.894118 0.117647
0.376471 0.894118 0.121569
0.415686 0.894118 0.129412
0.454902 0.894118 0.125490
0.498039 0.890196 0.121569
0.533333 0.886275 0.125490
0.572549 0.894118 0.117647
0.611765 0.886275 0.121569
0.658824 0.886275 0.117647
0.701961 0.882353 0.121569
0.749020 0.878431 0.121569
0.796078 0.878431 0.121569
0.839216 0.874510 0.125490
0.874510 0.874510 0.121569
0.909804 0.870588 0.113725
0.964706 0.866667 0.129412
0.988235 0.866667 0.137255
1.000000 0.854902 0.152941
1.000000 0.847059 0.160784
0.192157 0.941176 0.180392
0.211765 0.941176 0.176471
0.231373 0.937255 0.172549
0.250980 0.933333 0.172549
0.286275 0.937255 0.176471
0.309804 0.937255 0.176471
0.341176 0.937255 0.168627
0.380392 0.933333 0.176471
0.419608 0.929412 0.160784
0.458824 0.929412 0.168627
0.505882 0.925490 0.172549
0.537255 0.929412 0.168627
0.576471 0.929412 0.168627
0.615686 0.929412 0.164706
0.662745 0.925490 0.164706
0.705882 0.925490 0.160784
0.745098 0.925490 0.164706
0.784314 0.921569 0.172549
0.827451 0.913725 0.172549
0.866667 0.913725 0.176471
0.917647 0.913725 0.176471
0.964706 0.909804 0.176471
0.988235 0.909804 0.184314
0.996078 0.909804 0.196078
0.996078 0.898039 0.192157
0.200000 0.952941 0.180392
0.215686 0.968627 0.188235
0.239216 0.952941 0.180392
0.262745 0.960784 0.184314
0.282353 0.964706 0.196078
0.309804 0.952941 0.188235
0.349020 0.956863 0.203922
0.380392 0.960784 0.192157
0.423529 0.956863 0.196078
0.466667 0.960784 0.196078
0.501961 0.964706 0.196078
0.537255 0.960784 0.188235
0.576471 0.960784 0.188235
0.611765 0.956863 0.180392
0.654902 0.952941 0.184314
0.705882 0.952941 0.196078
0.741176 0.949020 0.188235
0.780392 0.941176 0.188235
0.819608 0.949020 0.200000
0.858824 0.949020 0.196078
0.901961 0.945098 0.192157
0.945098 0.941176 0.200000
0.980392 0.941176 0.211765
1.000000 0.929412 0.211765
0.996078 0.933333 0.215686
0.227451 0.980392 0.207843
0.239216 0.988235 0.203922
0.262745 0.988235 0.211765
0.274510 0.988235 0.215686
0.294118 0.992157 0.207843
0.329412 0.988235 0.215686
0.349020 0.984314 0.211765
0.380392 0.988235 0.211765
0.419608 0.988235 0.207843
0.454902 0.988235 0.211765
0.490196 0.984314 0.215686
0.529412 0.984314 0.219608
0.568627 0.984314 0.215686
0.611765 0.976471 0.211765
0.639216 0.984314 0.215686
0.682353 0.980392 0.211765
0.733333 0.976471 0.211765
0.768627 0.968627 0.211765
0.811765 0.968627 0.211765
0.854902 0.972549 0.219608
0.890196 0.972549 0.223529
0.921569 0.968627 0.239216
0.960784 0.964706 0.219608
1.000000 0.960784 0.239216
1.000000 0.964706 0.247059
0.243137 0.996078 0.223529
0.254902 1.000000 0.223529
0.274510 1.000000 0.231373
0.294118 1.000000 0.235294
0.313725 0.996078 0.235294
0.329412 1.000000 0.243137
0.364706 1.000000 0.235294
0.392157 0.996078 0.227451
0.427451 1.000000 0.235294
0.458824 0.996078 0.235294
0.490196 1.000000 0.239216
0.529412 1.000000 0.239216
0.568627 1.000000 0.243137
0.603922 1.000000 0.231373
0.639216 1.000000 0.235294
0.678431 0.996078 0.239216
0.717647 1.000000 0.235294
0.756863 0.996078 0.243137
0.796078 0.996078 0.239216
0.835294 0.996078 0.243137
0.870588 0.992157 0.239216
0.913725 0.988235 0.250980
0.949020 0.984314 0.250980
0.984314 0.988235 0.243137
1.000000 0.988235 0.262745
0.270588 1.000000 0.235294
0.278431 0.996078 0.266667
0.294118 1.000000 0.266667
0.313725 0.996078 0.278431
0.321569 1.000000 0.262745
0.352941 1.000000 0.262745
0.384314 0.996078 0.262745
0.407843 0.996078 0.266667
0.431373 1.000000 0.258824
0.458824 1.000000 0.262745
0.498039 1.000000 0.262745
0.529412 1.000000 0.262745
0.564706 0.996078 0.262745
0.603922 0.996078 0.266667
0.639216 0.992157 0.262745
0.678431 1.000000 0.262745
0.713725 0.996078 0.262745
0.749020 1.000000 0.266667
0.784314 0.996078 0.266667
0.819608 1.000000 0.270588
0.858824 1.000000 0.270588
0.898039 1.000000 0.266667
0.937255 0.992157 0.270588
0.960784 1.000000 0.282353
0.996078 1.000000 0.286275
0.007843 0.000000 0.047059
0.054902 0.000000 0.050980
0.109804 0.000000 0.054902
0.172549 0.000000 0.050980
0.239216 0.000000 0.058824
0.301961 0.003922 0.054902
0.356863 0.003922 0.050980
0.407843 0.000000 0.050980
0.450980 0.003922 0.043137
0.494118 0.000000 0.047059
0.541176 0.000000 0.050980
0.588235 0.000000 0.047059
0.643137 0.000000 0.050980
0.690196 0.000000 0.043137
0.745098 0.000000 0.047059
0.788235 0.000000 0.043137
0.831373 0.000000 0.054902
0.870588 0.000000 0.058824
0.909804 0.000000 0.054902
0.949020 0.007843 0.058824
0.984314 0.000000 0.058824
1.000000 0.000000 0.062745
1.000000 0.000000 0.082353
1.000000 0.000000 0.094118
1.000000 0.000000 0.101961
0.000000 0.039216 0.043137
0.062745 0.039216 0.054902
0.133333 0.035294 0.058824
0.180392 0.027451 0.047059
0.239216 0.023529 0.047059
0.301961 0.019608 0.035294
0.352941 0.000000 0.039216
0.400000 0.003922 0.035294
0.447059 0.000000 0.039216
0.498039 0.000000 0.043137
0.537255 0.000000 0.039216
0.592157 0.000000 0.047059
0.643137 0.000000 0.050980
0.690196 0.000000 0.050980
0.737255 0.000000 0.054902
0.784314 0.000000 0.050980
0.827451 0.003922 0.054902
0.870588 0.000000 0.058824
0.909804 0.000000 0.062745
0.945098 0.000000 0.062745
0.976471 0.003922 0.074510
0.996078 0.003922 0.082353
0.996078 0.003922 0.082353
1.000000 0.015686 0.090196
0.992157 0.043137 0.105882
0.003922 0.098039 0.043137
0.078431 0.094118 0.039216
0.129412 0.098039 0.047059
0.184314 0.090196 0.050980
0.239216 0.090196 0.047059
0.294118 0.078431 0.058824
0.360784 0.074510 0.047059
0.400000 0.074510 0.043137
0.450980 0.070588 0.043137
0.494118 0.066667 0.047059
0.545098 0.062745 0.043137
0.588235 0.058824 0.043137
0.639216 0.054902 0.039216
0.690196 0.054902 0.047059
0.733333 0.043137 0.043137
0.784314 0.047059 0.050980
0.827451 0.050980 0.054902
0.866667 0.047059 0.058824
0.909804 0.054902 0.058824
0.941176 0.054902 0.058824
0.976471 0.066667 0.066667
1.000000 0.062745 0.074510
1.000000 0.070588 0.090196
0.992157 0.078431 0.090196
0.996078 0.082353 0.098039
0.031373 0.149020 0.047059
0.090196 0.145098 0.043137
0.145098 0.145098 0.043137
0.196078 0.149020 0.047059
0.243137 0.149020 0.039216
0.317647 0.141176 0.050980
0.352941 0.141176 0.047059
0.396078 0.137255 0.043137
0.439216 0.133333 0.043137
0.490196 0.129412 0.047059
0.541176 0.129412 0.047059
0.588235 0.129412 0.050980
0.635294 0.129412 0.047059
0.690196 0.121569 0.039216
0.737255 0.121569 0.047059
0.788235 0.125490 0.050980
0.827451 0.125490 0.047059
0.862745 0.121569 0.047059
0.894118 0.121569 0.054902
0.937255 0.125490 0.062745
0.972549 0.125490 0.066667
0.996078 0.129412 0.066667
1.000000 0.125490 0.078431
1.000000 0.137255 0.090196
1.000000 0.141176 0.094118
0.050980 0.200000 0.039216
0.098039 0.203922 0.035294
0.145098 0.203922 0.035294
0.196078 0.200000 0.043137
0.258824 0.200000 0.039216
0.301961 0.203922 0.047059
0.352941 0.200000 0.047059
0.392157 0.200000 0.043137
0.443137 0.192157 0.050980
0.490196 0.192157 0.050980
0.541176 0.188235 0.050980
0.588235 0.184314 0.047059
0.639216 0.192157 0.047059
0.686275 0.188235 0.050980
0.729412 0.188235 0.047059
0.768627 0.188235 0.047059
0.811765 0.184314 0.050980
0.850980 0.184314 0.047059
0.890196 0.184314 0.054902
0.929412 0.184314 0.058824
0.964706 0.176471 0.066667
0.996078 0.180392 0.070588
0.996078 0.180392 0.070588
1.000000 0.176471 0.078431
1.000000 0.180392 0.090196
0.074510 0.258824 0.043137
0.117647 0.262745 0.050980
0.168627 0.266667 0.050980
0.211765 0.262745 0.043137
0.262745 0.258824 0.039216
0.313725 0.254902 0.039216
0.368627 0.250980 0.039216
0.415686 0.254902 0.043137
0.450980 0.254902 0.047059
0.494118 0.254902 0.043137
0.549020 0.250980 0.047059
0.592157 0.250980 0.043137
0.643137 0.250980 0.047059
0.690196 0.254902 0.047059
0.741176 0.254902 0.050980
0.784314 0.250980 0.054902
0.827451 0.250980 0.050980
0.870588 0.239216 0.058824
0.909804 0.239216 0.066667
0.945098 0.235294 0.066667
0.984314 0.231373 0.078431
1.000000 0.235294 0.078431
1.000000 0.239216 0.090196
1.000000 0.239216 0.101961
1.000000 0.243137 0.105882
0.094118 0.313725 0.035294
0.129412 0.313725 0.047059
0.180392 0.305882 0.043137
0.219608 0.309804 0.043137
0.262745 0.305882 0.039216
0.305882 0.309804 0.035294
0.356863 0.305882 0.039216
0.400000 0.309804 0.043137
0.443137 0.305882 0.039216
0.498039 0.305882 0.043137
0.541176 0.309804 0.050980
0.596078 0.305882 0.050980
0.643137 0.309804 0.054902
0.690196 0.305882 0.050980
0.737255 0.305882 0.058824
0.792157 0.298039 0.058824
0.827451 0.301961 0.054902
0.866667 0.301961 0.062745
0.901961 0.298039 0.062745
0.945098 0.294118 0.066667
0.980392 0.286275 0.074510
1.000000 0.286275 0.090196
1.000000 0.286275 0.101961
0.996078 0.286275 0.101961
1.000000 0.278431 0.105882
0.109804 0.364706 0.050980
0.133333 0.360784 0.031373
0.172549 0.356863 0.039216
0.219608 0.368627 0.043137
0.262745 0.360784 0.031373
0.309804 0.360784 0.039216
0.352941 0.360784 0.031373
0.403922 0.360784 0.039216
0.450980 0.364706 0.039216
0.498039 0.360784 0.039216
0.545098 0.360784 0.047059
0.592157 0.360784 0.047059
0.639216 0.360784 0.047059
0.686275 0.360784 0.054902
0.733333 0.356863 0.054902
0.776471 0.352941 0.058824
0.823529 0.349020 0.062745
0.862745 0.349020 0.066667
0.901961 0.341176 0.074510
0.941176 0.341176 0.074510
0.972549 0.341176 0.074510
1.000000 0.337255 0.082353
1.000000 0.325490 0.090196
0.992157 0.333333 0.090196
1.000000 0.333333 0.105882
0.109804 0.411765 0.035294
0.141176 0.415686 0.031373
0.180392 0.415686 0.031373
0.223529 0.407843 0.031373
0.258824 0.423529 0.039216
0.301961 0.419608 0.035294
0.349020 0.415686 0.039216
0.396078 0.419608 0.035294
0.443137 0.419608 0.035294
0.494118 0.415686 0.035294
0.541176 0.411765 0.031373
0.592157 0.411765 0.035294
0.643137 0.415686 0.035294
0.690196 0.411765 0.050980
0.729412 0.411765 0.062745
0.772549 0.403922 0.062745
0.807843 0.400000 0.066667
0.850980 0.396078 0.070588
0.886275 0.388235 0.070588
0.933333 0.384314 0.074510
0.968627 0.380392 0.078431
1.000000 0.376471 0.078431
1.000000 0.372549 0.090196
1.000000 0.380392 0.101961
0.996078 0.372549 0.105882
0.121569 0.466667 0.035294
0.152941 0.466667 0.031373
0.180392 0.462745 0.023529
0.215686 0.466667 0.035294
0.258824 0.470588 0.031373
0.301961 0.474510 0.031373
0.349020 0.466667 0.027451
0.396078 0.466667 0.027451
0.443137 0.470588 0.031373
0.494118 0.470588 0.031373
0.545098 0.466667 0.027451
0.588235 0.470588 0.031373
0.639216 0.458824 0.019608
0.682353 0.462745 0.035294
0.725490 0.454902 0.050980
0.768627 0.454902 0.066667
0.811765 0.447059 0.074510
0.847059 0.443137 0.078431
0.882353 0.439216 0.078431
0.917647 0.431373 0.078431
0.968627 0.423529 0.090196
0.992157 0.427451 0.090196
1.000000 0.419608 0.090196
0.992157 0.419608 0.094118
1.000000 0.411765 0.101961
0.117647 0.537255 0.027451
0.145098 0.533333 0.027451
0.180392 0.537255 0.023529
0.219608 0.537255 0.023529
0.262745 0.541176 0.031373
0.301961 0.541176 0.031373
0.352941 0.537255 0.027451
0.400000 0.537255 0.035294
0.450980 0.533333 0.027451
0.494118 0.529412 0.023529
0.549020 0.529412 0.019608
