loleis/其他/lut20种/Sports LUT #14.cube
TITLE "Sports LUT #14"
#LUT size
LUT_3D_SIZE 9
#LUT data points
0.098039 0.101961 0.082353
0.211765 0.098039 0.082353
0.349020 0.101961 0.082353
0.505882 0.098039 0.086275
0.678431 0.094118 0.066667
0.827451 0.094118 0.066667
0.952941 0.105882 0.062745
1.000000 0.109804 0.066667
1.000000 0.133333 0.070588
0.105882 0.211765 0.074510
0.215686 0.203922 0.074510
0.341176 0.203922 0.078431
0.498039 0.207843 0.070588
0.662745 0.203922 0.066667
0.807843 0.203922 0.054902
0.929412 0.200000 0.050980
1.000000 0.196078 0.050980
0.996078 0.203922 0.054902
0.101961 0.341176 0.066667
0.215686 0.349020 0.050980
0.356863 0.349020 0.054902
0.505882 0.352941 0.050980
0.674510 0.360784 0.027451
0.819608 0.352941 0.023529
0.937255 0.337255 0.031373
1.000000 0.329412 0.047059
1.000000 0.317647 0.054902
0.082353 0.513725 0.000000
0.200000 0.513725 0.000000
0.352941 0.513725 0.003922
0.509804 0.517647 0.000000
0.666667 0.509804 0.000000
0.792157 0.486275 0.000000
0.909804 0.466667 0.000000
0.996078 0.447059 0.003922
1.000000 0.435294 0.023529
0.058824 0.678431 0.000000
0.211765 0.674510 0.000000
0.352941 0.674510 0.000000
0.501961 0.666667 0.000000
0.662745 0.658824 0.007843
0.800000 0.635294 0.000000
0.898039 0.603922 0.000000
1.000000 0.580392 0.000000
1.000000 0.560784 0.043137
0.125490 0.803922 0.000000
0.219608 0.803922 0.003922
0.352941 0.796078 0.000000
0.494118 0.784314 0.003922
0.635294 0.776471 0.000000
0.760784 0.768627 0.000000
0.894118 0.745098 0.003922
0.984314 0.709804 0.000000
1.000000 0.686275 0.066667
0.152941 0.866667 0.000000
0.243137 0.862745 0.000000
0.333333 0.866667 0.000000
0.462745 0.870588 0.003922
0.592157 0.854902 0.000000
0.717647 0.850980 0.000000
0.843137 0.839216 0.000000
0.964706 0.815686 0.003922
1.000000 0.792157 0.007843
0.235294 0.949020 0.027451
0.301961 0.952941 0.082353
0.380392 0.945098 0.086275
0.478431 0.949020 0.086275
0.580392 0.941176 0.074510
0.694118 0.945098 0.090196
0.807843 0.929412 0.078431
0.933333 0.929412 0.098039
1.000000 0.921569 0.156863
0.329412 1.000000 0.145098
0.368627 1.000000 0.188235
0.419608 1.000000 0.184314
0.494118 1.000000 0.192157
0.576471 1.000000 0.188235
0.690196 1.000000 0.196078
0.784314 1.000000 0.196078
0.894118 1.000000 0.219608
0.992157 0.996078 0.254902
0.113725 0.094118 0.180392
0.207843 0.101961 0.176471
0.345098 0.105882 0.168627
0.494118 0.090196 0.172549
0.666667 0.062745 0.156863
0.819608 0.062745 0.168627
0.933333 0.082353 0.156863
1.000000 0.101961 0.149020
0.992157 0.125490 0.152941
0.117647 0.200000 0.172549
0.211765 0.200000 0.172549
0.333333 0.200000 0.164706
0.490196 0.200000 0.164706
0.654902 0.196078 0.160784
0.800000 0.184314 0.156863
0.905882 0.184314 0.145098
1.000000 0.184314 0.137255
1.000000 0.192157 0.141176
0.098039 0.337255 0.172549
0.211765 0.341176 0.164706
0.349020 0.341176 0.149020
0.501961 0.345098 0.152941
0.666667 0.345098 0.149020
0.815686 0.337255 0.145098
0.917647 0.325490 0.141176
0.992157 0.317647 0.137255
1.000000 0.313725 0.137255
0.035294 0.486275 0.121569
0.196078 0.490196 0.125490
0.341176 0.498039 0.117647
0.494118 0.494118 0.109804
0.654902 0.490196 0.098039
0.784314 0.474510 0.113725
0.890196 0.458824 0.117647
0.992157 0.439216 0.117647
1.000000 0.423529 0.117647
0.011765 0.650980 0.050980
0.160784 0.658824 0.062745
0.337255 0.654902 0.050980
0.498039 0.650980 0.050980
0.650980 0.650980 0.039216
0.780392 0.623529 0.039216
0.890196 0.600000 0.086275
0.984314 0.580392 0.113725
0.996078 0.564706 0.129412
0.101961 0.784314 0.054902
0.200000 0.784314 0.047059
0.329412 0.780392 0.031373
0.478431 0.776471 0.039216
0.623529 0.764706 0.027451
0.756863 0.760784 0.019608
0.878431 0.733333 0.039216
0.980392 0.705882 0.086275
1.000000 0.690196 0.152941
0.149020 0.850980 0.015686
0.219608 0.862745 0.043137
0.333333 0.858824 0.043137
0.454902 0.854902 0.039216
0.584314 0.850980 0.031373
0.709804 0.843137 0.023529
0.835294 0.835294 0.011765
0.945098 0.815686 0.027451
0.992157 0.796078 0.109804
0.254902 0.945098 0.133333
0.298039 0.952941 0.152941
0.380392 0.949020 0.160784
0.478431 0.941176 0.156863
0.580392 0.937255 0.149020
0.694118 0.933333 0.149020
0.807843 0.933333 0.152941
0.929412 0.921569 0.152941
1.000000 0.917647 0.196078
0.317647 0.996078 0.196078
0.349020 1.000000 0.196078
0.415686 1.000000 0.203922
0.486275 1.000000 0.215686
0.576471 1.000000 0.215686
0.686275 1.000000 0.227451
0.780392 1.000000 0.235294
0.890196 0.996078 0.247059
0.996078 0.988235 0.286275
0.133333 0.094118 0.298039
0.215686 0.098039 0.294118
0.356863 0.094118 0.301961
0.501961 0.082353 0.301961
0.670588 0.023529 0.294118
0.831373 0.000000 0.301961
0.937255 0.043137 0.274510
1.000000 0.101961 0.262745
0.996078 0.152941 0.274510
0.109804 0.196078 0.290196
0.203922 0.188235 0.294118
0.345098 0.188235 0.294118
0.494118 0.188235 0.290196
0.662745 0.172549 0.290196
0.803922 0.156863 0.274510
0.913725 0.168627 0.270588
0.996078 0.184314 0.254902
0.996078 0.203922 0.258824
0.098039 0.333333 0.294118
0.203922 0.345098 0.298039
0.345098 0.337255 0.290196
0.505882 0.333333 0.282353
0.670588 0.333333 0.282353
0.807843 0.329412 0.286275
0.917647 0.313725 0.266667
0.996078 0.321569 0.266667
1.000000 0.321569 0.258824
0.000000 0.494118 0.270588
0.133333 0.501961 0.266667
0.325490 0.498039 0.266667
0.501961 0.494118 0.262745
0.654902 0.478431 0.247059
0.780392 0.466667 0.258824
0.894118 0.454902 0.258824
0.992157 0.439216 0.258824
1.000000 0.423529 0.250980
0.000000 0.658824 0.231373
0.141176 0.654902 0.247059
0.321569 0.658824 0.239216
0.486275 0.647059 0.239216
0.647059 0.639216 0.235294
0.784314 0.619608 0.235294
0.886275 0.596078 0.247059
0.992157 0.580392 0.254902
1.000000 0.564706 0.254902
0.133333 0.788235 0.243137
0.215686 0.784314 0.247059
0.341176 0.772549 0.243137
0.486275 0.772549 0.247059
0.623529 0.764706 0.239216
0.752941 0.752941 0.227451
0.882353 0.729412 0.223529
0.976471 0.705882 0.239216
0.996078 0.686275 0.274510
0.184314 0.850980 0.219608
0.247059 0.858824 0.227451
0.352941 0.854902 0.231373
0.470588 0.850980 0.227451
0.584314 0.847059 0.227451
0.713725 0.835294 0.223529
0.839216 0.827451 0.219608
0.960784 0.815686 0.227451
1.000000 0.800000 0.247059
0.290196 0.941176 0.274510
0.325490 0.941176 0.286275
0.400000 0.941176 0.270588
0.486275 0.941176 0.270588
0.592157 0.937255 0.270588
0.705882 0.925490 0.262745
0.800000 0.925490 0.262745
0.937255 0.917647 0.266667
1.000000 0.909804 0.290196
0.345098 1.000000 0.286275
0.380392 0.996078 0.294118
0.439216 1.000000 0.301961
0.501961 1.000000 0.301961
0.588235 1.000000 0.301961
0.690196 0.996078 0.313725
0.788235 1.000000 0.317647
0.894118 0.996078 0.325490
0.996078 0.988235 0.349020
0.168627 0.094118 0.447059
0.243137 0.090196 0.447059
0.368627 0.082353 0.443137
0.521569 0.047059 0.450980
0.678431 0.000000 0.450980
0.827451 0.000000 0.443137
0.933333 0.027451 0.403922
0.992157 0.133333 0.400000
1.000000 0.219608 0.403922
0.133333 0.188235 0.443137
0.231373 0.192157 0.439216
0.356863 0.180392 0.443137
0.513725 0.160784 0.435294
0.666667 0.149020 0.435294
0.807843 0.145098 0.415686
0.913725 0.172549 0.400000
1.000000 0.211765 0.392157
0.996078 0.270588 0.396078
0.074510 0.329412 0.439216
0.192157 0.329412 0.454902
0.345098 0.325490 0.450980
0.529412 0.317647 0.443137
0.686275 0.321569 0.435294
0.807843 0.321569 0.415686
0.909804 0.341176 0.407843
1.000000 0.360784 0.403922
0.988235 0.372549 0.407843
0.000000 0.505882 0.435294
0.156863 0.505882 0.427451
0.333333 0.501961 0.427451
0.509804 0.486275 0.423529
0.647059 0.486275 0.407843
0.764706 0.478431 0.403922
0.886275 0.466667 0.396078
0.980392 0.458824 0.384314
1.000000 0.450980 0.384314
0.003922 0.654902 0.411765
0.164706 0.647059 0.400000
0.341176 0.654902 0.407843
0.505882 0.647059 0.403922
0.647059 0.639216 0.400000
0.776471 0.615686 0.396078
0.878431 0.603922 0.400000
0.980392 0.588235 0.392157
1.000000 0.584314 0.396078
0.231373 0.780392 0.403922
0.301961 0.776471 0.411765
0.396078 0.776471 0.411765
0.505882 0.768627 0.396078
0.643137 0.764706 0.400000
0.756863 0.752941 0.388235
0.874510 0.729412 0.384314
0.972549 0.709804 0.392157
1.000000 0.701961 0.407843
0.266667 0.850980 0.388235
0.317647 0.858824 0.384314
0.392157 0.854902 0.384314
0.494118 0.850980 0.384314
0.603922 0.843137 0.376471
0.721569 0.835294 0.368627
0.843137 0.831373 0.372549
0.949020 0.819608 0.364706
1.000000 0.800000 0.380392
0.356863 0.937255 0.396078
0.380392 0.941176 0.388235
0.443137 0.937255 0.403922
0.521569 0.941176 0.400000
0.607843 0.929412 0.396078
0.705882 0.925490 0.388235
0.815686 0.925490 0.392157
0.937255 0.921569 0.396078
1.000000 0.913725 0.396078
0.400000 1.000000 0.400000
0.435294 1.000000 0.396078
0.478431 1.000000 0.407843
0.545098 1.000000 0.415686
0.619608 0.996078 0.403922
0.709804 1.000000 0.415686
0.807843 0.996078 0.423529
0.905882 1.000000 0.427451
0.988235 0.992157 0.443137
0.203922 0.082353 0.588235
0.262745 0.082353 0.572549
0.388235 0.070588 0.576471
0.521569 0.031373 0.580392
0.678431 0.000000 0.588235
0.815686 0.003922 0.568627
0.925490 0.007843 0.537255
1.000000 0.117647 0.517647
1.000000 0.207843 0.498039
0.172549 0.172549 0.564706
0.250980 0.180392 0.568627
0.368627 0.168627 0.572549
0.505882 0.156863 0.572549
0.658824 0.137255 0.564706
0.800000 0.117647 0.552941
0.909804 0.149020 0.525490
0.996078 0.188235 0.509804
0.996078 0.250980 0.494118
0.098039 0.313725 0.568627
0.219608 0.309804 0.576471
0.360784 0.313725 0.572549
0.509804 0.309804 0.580392
0.666667 0.301961 0.576471
0.811765 0.305882 0.556863
0.905882 0.325490 0.529412
0.996078 0.349020 0.513725
0.992157 0.388235 0.521569
0.058824 0.478431 0.556863
0.188235 0.482353 0.564706
0.345098 0.470588 0.560784
0.494118 0.474510 0.560784
0.650980 0.462745 0.549020
0.776471 0.470588 0.533333
0.882353 0.474510 0.517647
0.976471 0.478431 0.513725
1.000000 0.486275 0.505882
0.078431 0.643137 0.537255
0.207843 0.647059 0.560784
0.364706 0.647059 0.552941
0.509804 0.635294 0.545098
0.650980 0.631373 0.545098
0.760784 0.623529 0.537255
0.874510 0.615686 0.529412
0.968627 0.615686 0.521569
0.996078 0.603922 0.509804
0.274510 0.776471 0.545098
0.321569 0.776471 0.537255
0.415686 0.764706 0.537255
0.529412 0.760784 0.541176
0.647059 0.756863 0.529412
0.764706 0.745098 0.525490
0.874510 0.737255 0.525490
0.960784 0.717647 0.517647
0.996078 0.721569 0.521569
0.321569 0.847059 0.505882
0.372549 0.850980 0.509804
0.443137 0.850980 0.509804
0.533333 0.847059 0.513725
0.627451 0.843137 0.513725
0.737255 0.839216 0.498039
0.847059 0.827451 0.498039
0.941176 0.815686 0.490196
1.000000 0.803922 0.505882
0.415686 0.933333 0.505882
0.447059 0.941176 0.521569
0.498039 0.937255 0.513725
0.556863 0.933333 0.509804
0.643137 0.929412 0.509804
0.725490 0.933333 0.509804
0.823529 0.925490 0.498039
0.941176 0.913725 0.498039
1.000000 0.909804 0.505882
0.470588 0.996078 0.505882
0.486275 1.000000 0.509804
0.529412 1.000000 0.513725
0.584314 1.000000 0.521569
0.643137 0.996078 0.509804
0.725490 0.992157 0.509804
0.815686 0.996078 0.517647
0.917647 0.992157 0.529412
1.000000 0.996078 0.541176
0.227451 0.086275 0.674510
0.282353 0.086275 0.678431
0.384314 0.074510 0.674510
0.505882 0.043137 0.678431
0.639216 0.007843 0.666667
0.784314 0.000000 0.670588
0.913725 0.000000 0.670588
0.992157 0.062745 0.627451
1.000000 0.180392 0.600000
0.200000 0.176471 0.662745
0.274510 0.168627 0.674510
0.368627 0.164706 0.662745
0.501961 0.149020 0.666667
0.627451 0.141176 0.666667
0.772549 0.117647 0.662745
0.890196 0.117647 0.635294
1.000000 0.156863 0.615686
0.988235 0.223529 0.592157
0.172549 0.301961 0.682353
0.250980 0.301961 0.678431
0.360784 0.301961 0.674510
0.490196 0.298039 0.658824
0.631373 0.298039 0.666667
0.772549 0.286275 0.654902
0.901961 0.294118 0.650980
0.988235 0.329412 0.623529
0.988235 0.360784 0.603922
0.164706 0.439216 0.643137
0.235294 0.439216 0.662745
0.356863 0.447059 0.658824
0.486275 0.447059 0.650980
0.619608 0.447059 0.639216
0.764706 0.439216 0.643137
0.878431 0.447059 0.631373
0.968627 0.458824 0.607843
0.996078 0.466667 0.592157
0.196078 0.588235 0.650980
0.266667 0.603922 0.654902
0.384314 0.607843 0.650980
0.501961 0.607843 0.643137
0.639216 0.600000 0.635294
0.756863 0.600000 0.635294
0.866667 0.603922 0.631373
0.964706 0.611765 0.619608
1.000000 0.615686 0.607843
0.290196 0.752941 0.650980
0.329412 0.749020 0.647059
0.419608 0.749020 0.647059
0.529412 0.741176 0.639216
0.643137 0.737255 0.635294
0.749020 0.725490 0.623529
0.858824 0.725490 0.619608
0.945098 0.721569 0.615686
1.000000 0.721569 0.603922
0.329412 0.835294 0.611765
0.364706 0.843137 0.603922
0.431373 0.839216 0.607843
0.533333 0.835294 0.615686
0.639216 0.839216 0.615686
0.737255 0.827451 0.607843
0.847059 0.819608 0.603922
0.941176 0.811765 0.603922
1.000000 0.815686 0.623529
0.411765 0.929412 0.603922
0.454902 0.933333 0.600000
0.513725 0.925490 0.596078
0.576471 0.925490 0.603922
0.658824 0.929412 0.611765
0.745098 0.921569 0.603922
0.831373 0.921569 0.607843
0.937255 0.913725 0.607843
1.000000 0.917647 0.607843
0.498039 1.000000 0.600000
0.533333 1.000000 0.607843
0.568627 1.000000 0.611765
0.623529 1.000000 0.615686
0.682353 0.996078 0.615686
0.756863 0.992157 0.607843
0.831373 0.996078 0.611765
0.917647 0.996078 0.615686
0.996078 0.992157 0.631373
0.262745 0.090196 0.760784
0.305882 0.086275 0.760784
0.388235 0.082353 0.764706
0.498039 0.066667 0.760784
0.619608 0.039216 0.760784
0.741176 0.011765 0.752941
0.870588 0.007843 0.745098
1.000000 0.011765 0.737255
1.000000 0.156863 0.725490
0.243137 0.172549 0.752941
0.294118 0.164706 0.749020
0.380392 0.160784 0.760784
0.486275 0.152941 0.752941
0.603922 0.149020 0.749020
0.741176 0.137255 0.749020
0.858824 0.133333 0.733333
0.996078 0.133333 0.729412
0.992157 0.211765 0.701961
0.239216 0.286275 0.756863
0.270588 0.290196 0.760784
0.372549 0.290196 0.749020
0.482353 0.290196 0.752941
0.607843 0.290196 0.752941
0.745098 0.286275 0.737255
0.870588 0.294118 0.745098
0.992157 0.301961 0.725490
1.000000 0.352941 0.713725
0.239216 0.431373 0.741176
0.282353 0.427451 0.741176
0.380392 0.431373 0.741176
0.486275 0.435294 0.745098
0.611765 0.427451 0.733333
0.737255 0.439216 0.733333
0.854902 0.431373 0.725490
0.972549 0.439216 0.721569
1.000000 0.458824 0.694118
0.278431 0.572549 0.737255
0.321569 0.576471 0.741176
0.407843 0.580392 0.733333
0.513725 0.584314 0.733333
0.619608 0.588235 0.733333
0.741176 0.584314 0.721569
0.862745 0.580392 0.729412
0.964706 0.584314 0.713725
1.000000 0.596078 0.701961
0.341176 0.713725 0.729412
0.376471 0.721569 0.737255
0.443137 0.713725 0.733333
0.541176 0.717647 0.737255
0.643137 0.713725 0.721569
0.749020 0.713725 0.717647
0.850980 0.709804 0.709804
0.956863 0.713725 0.717647
0.992157 0.721569 0.694118
0.345098 0.827451 0.717647
0.384314 0.827451 0.717647
0.454902 0.823529 0.717647
0.541176 0.827451 0.713725
0.639216 0.819608 0.709804
0.745098 0.819608 0.701961
0.843137 0.815686 0.701961
0.937255 0.815686 0.701961
1.000000 0.831373 0.694118
0.431373 0.925490 0.686275
0.466667 0.917647 0.701961
0.498039 0.921569 0.694118
0.580392 0.913725 0.682353
0.666667 0.921569 0.701961
0.756863 0.917647 0.698039
0.854902 0.913725 0.698039
0.937255 0.917647 0.701961
1.000000 0.917647 0.709804
0.529412 1.000000 0.690196
0.545098 1.000000 0.682353
0.588235 0.996078 0.686275
0.639216 0.996078 0.686275
0.705882 0.996078 0.701961
0.784314 0.996078 0.701961
0.854902 0.996078 0.705882
0.941176 0.992157 0.717647
1.000000 0.988235 0.717647
0.290196 0.090196 0.831373
0.325490 0.094118 0.839216
0.392157 0.090196 0.835294
0.486275 0.082353 0.831373
0.596078 0.070588 0.827451
0.709804 0.066667 0.823529
0.835294 0.070588 0.815686
0.956863 0.094118 0.815686
0.996078 0.141176 0.815686
0.270588 0.160784 0.827451
0.309804 0.160784 0.831373
0.384314 0.156863 0.831373
0.482353 0.160784 0.827451
0.588235 0.160784 0.831373
0.705882 0.156863 0.819608
0.831373 0.160784 0.815686
0.949020 0.160784 0.811765
1.000000 0.184314 0.823529
0.282353 0.274510 0.835294
0.313725 0.286275 0.835294
0.392157 0.286275 0.831373
0.478431 0.290196 0.823529
0.592157 0.286275 0.819608
0.713725 0.290196 0.819608
0.835294 0.298039 0.815686
0.956863 0.309804 0.811765
0.996078 0.329412 0.811765
0.278431 0.411765 0.803922
0.329412 0.423529 0.815686
0.400000 0.419608 0.819608
0.490196 0.419608 0.819608
0.600000 0.423529 0.819608
0.705882 0.423529 0.811765
0.823529 0.427451 0.803922
0.941176 0.427451 0.803922
1.000000 0.435294 0.800000
0.329412 0.552941 0.815686
0.368627 0.564706 0.803922
0.443137 0.564706 0.815686
0.525490 0.568627 0.811765
0.615686 0.572549 0.807843
0.721569 0.564706 0.807843
0.835294 0.568627 0.807843
0.945098 0.572549 0.800000
1.000000 0.580392 0.792157
0.388235 0.690196 0.807843
0.415686 0.686275 0.807843
0.470588 0.686275 0.803922
0.552941 0.690196 0.800000
0.643137 0.698039 0.803922
0.741176 0.701961 0.800000
0.839216 0.701961 0.796078
0.937255 0.701961 0.800000
0.992157 0.701961 0.792157
0.403922 0.796078 0.788235
0.431373 0.800000 0.796078
0.486275 0.800000 0.796078
0.560784 0.803922 0.792157
0.650980 0.803922 0.792157
0.749020 0.807843 0.788235
0.843137 0.815686 0.792157
0.933333 0.811765 0.792157
1.000000 0.819608 0.796078
0.474510 0.909804 0.784314
0.490196 0.917647 0.792157
0.537255 0.909804 0.792157
0.607843 0.909804 0.784314
0.674510 0.913725 0.784314
0.768627 0.913725 0.784314
0.850980 0.909804 0.780392
0.941176 0.917647 0.784314
0.996078 0.921569 0.792157
0.560784 1.000000 0.768627
0.588235 0.996078 0.788235
0.615686 1.000000 0.776471
0.662745 0.996078 0.772549
0.729412 0.992157 0.780392
0.807843 0.992157 0.780392
0.878431 0.988235 0.788235
0.952941 0.992157 0.788235
1.000000 0.996078 0.803922
0.309804 0.101961 0.894118
0.341176 0.101961 0.894118
0.392157 0.101961 0.890196
0.478431 0.098039 0.894118
0.580392 0.090196 0.894118
0.690196 0.090196 0.890196
0.796078 0.098039 0.882353
0.909804 0.121569 0.882353
1.000000 0.180392 0.886275
0.298039 0.164706 0.882353
0.321569 0.164706 0.886275
0.396078 0.160784 0.890196
0.474510 0.160784 0.886275
0.576471 0.160784 0.890196
0.682353 0.156863 0.882353
0.792157 0.168627 0.878431
0.913725 0.180392 0.874510
1.000000 0.215686 0.866667
0.309804 0.270588 0.886275
0.333333 0.278431 0.894118
0.400000 0.278431 0.890196
0.478431 0.278431 0.878431
0.576471 0.282353 0.882353
0.686275 0.282353 0.882353
0.796078 0.294118 0.878431
0.909804 0.305882 0.878431
0.996078 0.337255 0.882353
0.317647 0.400000 0.890196
0.352941 0.396078 0.882353
0.403922 0.403922 0.882353
0.482353 0.403922 0.878431
0.584314 0.403922 0.882353
0.682353 0.403922 0.874510
0.796078 0.415686 0.870588
0.909804 0.419608 0.878431
1.000000 0.443137 0.874510
0.376471 0.541176 0.870588
0.419608 0.545098 0.886275
0.454902 0.552941 0.874510
0.525490 0.552941 0.870588
0.607843 0.549020 0.866667
0.705882 0.552941 0.870588
0.807843 0.552941 0.866667
0.913725 0.568627 0.874510
1.000000 0.584314 0.874510
0.431373 0.666667 0.870588
0.462745 0.670588 0.874510
0.505882 0.674510 0.874510
0.576471 0.678431 0.870588
0.654902 0.686275 0.870588
0.737255 0.686275 0.858824
0.827451 0.686275 0.858824
0.925490 0.694118 0.866667
0.992157 0.705882 0.874510
0.474510 0.776471 0.854902
0.494118 0.776471 0.862745
0.537255 0.784314 0.854902
0.596078 0.788235 0.854902
0.670588 0.792157 0.862745
0.760784 0.796078 0.854902
0.847059 0.803922 0.858824
0.937255 0.811765 0.854902
1.000000 0.819608 0.862745
0.533333 0.890196 0.854902
0.556863 0.894118 0.858824
0.592157 0.894118 0.854902
0.647059 0.894118 0.858824
0.717647 0.898039 0.854902
0.796078 0.905882 0.858824
0.866667 0.909804 0.847059
0.952941 0.917647 0.850980
1.000000 0.925490 0.850980
0.619608 0.988235 0.854902
0.631373 0.992157 0.847059
0.670588 0.988235 0.858824
0.713725 0.996078 0.850980
0.768627 0.992157 0.862745
0.835294 0.992157 0.854902
0.909804 0.996078 0.847059
0.980392 0.996078 0.858824
0.996078 0.996078 0.847059
