loleis/其他/lut20种/Sports LUT #20.cube
TITLE "Sports LUT #20"
#LUT size
LUT_3D_SIZE 25
#LUT data points
0.105882 0.101961 0.094118
0.137255 0.098039 0.094118
0.164706 0.101961 0.101961
0.203922 0.101961 0.098039
0.239216 0.098039 0.098039
0.286275 0.098039 0.098039
0.329412 0.101961 0.098039
0.368627 0.094118 0.094118
0.411765 0.094118 0.090196
0.466667 0.090196 0.094118
0.521569 0.090196 0.086275
0.580392 0.086275 0.090196
0.643137 0.086275 0.082353
0.694118 0.082353 0.086275
0.749020 0.082353 0.082353
0.796078 0.074510 0.074510
0.847059 0.070588 0.074510
0.894118 0.078431 0.078431
0.925490 0.082353 0.074510
0.960784 0.082353 0.074510
0.996078 0.086275 0.070588
1.000000 0.090196 0.062745
1.000000 0.094118 0.062745
0.996078 0.101961 0.066667
1.000000 0.113725 0.058824
0.113725 0.125490 0.098039
0.141176 0.121569 0.105882
0.164706 0.133333 0.090196
0.200000 0.129412 0.113725
0.239216 0.117647 0.098039
0.274510 0.125490 0.090196
0.321569 0.125490 0.098039
0.368627 0.121569 0.094118
0.415686 0.121569 0.098039
0.470588 0.121569 0.090196
0.525490 0.121569 0.094118
0.584314 0.117647 0.094118
0.635294 0.113725 0.086275
0.690196 0.113725 0.082353
0.745098 0.109804 0.090196
0.796078 0.113725 0.078431
0.843137 0.109804 0.074510
0.890196 0.113725 0.078431
0.929412 0.113725 0.074510
0.968627 0.113725 0.074510
0.996078 0.117647 0.070588
1.000000 0.113725 0.058824
1.000000 0.117647 0.062745
0.996078 0.121569 0.050980
1.000000 0.133333 0.058824
0.113725 0.156863 0.101961
0.133333 0.160784 0.098039
0.164706 0.152941 0.094118
0.192157 0.156863 0.098039
0.243137 0.152941 0.098039
0.278431 0.152941 0.094118
0.317647 0.145098 0.094118
0.364706 0.145098 0.094118
0.411765 0.145098 0.094118
0.462745 0.152941 0.094118
0.517647 0.152941 0.094118
0.580392 0.149020 0.090196
0.631373 0.149020 0.086275
0.686275 0.149020 0.086275
0.741176 0.149020 0.074510
0.788235 0.149020 0.074510
0.835294 0.149020 0.074510
0.878431 0.145098 0.070588
0.917647 0.145098 0.070588
0.956863 0.149020 0.066667
0.992157 0.145098 0.062745
1.000000 0.145098 0.066667
0.996078 0.149020 0.050980
1.000000 0.152941 0.054902
1.000000 0.152941 0.062745
0.109804 0.196078 0.105882
0.137255 0.184314 0.098039
0.168627 0.192157 0.090196
0.203922 0.188235 0.090196
0.231373 0.192157 0.094118
0.274510 0.188235 0.094118
0.317647 0.192157 0.094118
0.364706 0.188235 0.098039
0.407843 0.188235 0.098039
0.462745 0.184314 0.098039
0.517647 0.188235 0.094118
0.580392 0.188235 0.086275
0.623529 0.188235 0.082353
0.690196 0.188235 0.082353
0.737255 0.188235 0.082353
0.788235 0.184314 0.074510
0.835294 0.188235 0.070588
0.882353 0.184314 0.066667
0.917647 0.184314 0.062745
0.960784 0.188235 0.062745
0.996078 0.184314 0.062745
0.996078 0.184314 0.058824
1.000000 0.180392 0.062745
1.000000 0.188235 0.054902
1.000000 0.188235 0.066667
0.109804 0.227451 0.086275
0.141176 0.223529 0.101961
0.160784 0.223529 0.082353
0.200000 0.223529 0.090196
0.239216 0.219608 0.094118
0.278431 0.219608 0.090196
0.317647 0.223529 0.090196
0.364706 0.223529 0.090196
0.415686 0.223529 0.094118
0.466667 0.231373 0.090196
0.517647 0.227451 0.090196
0.564706 0.227451 0.090196
0.635294 0.231373 0.070588
0.686275 0.231373 0.078431
0.737255 0.231373 0.074510
0.788235 0.235294 0.066667
0.831373 0.231373 0.066667
0.870588 0.231373 0.062745
0.913725 0.227451 0.058824
0.952941 0.223529 0.062745
0.992157 0.227451 0.054902
1.000000 0.219608 0.054902
1.000000 0.223529 0.047059
1.000000 0.219608 0.054902
1.000000 0.219608 0.054902
0.117647 0.270588 0.086275
0.141176 0.270588 0.094118
0.176471 0.266667 0.094118
0.203922 0.270588 0.094118
0.243137 0.266667 0.094118
0.282353 0.270588 0.101961
0.329412 0.270588 0.101961
0.376471 0.270588 0.101961
0.423529 0.274510 0.090196
0.474510 0.274510 0.090196
0.529412 0.278431 0.090196
0.588235 0.286275 0.082353
0.650980 0.282353 0.078431
0.705882 0.286275 0.066667
0.760784 0.286275 0.070588
0.803922 0.282353 0.058824
0.843137 0.282353 0.054902
0.886275 0.278431 0.058824
0.925490 0.270588 0.054902
0.964706 0.270588 0.058824
1.000000 0.270588 0.054902
1.000000 0.266667 0.039216
0.996078 0.274510 0.039216
0.992157 0.274510 0.039216
1.000000 0.266667 0.050980
0.121569 0.305882 0.094118
0.149020 0.309804 0.082353
0.168627 0.317647 0.094118
0.207843 0.305882 0.090196
0.239216 0.317647 0.086275
0.286275 0.317647 0.086275
0.321569 0.313725 0.090196
0.376471 0.317647 0.094118
0.419608 0.317647 0.094118
0.474510 0.317647 0.078431
0.533333 0.321569 0.078431
0.596078 0.325490 0.070588
0.654902 0.329412 0.070588
0.709804 0.329412 0.058824
0.756863 0.329412 0.058824
0.807843 0.325490 0.050980
0.843137 0.329412 0.047059
0.882353 0.329412 0.047059
0.917647 0.325490 0.047059
0.960784 0.317647 0.039216
0.996078 0.317647 0.047059
0.996078 0.313725 0.035294
0.996078 0.313725 0.043137
0.996078 0.313725 0.043137
1.000000 0.313725 0.039216
0.121569 0.360784 0.090196
0.152941 0.360784 0.078431
0.176471 0.364706 0.074510
0.219608 0.368627 0.082353
0.243137 0.360784 0.070588
0.294118 0.352941 0.082353
0.337255 0.360784 0.086275
0.380392 0.364706 0.078431
0.435294 0.364706 0.074510
0.486275 0.372549 0.074510
0.537255 0.368627 0.062745
0.592157 0.376471 0.054902
0.643137 0.376471 0.050980
0.694118 0.376471 0.054902
0.749020 0.380392 0.039216
0.792157 0.376471 0.039216
0.843137 0.372549 0.035294
0.882353 0.364706 0.031373
0.921569 0.364706 0.035294
0.952941 0.364706 0.031373
0.992157 0.356863 0.023529
1.000000 0.360784 0.027451
0.996078 0.360784 0.035294
1.000000 0.349020 0.031373
1.000000 0.349020 0.031373
0.121569 0.411765 0.062745
0.156863 0.415686 0.074510
0.176471 0.411765 0.074510
0.207843 0.411765 0.078431
0.270588 0.407843 0.078431
0.298039 0.415686 0.070588
0.345098 0.419608 0.070588
0.396078 0.419608 0.066667
0.435294 0.415686 0.054902
0.490196 0.415686 0.047059
0.537255 0.419608 0.043137
0.592157 0.419608 0.031373
0.639216 0.423529 0.027451
0.698039 0.427451 0.023529
0.749020 0.427451 0.027451
0.788235 0.423529 0.019608
0.835294 0.419608 0.019608
0.874510 0.415686 0.011765
0.909804 0.407843 0.011765
0.949020 0.407843 0.011765
0.980392 0.400000 0.007843
1.000000 0.403922 0.015686
1.000000 0.396078 0.003922
1.000000 0.396078 0.003922
0.996078 0.392157 0.000000
0.129412 0.462745 0.054902
0.145098 0.462745 0.050980
0.184314 0.470588 0.050980
0.207843 0.466667 0.043137
0.247059 0.474510 0.043137
0.294118 0.474510 0.047059
0.349020 0.474510 0.039216
0.396078 0.474510 0.039216
0.447059 0.474510 0.035294
0.494118 0.470588 0.023529
0.545098 0.466667 0.015686
0.592157 0.470588 0.015686
0.650980 0.474510 0.007843
0.694118 0.474510 0.007843
0.741176 0.470588 0.003922
0.784314 0.466667 0.003922
0.827451 0.462745 0.000000
0.862745 0.458824 0.000000
0.905882 0.454902 0.000000
0.945098 0.454902 0.000000
0.980392 0.447059 0.007843
1.000000 0.443137 0.003922
1.000000 0.439216 0.000000
1.000000 0.435294 0.000000
0.996078 0.427451 0.000000
0.113725 0.556863 0.000000
0.145098 0.545098 0.003922
0.172549 0.552941 0.000000
0.223529 0.552941 0.003922
0.262745 0.549020 0.000000
0.317647 0.549020 0.000000
0.360784 0.552941 0.000000
0.415686 0.549020 0.003922
0.474510 0.549020 0.000000
0.517647 0.545098 0.003922
0.564706 0.541176 0.000000
0.611765 0.541176 0.000000
0.666667 0.541176 0.003922
0.717647 0.537255 0.007843
0.756863 0.529412 0.000000
0.796078 0.521569 0.000000
0.847059 0.521569 0.003922
0.878431 0.517647 0.000000
0.913725 0.513725 0.000000
0.949020 0.505882 0.000000
0.984314 0.501961 0.000000
1.000000 0.494118 0.000000
1.000000 0.490196 0.003922
1.000000 0.490196 0.019608
1.000000 0.482353 0.007843
0.109804 0.592157 0.000000
0.141176 0.596078 0.003922
0.180392 0.592157 0.000000
0.219608 0.596078 0.000000
0.274510 0.588235 0.011765
0.305882 0.600000 0.000000
0.368627 0.600000 0.003922
0.415686 0.592157 0.000000
0.454902 0.592157 0.000000
0.513725 0.592157 0.000000
0.560784 0.596078 0.003922
0.611765 0.588235 0.000000
0.654902 0.588235 0.000000
0.705882 0.584314 0.000000
0.752941 0.580392 0.000000
0.788235 0.572549 0.003922
0.827451 0.564706 0.003922
0.870588 0.560784 0.000000
0.913725 0.556863 0.003922
0.952941 0.549020 0.003922
0.988235 0.545098 0.000000
0.996078 0.541176 0.000000
1.000000 0.541176 0.000000
0.996078 0.533333 0.007843
1.000000 0.525490 0.011765
0.113725 0.643137 0.007843
0.137255 0.631373 0.000000
0.176471 0.639216 0.003922
0.215686 0.639216 0.000000
0.262745 0.647059 0.007843
0.305882 0.647059 0.000000
0.356863 0.643137 0.000000
0.400000 0.639216 0.000000
0.454902 0.639216 0.000000
0.509804 0.635294 0.003922
0.552941 0.631373 0.003922
0.607843 0.631373 0.003922
0.650980 0.627451 0.000000
0.698039 0.627451 0.000000
0.749020 0.623529 0.000000
0.792157 0.619608 0.003922
0.827451 0.615686 0.000000
0.862745 0.603922 0.000000
0.901961 0.600000 0.000000
0.941176 0.592157 0.000000
0.984314 0.588235 0.000000
1.000000 0.584314 0.003922
0.988235 0.580392 0.003922
0.992157 0.576471 0.000000
0.996078 0.568627 0.000000
0.113725 0.670588 0.000000
0.145098 0.682353 0.000000
0.180392 0.682353 0.000000
0.215686 0.686275 0.000000
0.258824 0.682353 0.000000
0.301961 0.682353 0.000000
0.352941 0.682353 0.000000
0.403922 0.678431 0.000000
0.447059 0.674510 0.000000
0.505882 0.678431 0.007843
0.549020 0.674510 0.003922
0.596078 0.674510 0.000000
0.639216 0.670588 0.000000
0.694118 0.662745 0.000000
0.737255 0.666667 0.000000
0.784314 0.658824 0.000000
0.823529 0.654902 0.000000
0.862745 0.647059 0.007843
0.894118 0.639216 0.003922
0.933333 0.635294 0.003922
0.968627 0.627451 0.003922
0.992157 0.623529 0.000000
1.000000 0.619608 0.003922
1.000000 0.611765 0.000000
1.000000 0.611765 0.003922
0.117647 0.713725 0.000000
0.149020 0.717647 0.000000
0.176471 0.717647 0.000000
0.211765 0.717647 0.007843
0.258824 0.725490 0.000000
0.305882 0.721569 0.000000
0.349020 0.717647 0.000000
0.396078 0.713725 0.000000
0.443137 0.709804 0.000000
0.494118 0.709804 0.000000
0.541176 0.713725 0.000000
0.592157 0.713725 0.000000
0.635294 0.709804 0.003922
0.678431 0.709804 0.000000
0.725490 0.698039 0.000000
0.776471 0.701961 0.003922
0.815686 0.694118 0.000000
0.858824 0.690196 0.003922
0.890196 0.682353 0.000000
0.929412 0.670588 0.000000
0.964706 0.666667 0.000000
0.996078 0.662745 0.000000
1.000000 0.658824 0.000000
1.000000 0.650980 0.000000
1.000000 0.647059 0.000000
0.152941 0.784314 0.000000
0.172549 0.780392 0.000000
0.203922 0.780392 0.000000
0.231373 0.784314 0.000000
0.278431 0.772549 0.000000
0.305882 0.780392 0.000000
0.356863 0.772549 0.000000
0.400000 0.776471 0.000000
0.454902 0.768627 0.000000
0.494118 0.772549 0.000000
0.549020 0.768627 0.003922
0.592157 0.764706 0.000000
0.635294 0.756863 0.003922
0.682353 0.760784 0.000000
0.733333 0.756863 0.000000
0.780392 0.752941 0.000000
0.823529 0.749020 0.000000
0.862745 0.749020 0.003922
0.898039 0.737255 0.000000
0.941176 0.729412 0.007843
0.972549 0.721569 0.003922
1.000000 0.713725 0.000000
0.996078 0.709804 0.000000
0.996078 0.701961 0.000000
1.000000 0.701961 0.003922
0.149020 0.796078 0.007843
0.164706 0.796078 0.003922
0.200000 0.811765 0.000000
0.243137 0.803922 0.003922
0.266667 0.803922 0.003922
0.321569 0.811765 0.003922
0.356863 0.807843 0.000000
0.403922 0.807843 0.003922
0.447059 0.807843 0.003922
0.494118 0.803922 0.000000
0.533333 0.796078 0.000000
0.580392 0.796078 0.000000
0.627451 0.796078 0.000000
0.678431 0.792157 0.000000
0.721569 0.788235 0.000000
0.764706 0.792157 0.007843
0.811765 0.780392 0.000000
0.850980 0.776471 0.000000
0.894118 0.780392 0.003922
0.937255 0.772549 0.003922
0.960784 0.764706 0.000000
0.988235 0.756863 0.003922
1.000000 0.749020 0.003922
1.000000 0.741176 0.000000
0.996078 0.741176 0.011765
0.164706 0.835294 0.000000
0.180392 0.843137 0.000000
0.211765 0.835294 0.000000
0.239216 0.843137 0.011765
0.282353 0.835294 0.000000
0.309804 0.835294 0.007843
0.356863 0.839216 0.003922
0.396078 0.839216 0.000000
0.447059 0.835294 0.000000
0.486275 0.835294 0.000000
0.537255 0.827451 0.000000
0.576471 0.835294 0.003922
0.627451 0.823529 0.000000
0.662745 0.819608 0.000000
0.717647 0.819608 0.000000
0.764706 0.819608 0.000000
0.800000 0.823529 0.000000
0.839216 0.823529 0.003922
0.878431 0.815686 0.000000
0.921569 0.811765 0.000000
0.968627 0.803922 0.000000
0.984314 0.800000 0.000000
1.000000 0.780392 0.003922
1.000000 0.788235 0.000000
0.996078 0.772549 0.015686
0.196078 0.866667 0.003922
0.203922 0.870588 0.007843
0.223529 0.870588 0.000000
0.254902 0.866667 0.000000
0.274510 0.870588 0.000000
0.313725 0.870588 0.000000
0.356863 0.866667 0.003922
0.396078 0.866667 0.003922
0.443137 0.862745 0.000000
0.486275 0.866667 0.007843
0.525490 0.862745 0.003922
0.568627 0.858824 0.000000
0.607843 0.858824 0.000000
0.647059 0.866667 0.000000
0.690196 0.862745 0.003922
0.741176 0.858824 0.003922
0.784314 0.850980 0.000000
0.827451 0.847059 0.000000
0.862745 0.843137 0.000000
0.909804 0.843137 0.003922
0.952941 0.839216 0.000000
0.988235 0.831373 0.011765
1.000000 0.823529 0.000000
1.000000 0.819608 0.007843
0.996078 0.815686 0.000000
0.203922 0.898039 0.000000
0.223529 0.901961 0.000000
0.235294 0.898039 0.007843
0.266667 0.901961 0.000000
0.290196 0.901961 0.000000
0.325490 0.898039 0.000000
0.364706 0.898039 0.000000
0.407843 0.898039 0.003922
0.447059 0.898039 0.007843
0.486275 0.898039 0.007843
0.529412 0.894118 0.000000
0.564706 0.886275 0.003922
0.596078 0.890196 0.000000
0.643137 0.890196 0.000000
0.686275 0.886275 0.000000
0.725490 0.886275 0.000000
0.772549 0.882353 0.000000
0.811765 0.882353 0.003922
0.854902 0.878431 0.000000
0.894118 0.878431 0.007843
0.933333 0.874510 0.000000
0.968627 0.874510 0.003922
0.992157 0.866667 0.000000
1.000000 0.858824 0.003922
1.000000 0.843137 0.000000
0.250980 0.949020 0.086275
0.270588 0.941176 0.086275
0.278431 0.945098 0.082353
0.305882 0.941176 0.074510
0.321569 0.941176 0.074510
0.356863 0.945098 0.078431
0.384314 0.941176 0.070588
0.423529 0.933333 0.062745
0.458824 0.937255 0.062745
0.494118 0.933333 0.062745
0.533333 0.933333 0.054902
0.568627 0.929412 0.054902
0.607843 0.929412 0.047059
0.647059 0.929412 0.050980
0.686275 0.925490 0.031373
0.733333 0.921569 0.035294
0.776471 0.921569 0.031373
0.815686 0.921569 0.031373
0.850980 0.917647 0.023529
0.886275 0.913725 0.019608
0.933333 0.913725 0.027451
0.972549 0.913725 0.039216
0.988235 0.909804 0.050980
1.000000 0.905882 0.062745
0.996078 0.894118 0.113725
0.266667 0.952941 0.062745
0.282353 0.956863 0.078431
0.274510 0.960784 0.078431
0.309804 0.960784 0.082353
0.341176 0.960784 0.094118
0.356863 0.960784 0.090196
0.400000 0.952941 0.094118
0.415686 0.956863 0.094118
0.458824 0.956863 0.098039
0.498039 0.960784 0.090196
0.529412 0.960784 0.094118
0.564706 0.956863 0.086275
0.603922 0.956863 0.086275
0.643137 0.956863 0.082353
0.678431 0.956863 0.078431
0.725490 0.952941 0.082353
0.764706 0.952941 0.078431
0.800000 0.949020 0.082353
0.831373 0.949020 0.086275
0.870588 0.949020 0.082353
0.917647 0.945098 0.090196
0.960784 0.941176 0.101961
1.000000 0.937255 0.113725
1.000000 0.929412 0.121569
1.000000 0.937255 0.137255
0.282353 0.984314 0.105882
0.301961 0.984314 0.113725
0.305882 0.988235 0.121569
0.317647 0.984314 0.117647
0.341176 0.992157 0.129412
0.368627 0.988235 0.129412
0.392157 0.984314 0.125490
0.431373 0.976471 0.125490
0.458824 0.984314 0.125490
0.498039 0.984314 0.129412
0.525490 0.984314 0.129412
0.568627 0.980392 0.129412
0.600000 0.980392 0.121569
0.643137 0.976471 0.125490
0.670588 0.980392 0.133333
0.709804 0.984314 0.129412
0.752941 0.976471 0.125490
0.788235 0.972549 0.125490
0.827451 0.972549 0.121569
0.866667 0.972549 0.125490
0.913725 0.964706 0.125490
0.933333 0.968627 0.133333
0.980392 0.964706 0.129412
1.000000 0.956863 0.141176
0.992157 0.968627 0.152941
0.298039 0.996078 0.133333
0.301961 1.000000 0.137255
0.329412 0.996078 0.160784
0.337255 0.996078 0.172549
0.368627 1.000000 0.156863
0.376471 1.000000 0.160784
0.407843 1.000000 0.156863
0.439216 1.000000 0.160784
0.462745 1.000000 0.152941
0.498039 1.000000 0.160784
0.529412 1.000000 0.160784
0.564706 1.000000 0.152941
0.607843 0.996078 0.160784
0.627451 1.000000 0.152941
0.666667 1.000000 0.156863
0.709804 0.996078 0.156863
0.745098 0.992157 0.149020
0.784314 0.992157 0.152941
0.815686 0.992157 0.149020
0.854902 0.992157 0.145098
0.890196 0.988235 0.145098
0.933333 0.984314 0.145098
0.964706 0.980392 0.152941
0.996078 0.988235 0.168627
1.000000 0.988235 0.180392
0.329412 0.996078 0.168627
0.325490 1.000000 0.176471
0.341176 1.000000 0.180392
0.360784 1.000000 0.188235
0.368627 1.000000 0.192157
0.400000 1.000000 0.196078
0.419608 1.000000 0.192157
0.439216 1.000000 0.192157
0.462745 1.000000 0.192157
0.494118 1.000000 0.192157
0.533333 1.000000 0.192157
0.568627 0.996078 0.184314
0.596078 1.000000 0.192157
0.631373 0.996078 0.192157
0.666667 0.992157 0.184314
0.701961 0.996078 0.184314
0.741176 0.996078 0.188235
0.772549 1.000000 0.192157
0.807843 1.000000 0.192157
0.843137 0.996078 0.192157
0.878431 0.992157 0.184314
0.925490 1.000000 0.200000
0.952941 1.000000 0.200000
0.976471 1.000000 0.211765
0.996078 1.000000 0.215686
0.109804 0.101961 0.121569
0.141176 0.105882 0.125490
0.164706 0.098039 0.121569
0.192157 0.105882 0.117647
0.239216 0.094118 0.121569
0.278431 0.101961 0.121569
0.321569 0.098039 0.121569
0.368627 0.098039 0.117647
0.415686 0.094118 0.117647
0.466667 0.094118 0.117647
0.525490 0.090196 0.125490
0.576471 0.086275 0.109804
0.643137 0.078431 0.117647
0.690196 0.074510 0.109804
0.749020 0.062745 0.113725
0.796078 0.066667 0.117647
0.839216 0.066667 0.105882
0.882353 0.058824 0.101961
0.925490 0.062745 0.101961
0.964706 0.074510 0.109804
1.000000 0.078431 0.105882
1.000000 0.082353 0.090196
1.000000 0.090196 0.082353
1.000000 0.094118 0.086275
1.000000 0.105882 0.082353
0.105882 0.129412 0.129412
0.141176 0.125490 0.113725
0.164706 0.129412 0.133333
0.200000 0.129412 0.129412
0.227451 0.129412 0.109804
0.278431 0.121569 0.113725
0.317647 0.129412 0.121569
0.364706 0.125490 0.121569
0.415686 0.125490 0.121569
0.466667 0.121569 0.117647
0.521569 0.121569 0.113725
0.580392 0.117647 0.117647
0.639216 0.113725 0.117647
0.694118 0.109804 0.117647
0.737255 0.109804 0.117647
0.792157 0.101961 0.101961
0.843137 0.105882 0.101961
0.886275 0.101961 0.101961
0.925490 0.101961 0.098039
0.964706 0.105882 0.098039
0.992157 0.109804 0.094118
0.996078 0.113725 0.090196
1.000000 0.117647 0.094118
0.996078 0.121569 0.090196
1.000000 0.121569 0.090196
0.109804 0.160784 0.125490
0.133333 0.164706 0.121569
0.172549 0.152941 0.129412
0.196078 0.164706 0.121569
0.231373 0.152941 0.125490
0.274510 0.152941 0.133333
0.321569 0.152941 0.125490
0.360784 0.152941 0.129412
0.415686 0.152941 0.121569
0.458824 0.156863 0.117647
0.521569 0.152941 0.121569
0.576471 0.152941 0.113725
0.643137 0.145098 0.117647
0.690196 0.145098 0.117647
0.741176 0.145098 0.101961
0.792157 0.137255 0.101961
0.839216 0.141176 0.094118
0.886275 0.137255 0.098039
0.925490 0.141176 0.090196
0.956863 0.141176 0.090196
0.992157 0.137255 0.090196
1.000000 0.141176 0.086275
1.000000 0.149020 0.090196
0.996078 0.145098 0.086275
1.000000 0.149020 0.082353
0.109804 0.192157 0.117647
0.137255 0.188235 0.121569
0.172549 0.184314 0.117647
0.200000 0.188235 0.121569
0.239216 0.188235 0.121569
0.278431 0.188235 0.125490
0.313725 0.184314 0.125490
0.360784 0.180392 0.117647
0.407843 0.184314 0.109804
0.462745 0.184314 0.113725
0.521569 0.188235 0.109804
0.580392 0.184314 0.113725
0.631373 0.180392 0.109804
0.694118 0.180392 0.101961
0.741176 0.184314 0.105882
0.788235 0.180392 0.101961
0.831373 0.184314 0.098039
0.874510 0.184314 0.094118
0.909804 0.180392 0.090196
0.949020 0.180392 0.086275
0.984314 0.176471 0.082353
0.996078 0.176471 0.090196
0.996078 0.180392 0.078431
0.992157 0.184314 0.090196
1.000000 0.184314 0.074510
0.113725 0.223529 0.125490
0.145098 0.223529 0.117647
0.176471 0.211765 0.129412
0.203922 0.219608 0.121569
0.239216 0.223529 0.125490
0.278431 0.219608 0.129412
0.321569 0.219608 0.121569
0.364706 0.223529 0.121569
0.411765 0.227451 0.117647
0.466667 0.227451 0.113725
0.521569 0.227451 0.105882
0.576471 0.227451 0.109804
0.635294 0.223529 0.105882
0.686275 0.223529 0.105882
0.733333 0.227451 0.101961
0.780392 0.231373 0.094118
0.823529 0.223529 0.090196
0.866667 0.223529 0.086275
0.905882 0.223529 0.078431
0.952941 0.219608 0.082353
0.980392 0.219608 0.082353
0.996078 0.219608 0.082353
1.000000 0.215686 0.074510
1.000000 0.215686 0.074510
1.000000 0.215686 0.074510
0.117647 0.266667 0.113725
0.149020 0.266667 0.117647
0.172549 0.270588 0.117647
0.207843 0.266667 0.113725
0.243137 0.266667 0.117647
0.286275 0.262745 0.121569
0.329412 0.266667 0.125490
0.380392 0.270588 0.125490
0.427451 0.274510 0.121569
0.478431 0.274510 0.121569
0.525490 0.270588 0.105882
0.580392 0.270588 0.101961
0.643137 0.282353 0.098039
0.701961 0.282353 0.101961
0.752941 0.282353 0.086275
0.800000 0.282353 0.094118
0.847059 0.274510 0.082353
0.882353 0.270588 0.082353
0.921569 0.270588 0.074510
0.960784 0.270588 0.078431
0.992157 0.266667 0.082353
1.000000 0.270588 0.078431
0.996078 0.266667 0.074510
1.000000 0.270588 0.086275
1.000000 0.270588 0.094118
0.125490 0.305882 0.121569
0.145098 0.317647 0.125490
0.176471 0.305882 0.121569
0.203922 0.313725 0.121569
0.243137 0.313725 0.117647
0.286275 0.313725 0.113725
0.325490 0.309804 0.121569
0.372549 0.309804 0.117647
0.419608 0.309804 0.113725
0.478431 0.317647 0.113725
0.529412 0.321569 0.109804
0.584314 0.325490 0.098039
0.639216 0.325490 0.094118
0.698039 0.329412 0.090196
0.745098 0.329412 0.086275
0.796078 0.325490 0.086275
0.835294 0.325490 0.082353
0.878431 0.321569 0.078431
0.917647 0.317647 0.082353
0.960784 0.309804 0.074510
0.996078 0.313725 0.074510
1.000000 0.309804 0.074510
1.000000 0.309804 0.074510
1.000000 0.309804 0.078431
1.000000 0.309804 0.086275
0.117647 0.360784 0.098039
0.141176 0.356863 0.094118
0.168627 0.364706 0.117647
0.207843 0.360784 0.098039
0.254902 0.356863 0.117647
0.286275 0.360784 0.109804
0.337255 0.356863 0.098039
0.388235 0.356863 0.101961
0.431373 0.364706 0.094118
0.486275 0.368627 0.094118
0.537255 0.368627 0.098039
0.592157 0.368627 0.090196
0.643137 0.376471 0.082353
0.698039 0.376471 0.086275
0.741176 0.376471 0.070588
0.792157 0.368627 0.074510
0.839216 0.368627 0.070588
0.878431 0.360784 0.066667
0.917647 0.360784 0.070588
0.949020 0.360784 0.062745
0.992157 0.356863 0.070588
1.000000 0.356863 0.074510
0.992157 0.356863 0.062745
1.000000 0.341176 0.070588
1.000000 0.349020 0.070588
0.117647 0.407843 0.098039
0.156863 0.411765 0.098039
0.164706 0.411765 0.094118
0.203922 0.411765 0.090196
0.247059 0.415686 0.094118
0.298039 0.411765 0.098039
0.341176 0.407843 0.094118
0.388235 0.419608 0.094118
0.435294 0.415686 0.086275
0.478431 0.415686 0.082353
0.537255 0.419608 0.082353
0.596078 0.423529 0.082353
0.643137 0.427451 0.074510
0.694118 0.423529 0.058824
0.737255 0.419608 0.062745
0.784314 0.419608 0.054902
0.827451 0.415686 0.058824
0.870588 0.407843 0.054902
0.905882 0.403922 0.054902
0.945098 0.403922 0.054902
0.980392 0.400000 0.054902
1.000000 0.396078 0.050980
1.000000 0.388235 0.054902
1.000000 0.392157 0.058824
0.996078 0.392157 0.054902
0.125490 0.466667 0.086275
0.137255 0.466667 0.082353
0.180392 0.470588 0.082353
0.203922 0.470588 0.082353
0.254902 0.470588 0.074510
0.294118 0.470588 0.074510
0.345098 0.470588 0.074510
0.388235 0.470588 0.074510
0.443137 0.466667 0.074510
0.490196 0.470588 0.070588
0.541176 0.466667 0.062745
0.592157 0.466667 0.062745
0.643137 0.474510 0.035294
0.690196 0.470588 0.043137
0.733333 0.466667 0.039216
0.780392 0.462745 0.039216
0.823529 0.458824 0.043137
0.862745 0.458824 0.047059
0.905882 0.450980 0.047059
0.937255 0.443137 0.043137
0.980392 0.439216 0.043137
0.996078 0.439216 0.039216
1.000000 0.431373 0.035294
0.996078 0.435294 0.035294
1.000000 0.431373 0.043137
0.101961 0.545098 0.031373
0.133333 0.545098 0.039216
0.172549 0.545098 0.043137
0.211765 0.545098 0.035294
0.266667 0.545098 0.035294
0.309804 0.541176 0.035294
0.356863 0.541176 0.031373
0.403922 0.545098 0.027451
0.454902 0.533333 0.011765
0.509804 0.537255 0.019608
0.564706 0.537255 0.019608
