loleis/其他/lut20种/Sports LUT #11.cube
TITLE "Sports LUT #11"
#LUT size
LUT_3D_SIZE 9
#LUT data points
0.137255 0.137255 0.145098
0.172549 0.137255 0.149020
0.235294 0.133333 0.137255
0.352941 0.133333 0.137255
0.521569 0.129412 0.137255
0.701961 0.113725 0.117647
0.866667 0.086275 0.105882
0.996078 0.050980 0.086275
1.000000 0.007843 0.062745
0.137255 0.176471 0.141176
0.168627 0.164706 0.145098
0.239216 0.172549 0.145098
0.352941 0.180392 0.145098
0.517647 0.180392 0.121569
0.698039 0.184314 0.113725
0.862745 0.176471 0.101961
0.980392 0.152941 0.070588
1.000000 0.141176 0.054902
0.145098 0.243137 0.156863
0.164706 0.243137 0.137255
0.247059 0.243137 0.133333
0.372549 0.258824 0.133333
0.533333 0.290196 0.105882
0.717647 0.298039 0.078431
0.878431 0.298039 0.062745
1.000000 0.286275 0.031373
0.996078 0.270588 0.015686
0.105882 0.384314 0.109804
0.176471 0.384314 0.101961
0.282353 0.388235 0.109804
0.400000 0.392157 0.098039
0.552941 0.415686 0.062745
0.709804 0.423529 0.023529
0.854902 0.419608 0.000000
0.972549 0.411765 0.000000
0.996078 0.403922 0.000000
0.000000 0.576471 0.000000
0.121569 0.584314 0.000000
0.294118 0.576471 0.003922
0.435294 0.576471 0.000000
0.576471 0.576471 0.003922
0.721569 0.572549 0.003922
0.858824 0.564706 0.003922
0.988235 0.545098 0.000000
0.984314 0.541176 0.000000
0.000000 0.741176 0.000000
0.043137 0.745098 0.007843
0.266667 0.741176 0.000000
0.427451 0.737255 0.000000
0.584314 0.725490 0.000000
0.721569 0.721569 0.000000
0.862745 0.709804 0.007843
0.976471 0.686275 0.000000
1.000000 0.670588 0.000000
0.000000 0.839216 0.000000
0.000000 0.843137 0.000000
0.219608 0.843137 0.000000
0.400000 0.843137 0.000000
0.545098 0.839216 0.000000
0.690196 0.831373 0.000000
0.823529 0.823529 0.000000
0.952941 0.807843 0.011765
1.000000 0.788235 0.015686
0.000000 0.949020 0.000000
0.000000 0.956863 0.000000
0.227451 0.949020 0.000000
0.380392 0.949020 0.000000
0.525490 0.945098 0.003922
0.666667 0.937255 0.000000
0.803922 0.933333 0.000000
0.937255 0.925490 0.000000
1.000000 0.921569 0.003922
0.003922 1.000000 0.000000
0.078431 1.000000 0.015686
0.243137 1.000000 0.023529
0.372549 1.000000 0.015686
0.501961 1.000000 0.000000
0.635294 1.000000 0.000000
0.760784 1.000000 0.007843
0.886275 0.996078 0.074510
0.992157 1.000000 0.125490
0.141176 0.141176 0.172549
0.176471 0.137255 0.180392
0.227451 0.145098 0.180392
0.349020 0.121569 0.176471
0.521569 0.074510 0.164706
0.705882 0.015686 0.164706
0.858824 0.000000 0.145098
0.984314 0.000000 0.137255
1.000000 0.000000 0.125490
0.133333 0.164706 0.172549
0.176471 0.168627 0.188235
0.231373 0.168627 0.168627
0.352941 0.160784 0.172549
0.513725 0.152941 0.156863
0.701961 0.141176 0.156863
0.854902 0.125490 0.145098
0.992157 0.101961 0.129412
0.992157 0.086275 0.117647
0.125490 0.239216 0.168627
0.160784 0.243137 0.168627
0.243137 0.239216 0.168627
0.372549 0.254902 0.160784
0.533333 0.274510 0.149020
0.709804 0.278431 0.133333
0.858824 0.270588 0.125490
0.992157 0.262745 0.113725
1.000000 0.243137 0.094118
0.050980 0.380392 0.149020
0.145098 0.376471 0.149020
0.258824 0.380392 0.145098
0.384314 0.384314 0.149020
0.549020 0.403922 0.125490
0.713725 0.415686 0.109804
0.854902 0.415686 0.086275
0.980392 0.407843 0.082353
0.996078 0.388235 0.074510
0.000000 0.564706 0.082353
0.066667 0.572549 0.078431
0.270588 0.572549 0.070588
0.423529 0.568627 0.062745
0.572549 0.560784 0.047059
0.713725 0.560784 0.023529
0.854902 0.552941 0.003922
0.976471 0.537255 0.003922
0.992157 0.529412 0.000000
0.003922 0.733333 0.000000
0.011765 0.729412 0.000000
0.243137 0.733333 0.000000
0.415686 0.729412 0.003922
0.568627 0.717647 0.000000
0.717647 0.709804 0.000000
0.854902 0.701961 0.000000
0.976471 0.678431 0.003922
1.000000 0.658824 0.000000
0.003922 0.835294 0.015686
0.000000 0.835294 0.000000
0.200000 0.839216 0.003922
0.384314 0.835294 0.000000
0.541176 0.835294 0.000000
0.686275 0.827451 0.000000
0.823529 0.823529 0.000000
0.960784 0.811765 0.000000
0.988235 0.788235 0.000000
0.000000 0.945098 0.000000
0.000000 0.949020 0.000000
0.223529 0.945098 0.011765
0.376471 0.945098 0.000000
0.517647 0.945098 0.007843
0.662745 0.941176 0.000000
0.796078 0.929412 0.007843
0.929412 0.925490 0.000000
1.000000 0.913725 0.047059
0.000000 1.000000 0.109804
0.027451 0.992157 0.109804
0.231373 1.000000 0.121569
0.372549 0.992157 0.125490
0.501961 1.000000 0.129412
0.631373 1.000000 0.145098
0.752941 1.000000 0.164706
0.890196 1.000000 0.188235
0.992157 1.000000 0.223529
0.133333 0.137255 0.247059
0.176471 0.133333 0.250980
0.231373 0.133333 0.247059
0.356863 0.121569 0.262745
0.525490 0.031373 0.282353
0.725490 0.000000 0.274510
0.878431 0.000000 0.247059
0.996078 0.000000 0.235294
1.000000 0.000000 0.235294
0.133333 0.164706 0.239216
0.160784 0.164706 0.235294
0.239216 0.164706 0.250980
0.360784 0.145098 0.258824
0.525490 0.109804 0.266667
0.713725 0.000000 0.235294
0.862745 0.000000 0.239216
0.996078 0.000000 0.243137
1.000000 0.000000 0.235294
0.117647 0.239216 0.250980
0.156863 0.239216 0.250980
0.243137 0.239216 0.258824
0.380392 0.239216 0.247059
0.552941 0.239216 0.250980
0.725490 0.231373 0.247059
0.866667 0.219608 0.235294
1.000000 0.211765 0.235294
0.996078 0.207843 0.231373
0.000000 0.384314 0.250980
0.050980 0.380392 0.250980
0.239216 0.388235 0.243137
0.392157 0.380392 0.243137
0.560784 0.392157 0.227451
0.717647 0.400000 0.231373
0.870588 0.396078 0.227451
0.996078 0.384314 0.227451
1.000000 0.376471 0.223529
0.000000 0.572549 0.219608
0.000000 0.564706 0.223529
0.223529 0.568627 0.227451
0.400000 0.568627 0.219608
0.564706 0.556863 0.215686
0.713725 0.549020 0.211765
0.850980 0.545098 0.211765
0.980392 0.529412 0.211765
0.996078 0.513725 0.207843
0.003922 0.737255 0.223529
0.000000 0.729412 0.223529
0.211765 0.725490 0.223529
0.400000 0.721569 0.219608
0.560784 0.713725 0.207843
0.709804 0.705882 0.207843
0.847059 0.694118 0.196078
0.968627 0.678431 0.203922
0.996078 0.658824 0.215686
0.003922 0.835294 0.207843
0.000000 0.831373 0.203922
0.188235 0.839216 0.211765
0.376471 0.831373 0.200000
0.529412 0.819608 0.196078
0.682353 0.823529 0.203922
0.827451 0.827451 0.207843
0.960784 0.819608 0.207843
1.000000 0.784314 0.227451
0.000000 0.945098 0.231373
0.000000 0.949020 0.250980
0.239216 0.941176 0.247059
0.380392 0.941176 0.250980
0.521569 0.941176 0.250980
0.654902 0.929412 0.239216
0.792157 0.925490 0.239216
0.925490 0.925490 0.243137
0.988235 0.913725 0.266667
0.043137 1.000000 0.282353
0.129412 1.000000 0.282353
0.258824 1.000000 0.286275
0.380392 1.000000 0.282353
0.509804 1.000000 0.294118
0.635294 1.000000 0.305882
0.764706 1.000000 0.309804
0.886275 1.000000 0.321569
0.996078 1.000000 0.356863
0.129412 0.125490 0.400000
0.184314 0.121569 0.400000
0.278431 0.117647 0.392157
0.384314 0.094118 0.396078
0.525490 0.007843 0.403922
0.713725 0.000000 0.431373
0.870588 0.000000 0.415686
0.988235 0.000000 0.396078
1.000000 0.000000 0.388235
0.086275 0.160784 0.388235
0.156863 0.156863 0.392157
0.262745 0.152941 0.392157
0.376471 0.133333 0.380392
0.549020 0.090196 0.407843
0.725490 0.000000 0.411765
0.866667 0.000000 0.411765
1.000000 0.000000 0.392157
1.000000 0.003922 0.388235
0.003922 0.254902 0.396078
0.086275 0.239216 0.392157
0.247059 0.243137 0.400000
0.388235 0.235294 0.407843
0.568627 0.215686 0.415686
0.721569 0.192157 0.411765
0.874510 0.180392 0.396078
0.996078 0.184314 0.388235
1.000000 0.207843 0.403922
0.000000 0.392157 0.400000
0.000000 0.392157 0.400000
0.219608 0.396078 0.407843
0.388235 0.388235 0.396078
0.572549 0.380392 0.396078
0.717647 0.380392 0.392157
0.866667 0.376471 0.392157
0.984314 0.376471 0.392157
1.000000 0.376471 0.396078
0.000000 0.572549 0.407843
0.000000 0.576471 0.396078
0.168627 0.572549 0.403922
0.392157 0.568627 0.400000
0.560784 0.564706 0.392157
0.717647 0.552941 0.396078
0.858824 0.537255 0.392157
0.976471 0.529412 0.384314
0.996078 0.525490 0.392157
0.000000 0.729412 0.403922
0.000000 0.729412 0.411765
0.207843 0.721569 0.415686
0.400000 0.725490 0.411765
0.556863 0.717647 0.411765
0.717647 0.705882 0.396078
0.847059 0.694118 0.392157
0.976471 0.674510 0.400000
1.000000 0.662745 0.400000
0.000000 0.831373 0.396078
0.007843 0.839216 0.403922
0.223529 0.835294 0.407843
0.392157 0.831373 0.407843
0.541176 0.831373 0.396078
0.678431 0.827451 0.400000
0.823529 0.819608 0.396078
0.949020 0.815686 0.396078
1.000000 0.788235 0.411765
0.054902 0.945098 0.431373
0.176471 0.941176 0.431373
0.294118 0.941176 0.427451
0.415686 0.937255 0.435294
0.541176 0.937255 0.427451
0.670588 0.925490 0.423529
0.788235 0.925490 0.415686
0.929412 0.925490 0.427451
0.996078 0.909804 0.431373
0.207843 0.996078 0.439216
0.247059 0.996078 0.439216
0.337255 1.000000 0.447059
0.427451 1.000000 0.447059
0.537255 1.000000 0.447059
0.658824 1.000000 0.454902
0.772549 1.000000 0.458824
0.890196 1.000000 0.466667
0.996078 1.000000 0.490196
0.094118 0.113725 0.584314
0.176471 0.105882 0.584314
0.301961 0.082353 0.572549
0.423529 0.027451 0.576471
0.576471 0.000000 0.576471
0.717647 0.000000 0.584314
0.862745 0.003922 0.576471
0.992157 0.000000 0.560784
1.000000 0.000000 0.541176
0.000000 0.152941 0.564706
0.133333 0.149020 0.572549
0.278431 0.129412 0.564706
0.415686 0.105882 0.572549
0.556863 0.039216 0.568627
0.713725 0.000000 0.568627
0.858824 0.000000 0.564706
0.988235 0.003922 0.549020
1.000000 0.000000 0.541176
0.007843 0.247059 0.572549
0.000000 0.239216 0.580392
0.231373 0.235294 0.596078
0.407843 0.227451 0.580392
0.568627 0.211765 0.576471
0.729412 0.184314 0.580392
0.862745 0.172549 0.560784
0.980392 0.180392 0.552941
0.984314 0.235294 0.549020
0.000000 0.403922 0.568627
0.003922 0.407843 0.584314
0.172549 0.392157 0.576471
0.380392 0.384314 0.564706
0.556863 0.376471 0.560784
0.717647 0.376471 0.552941
0.858824 0.384314 0.560784
0.984314 0.392157 0.552941
1.000000 0.411765 0.560784
0.000000 0.556863 0.572549
0.000000 0.572549 0.572549
0.160784 0.568627 0.572549
0.392157 0.564706 0.576471
0.564706 0.556863 0.568627
0.705882 0.552941 0.572549
0.850980 0.552941 0.568627
0.964706 0.549020 0.556863
1.000000 0.552941 0.564706
0.000000 0.729412 0.584314
0.003922 0.725490 0.584314
0.235294 0.721569 0.580392
0.415686 0.717647 0.584314
0.568627 0.713725 0.580392
0.717647 0.705882 0.576471
0.847059 0.694118 0.564706
0.960784 0.682353 0.564706
0.996078 0.678431 0.564706
0.003922 0.831373 0.560784
0.113725 0.843137 0.564706
0.290196 0.835294 0.572549
0.419608 0.831373 0.572549
0.552941 0.831373 0.564706
0.694118 0.819608 0.564706
0.819608 0.823529 0.564706
0.945098 0.811765 0.560784
1.000000 0.792157 0.568627
0.239216 0.933333 0.580392
0.294118 0.933333 0.584314
0.368627 0.933333 0.588235
0.466667 0.937255 0.588235
0.572549 0.937255 0.588235
0.682353 0.929412 0.572549
0.803922 0.921569 0.576471
0.929412 0.921569 0.580392
0.996078 0.917647 0.576471
0.337255 0.988235 0.588235
0.360784 1.000000 0.588235
0.411765 0.996078 0.588235
0.486275 1.000000 0.592157
0.576471 1.000000 0.592157
0.682353 1.000000 0.596078
0.784314 1.000000 0.600000
0.898039 1.000000 0.611765
0.996078 0.996078 0.611765
0.070588 0.086275 0.709804
0.160784 0.078431 0.733333
0.294118 0.043137 0.725490
0.427451 0.003922 0.725490
0.568627 0.003922 0.725490
0.705882 0.000000 0.725490
0.858824 0.000000 0.713725
0.980392 0.003922 0.701961
1.000000 0.000000 0.686275
0.007843 0.129412 0.725490
0.113725 0.129412 0.721569
0.270588 0.109804 0.721569
0.411765 0.078431 0.729412
0.564706 0.000000 0.717647
0.717647 0.003922 0.721569
0.854902 0.000000 0.713725
0.980392 0.003922 0.709804
1.000000 0.003922 0.686275
0.000000 0.227451 0.721569
0.000000 0.231373 0.725490
0.207843 0.223529 0.717647
0.396078 0.211765 0.721569
0.556863 0.196078 0.725490
0.709804 0.180392 0.725490
0.858824 0.164706 0.713725
0.984314 0.184314 0.705882
1.000000 0.223529 0.690196
0.000000 0.392157 0.725490
0.000000 0.388235 0.721569
0.156863 0.380392 0.729412
0.380392 0.380392 0.717647
0.568627 0.380392 0.717647
0.701961 0.380392 0.713725
0.850980 0.384314 0.705882
0.976471 0.400000 0.705882
1.000000 0.419608 0.698039
0.003922 0.545098 0.725490
0.007843 0.545098 0.717647
0.168627 0.549020 0.717647
0.384314 0.549020 0.713725
0.549020 0.556863 0.717647
0.694118 0.549020 0.709804
0.843137 0.549020 0.709804
0.956863 0.564706 0.705882
0.996078 0.572549 0.698039
0.000000 0.713725 0.729412
0.000000 0.705882 0.721569
0.227451 0.705882 0.717647
0.411765 0.705882 0.725490
0.564706 0.701961 0.717647
0.701961 0.701961 0.709804
0.831373 0.694118 0.709804
0.941176 0.698039 0.701961
1.000000 0.694118 0.705882
0.003922 0.831373 0.701961
0.086275 0.831373 0.698039
0.278431 0.827451 0.690196
0.435294 0.823529 0.701961
0.568627 0.823529 0.705882
0.701961 0.823529 0.701961
0.819608 0.823529 0.701961
0.933333 0.815686 0.705882
1.000000 0.803922 0.717647
0.243137 0.929412 0.705882
0.298039 0.933333 0.698039
0.384314 0.929412 0.705882
0.490196 0.929412 0.709804
0.592157 0.925490 0.709804
0.698039 0.921569 0.713725
0.807843 0.921569 0.709804
0.925490 0.921569 0.709804
1.000000 0.913725 0.717647
0.407843 1.000000 0.709804
0.423529 1.000000 0.713725
0.482353 0.996078 0.721569
0.549020 1.000000 0.729412
0.623529 1.000000 0.717647
0.713725 1.000000 0.729412
0.807843 1.000000 0.725490
0.901961 1.000000 0.733333
0.992157 1.000000 0.741176
0.019608 0.054902 0.850980
0.149020 0.039216 0.847059
0.282353 0.003922 0.850980
0.415686 0.000000 0.843137
0.552941 0.000000 0.847059
0.686275 0.000000 0.843137
0.835294 0.000000 0.847059
0.980392 0.000000 0.847059
0.996078 0.000000 0.815686
0.003922 0.113725 0.850980
0.090196 0.113725 0.843137
0.262745 0.094118 0.850980
0.407843 0.047059 0.850980
0.545098 0.000000 0.850980
0.698039 0.000000 0.847059
0.835294 0.000000 0.847059
0.980392 0.000000 0.839216
0.996078 0.007843 0.819608
0.000000 0.219608 0.847059
0.007843 0.219608 0.839216
0.207843 0.215686 0.854902
0.384314 0.207843 0.847059
0.541176 0.200000 0.847059
0.686275 0.188235 0.843137
0.831373 0.180392 0.839216
0.968627 0.188235 0.835294
0.996078 0.235294 0.815686
0.003922 0.380392 0.850980
0.003922 0.376471 0.847059
0.188235 0.380392 0.854902
0.376471 0.380392 0.843137
0.541176 0.380392 0.843137
0.686275 0.380392 0.847059
0.835294 0.392157 0.839216
0.972549 0.400000 0.835294
1.000000 0.423529 0.815686
0.000000 0.533333 0.831373
0.000000 0.541176 0.835294
0.235294 0.537255 0.843137
0.403922 0.545098 0.843137
0.552941 0.552941 0.843137
0.694118 0.552941 0.835294
0.827451 0.552941 0.835294
0.956863 0.560784 0.835294
1.000000 0.572549 0.819608
0.007843 0.682353 0.839216
0.074510 0.694118 0.839216
0.270588 0.690196 0.831373
0.423529 0.690196 0.827451
0.560784 0.690196 0.827451
0.705882 0.690196 0.827451
0.827451 0.694118 0.831373
0.929412 0.698039 0.823529
0.996078 0.701961 0.823529
0.066667 0.827451 0.827451
0.168627 0.819608 0.819608
0.301961 0.819608 0.827451
0.450980 0.819608 0.827451
0.580392 0.819608 0.823529
0.705882 0.823529 0.831373
0.819608 0.815686 0.835294
0.921569 0.819608 0.831373
1.000000 0.827451 0.823529
0.270588 0.925490 0.823529
0.305882 0.929412 0.811765
0.384314 0.929412 0.807843
0.494118 0.917647 0.815686
0.600000 0.925490 0.823529
0.713725 0.925490 0.831373
0.819608 0.921569 0.823529
0.921569 0.921569 0.827451
1.000000 0.921569 0.839216
0.431373 1.000000 0.811765
0.450980 1.000000 0.807843
0.498039 1.000000 0.811765
0.576471 0.996078 0.815686
0.658824 1.000000 0.831373
0.745098 1.000000 0.831373
0.835294 0.996078 0.839216
0.913725 1.000000 0.839216
0.996078 1.000000 0.847059
0.000000 0.015686 0.952941
0.125490 0.003922 0.956863
0.254902 0.000000 0.949020
0.392157 0.000000 0.945098
0.529412 0.000000 0.949020
0.658824 0.003922 0.945098
0.803922 0.000000 0.952941
0.937255 0.000000 0.952941
1.000000 0.000000 0.937255
0.003922 0.094118 0.949020
0.070588 0.086275 0.945098
0.239216 0.074510 0.945098
0.388235 0.039216 0.949020
0.529412 0.000000 0.949020
0.662745 0.000000 0.945098
0.803922 0.000000 0.945098
0.949020 0.000000 0.956863
0.996078 0.003922 0.941176
0.003922 0.215686 0.952941
0.000000 0.223529 0.949020
0.203922 0.219608 0.952941
0.372549 0.211765 0.949020
0.517647 0.207843 0.949020
0.670588 0.203922 0.949020
0.800000 0.207843 0.949020
0.941176 0.219608 0.949020
1.000000 0.235294 0.941176
0.000000 0.372549 0.949020
0.000000 0.380392 0.941176
0.211765 0.376471 0.949020
0.376471 0.376471 0.949020
0.529412 0.384314 0.941176
0.662745 0.392157 0.949020
0.803922 0.403922 0.937255
0.933333 0.415686 0.945098
1.000000 0.423529 0.941176
0.000000 0.537255 0.925490
0.152941 0.533333 0.945098
0.286275 0.541176 0.933333
0.431373 0.545098 0.937255
0.552941 0.552941 0.937255
0.678431 0.552941 0.949020
0.811765 0.560784 0.941176
0.933333 0.564706 0.941176
0.992157 0.576471 0.937255
0.137255 0.678431 0.933333
0.227451 0.670588 0.937255
0.321569 0.682353 0.937255
0.454902 0.682353 0.933333
0.580392 0.690196 0.937255
0.701961 0.698039 0.933333
0.815686 0.698039 0.933333
0.929412 0.701961 0.933333
1.000000 0.705882 0.925490
0.239216 0.807843 0.929412
0.298039 0.800000 0.937255
0.376471 0.803922 0.933333
0.490196 0.807843 0.925490
0.600000 0.807843 0.929412
0.717647 0.811765 0.921569
0.823529 0.823529 0.933333
0.933333 0.819608 0.929412
1.000000 0.827451 0.933333
0.321569 0.925490 0.925490
0.356863 0.925490 0.937255
0.427451 0.921569 0.917647
0.513725 0.921569 0.925490
0.623529 0.917647 0.929412
0.721569 0.921569 0.925490
0.827451 0.921569 0.921569
0.917647 0.925490 0.921569
1.000000 0.929412 0.929412
0.474510 0.996078 0.921569
0.486275 1.000000 0.929412
0.537255 1.000000 0.913725
0.584314 1.000000 0.913725
0.674510 1.000000 0.913725
0.768627 1.000000 0.921569
0.854902 1.000000 0.929412
0.925490 1.000000 0.925490
0.996078 1.000000 0.945098
0.000000 0.000000 0.992157
0.098039 0.000000 1.000000
0.247059 0.000000 0.996078
0.372549 0.000000 1.000000
0.498039 0.000000 1.000000
0.631373 0.000000 1.000000
0.764706 0.000000 1.000000
0.898039 0.000000 1.000000
1.000000 0.000000 0.996078
0.000000 0.086275 1.000000
0.062745 0.086275 1.000000
0.223529 0.070588 1.000000
0.368627 0.050980 1.000000
0.498039 0.027451 1.000000
0.627451 0.000000 0.996078
0.756863 0.007843 1.000000
0.898039 0.062745 0.996078
1.000000 0.121569 1.000000
0.000000 0.223529 0.988235
0.000000 0.219608 1.000000
0.211765 0.219608 0.988235
0.360784 0.215686 1.000000
0.498039 0.219608 0.996078
0.635294 0.227451 1.000000
0.764706 0.239216 1.000000
0.898039 0.258824 1.000000
1.000000 0.290196 1.000000
0.000000 0.384314 0.992157
0.113725 0.380392 1.000000
0.250980 0.388235 1.000000
0.384314 0.384314 0.996078
0.517647 0.396078 1.000000
0.650980 0.403922 1.000000
0.768627 0.415686 1.000000
0.898039 0.427451 1.000000
1.000000 0.447059 1.000000
0.243137 0.545098 1.000000
0.290196 0.545098 1.000000
0.345098 0.545098 0.996078
0.450980 0.549020 1.000000
0.552941 0.552941 1.000000
0.670588 0.560784 1.000000
0.788235 0.568627 0.996078
0.901961 0.580392 1.000000
1.000000 0.588235 0.992157
0.294118 0.666667 0.996078
0.329412 0.666667 1.000000
0.411765 0.670588 1.000000
0.505882 0.682353 1.000000
0.603922 0.694118 1.000000
0.701961 0.698039 0.996078
0.807843 0.705882 0.996078
0.905882 0.705882 1.000000
0.988235 0.721569 1.000000
0.380392 0.788235 0.996078
0.411765 0.792157 1.000000
0.454902 0.788235 1.000000
0.541176 0.800000 1.000000
0.639216 0.811765 1.000000
0.733333 0.815686 1.000000
0.827451 0.819608 1.000000
0.917647 0.827451 1.000000
1.000000 0.827451 1.000000
0.450980 0.901961 1.000000
0.466667 0.905882 1.000000
0.501961 0.894118 0.996078
0.572549 0.901961 0.996078
0.662745 0.905882 0.996078
0.760784 0.909804 0.992157
0.847059 0.917647 0.996078
0.933333 0.929412 1.000000
0.992157 0.937255 1.000000
0.533333 0.996078 1.000000
0.556863 0.996078 1.000000
0.584314 1.000000 0.992157
0.647059 1.000000 1.000000
0.709804 1.000000 0.996078
0.788235 1.000000 1.000000
0.874510 0.996078 1.000000
0.952941 1.000000 1.000000
1.000000 1.000000 0.992157
