loleis/其他/lut20种/Sports LUT #17.cube
TITLE "Sports LUT #17"
#LUT size
LUT_3D_SIZE 5
#LUT data points
0.000000 0.000000 0.000000
0.352941 0.000000 0.000000
0.643137 0.000000 0.000000
0.913725 0.000000 0.000000
1.000000 0.000000 0.062745
0.101961 0.309804 0.000000
0.356863 0.313725 0.000000
0.643137 0.305882 0.003922
0.909804 0.298039 0.007843
1.000000 0.290196 0.082353
0.105882 0.635294 0.000000
0.337255 0.631373 0.000000
0.639216 0.619608 0.007843
0.886275 0.592157 0.031373
1.000000 0.556863 0.109804
0.133333 0.862745 0.086275
0.329412 0.862745 0.094118
0.580392 0.854902 0.094118
0.843137 0.839216 0.098039
1.000000 0.803922 0.160784
0.270588 1.000000 0.235294
0.384314 0.996078 0.262745
0.564706 0.996078 0.262745
0.784314 0.996078 0.266667
0.996078 1.000000 0.286275
0.031373 0.000000 0.325490
0.349020 0.000000 0.329412
0.643137 0.003922 0.321569
0.894118 0.000000 0.309804
1.000000 0.074510 0.317647
0.094118 0.301961 0.317647
0.345098 0.301961 0.317647
0.635294 0.301961 0.321569
0.898039 0.290196 0.313725
0.992157 0.301961 0.309804
0.011765 0.623529 0.298039
0.329412 0.623529 0.298039
0.635294 0.615686 0.298039
0.878431 0.584314 0.317647
0.996078 0.564706 0.325490
0.156863 0.854902 0.313725
0.337255 0.854902 0.317647
0.584314 0.843137 0.309804
0.843137 0.835294 0.305882
1.000000 0.803922 0.329412
0.298039 0.996078 0.376471
0.396078 1.000000 0.372549
0.576471 0.996078 0.384314
0.776471 1.000000 0.384314
0.996078 1.000000 0.396078
0.117647 0.000000 0.627451
0.341176 0.000000 0.623529
0.635294 0.003922 0.623529
0.898039 0.000000 0.600000
1.000000 0.156863 0.576471
0.074510 0.286275 0.631373
0.329412 0.290196 0.631373
0.635294 0.282353 0.623529
0.882353 0.309804 0.596078
1.000000 0.360784 0.576471
0.000000 0.611765 0.615686
0.325490 0.623529 0.623529
0.615686 0.607843 0.611765
0.862745 0.603922 0.607843
1.000000 0.600000 0.615686
0.247059 0.854902 0.596078
0.396078 0.850980 0.603922
0.607843 0.850980 0.596078
0.843137 0.839216 0.588235
0.996078 0.819608 0.588235
0.396078 1.000000 0.607843
0.474510 1.000000 0.611765
0.615686 1.000000 0.603922
0.800000 0.996078 0.607843
0.996078 0.996078 0.611765
0.137255 0.000000 0.858824
0.321569 0.003922 0.862745
0.584314 0.003922 0.858824
0.839216 0.000000 0.839216
1.000000 0.117647 0.815686
0.133333 0.254902 0.850980
0.321569 0.274510 0.854902
0.584314 0.270588 0.847059
0.847059 0.274510 0.843137
1.000000 0.333333 0.811765
0.164706 0.560784 0.835294
0.349020 0.572549 0.843137
0.596078 0.576471 0.839216
0.847059 0.576471 0.839216
0.996078 0.588235 0.819608
0.247059 0.831373 0.847059
0.380392 0.835294 0.835294
0.600000 0.835294 0.835294
0.823529 0.823529 0.823529
1.000000 0.831373 0.835294
0.431373 1.000000 0.811765
0.517647 1.000000 0.815686
0.662745 0.996078 0.831373
0.823529 1.000000 0.831373
0.992157 0.996078 0.823529
0.156863 0.000000 1.000000
0.309804 0.000000 0.996078
0.537255 0.007843 0.996078
0.780392 0.043137 0.996078
1.000000 0.149020 1.000000
0.176471 0.254902 1.000000
0.313725 0.270588 1.000000
0.545098 0.278431 1.000000
0.776471 0.286275 1.000000
0.992157 0.337255 0.996078
0.286275 0.541176 1.000000
0.384314 0.552941 1.000000
0.568627 0.552941 0.996078
0.788235 0.552941 1.000000
0.996078 0.584314 0.996078
0.372549 0.792157 0.996078
0.466667 0.792157 0.996078
0.619608 0.800000 1.000000
0.819608 0.811765 1.000000
0.996078 0.827451 1.000000
0.498039 1.000000 1.000000
0.552941 1.000000 1.000000
0.686275 1.000000 1.000000
0.850980 1.000000 1.000000
1.000000 1.000000 1.000000
