loleis/其他/lut20种/Sports LUT #12.cube
TITLE "Sports LUT #12"
#LUT size
LUT_3D_SIZE 25
#LUT data points
0.074510 0.117647 0.101961
0.105882 0.125490 0.109804
0.145098 0.113725 0.101961
0.188235 0.117647 0.101961
0.235294 0.125490 0.113725
0.282353 0.129412 0.109804
0.341176 0.125490 0.105882
0.411765 0.117647 0.098039
0.466667 0.117647 0.094118
0.533333 0.121569 0.098039
0.607843 0.121569 0.090196
0.662745 0.117647 0.090196
0.713725 0.113725 0.090196
0.756863 0.117647 0.090196
0.788235 0.117647 0.090196
0.815686 0.113725 0.094118
0.843137 0.117647 0.098039
0.878431 0.121569 0.094118
0.913725 0.125490 0.098039
0.937255 0.125490 0.101961
0.960784 0.125490 0.101961
0.988235 0.129412 0.105882
1.000000 0.129412 0.109804
1.000000 0.125490 0.117647
0.992157 0.133333 0.117647
0.058824 0.152941 0.101961
0.098039 0.152941 0.101961
0.141176 0.145098 0.113725
0.184314 0.152941 0.101961
0.231373 0.152941 0.109804
0.282353 0.149020 0.109804
0.337255 0.156863 0.105882
0.403922 0.152941 0.105882
0.470588 0.160784 0.109804
0.537255 0.156863 0.094118
0.600000 0.156863 0.094118
0.662745 0.152941 0.090196
0.701961 0.149020 0.082353
0.745098 0.145098 0.082353
0.784314 0.149020 0.090196
0.815686 0.149020 0.090196
0.839216 0.141176 0.086275
0.874510 0.145098 0.098039
0.901961 0.149020 0.105882
0.933333 0.145098 0.105882
0.960784 0.145098 0.098039
0.988235 0.149020 0.105882
1.000000 0.149020 0.101961
1.000000 0.152941 0.109804
1.000000 0.149020 0.121569
0.047059 0.184314 0.098039
0.098039 0.180392 0.113725
0.129412 0.180392 0.109804
0.184314 0.180392 0.098039
0.227451 0.184314 0.105882
0.274510 0.188235 0.098039
0.345098 0.184314 0.098039
0.392157 0.188235 0.101961
0.466667 0.192157 0.094118
0.533333 0.192157 0.086275
0.603922 0.188235 0.086275
0.662745 0.188235 0.082353
0.705882 0.192157 0.082353
0.737255 0.184314 0.078431
0.776471 0.180392 0.086275
0.807843 0.172549 0.082353
0.843137 0.176471 0.086275
0.874510 0.172549 0.086275
0.901961 0.172549 0.090196
0.925490 0.168627 0.098039
0.952941 0.172549 0.098039
0.984314 0.172549 0.109804
1.000000 0.172549 0.105882
0.996078 0.172549 0.113725
1.000000 0.168627 0.113725
0.019608 0.231373 0.105882
0.078431 0.223529 0.094118
0.121569 0.219608 0.105882
0.168627 0.223529 0.094118
0.223529 0.219608 0.098039
0.286275 0.227451 0.098039
0.345098 0.231373 0.105882
0.403922 0.231373 0.094118
0.466667 0.231373 0.090196
0.541176 0.235294 0.094118
0.603922 0.235294 0.086275
0.658824 0.231373 0.078431
0.705882 0.227451 0.082353
0.741176 0.223529 0.074510
0.776471 0.219608 0.078431
0.811765 0.211765 0.086275
0.835294 0.211765 0.086275
0.870588 0.207843 0.094118
0.894118 0.207843 0.094118
0.925490 0.203922 0.101961
0.952941 0.200000 0.109804
0.984314 0.200000 0.101961
1.000000 0.200000 0.101961
0.996078 0.203922 0.109804
1.000000 0.200000 0.117647
0.003922 0.274510 0.098039
0.054902 0.270588 0.105882
0.117647 0.270588 0.098039
0.168627 0.270588 0.086275
0.219608 0.270588 0.090196
0.282353 0.278431 0.098039
0.341176 0.274510 0.094118
0.400000 0.274510 0.090196
0.466667 0.278431 0.086275
0.533333 0.286275 0.086275
0.600000 0.282353 0.074510
0.658824 0.278431 0.070588
0.705882 0.274510 0.074510
0.741176 0.270588 0.074510
0.776471 0.266667 0.074510
0.803922 0.262745 0.082353
0.835294 0.250980 0.086275
0.858824 0.247059 0.090196
0.886275 0.243137 0.094118
0.921569 0.239216 0.094118
0.952941 0.239216 0.094118
0.976471 0.239216 0.101961
0.996078 0.231373 0.105882
1.000000 0.231373 0.117647
1.000000 0.227451 0.113725
0.000000 0.329412 0.090196
0.019608 0.325490 0.090196
0.098039 0.333333 0.098039
0.156863 0.329412 0.090196
0.223529 0.325490 0.078431
0.290196 0.329412 0.090196
0.345098 0.329412 0.082353
0.411765 0.333333 0.094118
0.482353 0.337255 0.070588
0.545098 0.337255 0.070588
0.611765 0.337255 0.066667
0.666667 0.333333 0.070588
0.705882 0.321569 0.066667
0.741176 0.317647 0.066667
0.776471 0.313725 0.074510
0.803922 0.309804 0.082353
0.843137 0.294118 0.086275
0.866667 0.298039 0.090196
0.894118 0.290196 0.094118
0.921569 0.286275 0.101961
0.956863 0.278431 0.109804
0.988235 0.270588 0.105882
1.000000 0.270588 0.109804
1.000000 0.270588 0.109804
1.000000 0.270588 0.117647
0.011765 0.380392 0.074510
0.011765 0.372549 0.078431
0.086275 0.384314 0.094118
0.156863 0.384314 0.082353
0.227451 0.380392 0.070588
0.282353 0.388235 0.070588
0.356863 0.372549 0.074510
0.419608 0.388235 0.062745
0.486275 0.388235 0.058824
0.552941 0.388235 0.050980
0.603922 0.384314 0.050980
0.666667 0.384314 0.054902
0.698039 0.372549 0.058824
0.737255 0.372549 0.070588
0.764706 0.364706 0.074510
0.803922 0.345098 0.082353
0.831373 0.341176 0.082353
0.866667 0.333333 0.090196
0.890196 0.333333 0.090196
0.917647 0.329412 0.098039
0.949020 0.325490 0.105882
0.984314 0.317647 0.113725
1.000000 0.317647 0.121569
1.000000 0.309804 0.117647
1.000000 0.305882 0.117647
0.003922 0.431373 0.066667
0.003922 0.443137 0.058824
0.066667 0.443137 0.058824
0.149020 0.450980 0.050980
0.227451 0.439216 0.054902
0.301961 0.435294 0.054902
0.349020 0.447059 0.039216
0.411765 0.443137 0.039216
0.482353 0.447059 0.035294
0.552941 0.447059 0.027451
0.607843 0.439216 0.031373
0.647059 0.431373 0.039216
0.694118 0.423529 0.050980
0.725490 0.415686 0.054902
0.764706 0.411765 0.066667
0.796078 0.403922 0.070588
0.827451 0.392157 0.082353
0.854902 0.380392 0.094118
0.886275 0.372549 0.098039
0.917647 0.360784 0.101961
0.949020 0.364706 0.105882
0.984314 0.356863 0.113725
1.000000 0.356863 0.117647
1.000000 0.345098 0.113725
1.000000 0.349020 0.121569
0.003922 0.498039 0.015686
0.007843 0.494118 0.007843
0.035294 0.505882 0.019608
0.133333 0.509804 0.019608
0.227451 0.501961 0.011765
0.298039 0.501961 0.007843
0.352941 0.505882 0.007843
0.423529 0.505882 0.000000
0.482353 0.501961 0.000000
0.545098 0.501961 0.007843
0.592157 0.494118 0.000000
0.643137 0.486275 0.011765
0.682353 0.474510 0.019608
0.713725 0.462745 0.047059
0.756863 0.450980 0.054902
0.792157 0.447059 0.066667
0.823529 0.431373 0.086275
0.854902 0.419608 0.098039
0.882353 0.415686 0.101961
0.913725 0.403922 0.105882
0.949020 0.400000 0.105882
0.976471 0.396078 0.113725
1.000000 0.392157 0.113725
0.992157 0.384314 0.121569
1.000000 0.392157 0.129412
0.000000 0.552941 0.000000
0.000000 0.556863 0.000000
0.003922 0.560784 0.000000
0.129412 0.556863 0.000000
0.219608 0.549020 0.007843
0.286275 0.552941 0.007843
0.352941 0.552941 0.000000
0.419608 0.556863 0.000000
0.478431 0.552941 0.000000
0.533333 0.552941 0.000000
0.588235 0.541176 0.000000
0.635294 0.533333 0.000000
0.678431 0.529412 0.007843
0.709804 0.513725 0.023529
0.745098 0.498039 0.050980
0.776471 0.486275 0.074510
0.811765 0.474510 0.086275
0.843137 0.462745 0.090196
0.878431 0.454902 0.098039
0.913725 0.450980 0.105882
0.945098 0.439216 0.113725
0.968627 0.439216 0.117647
0.992157 0.431373 0.121569
1.000000 0.431373 0.121569
1.000000 0.431373 0.121569
0.007843 0.611765 0.000000
0.007843 0.600000 0.000000
0.003922 0.615686 0.000000
0.133333 0.600000 0.003922
0.211765 0.607843 0.003922
0.274510 0.600000 0.000000
0.345098 0.607843 0.000000
0.415686 0.596078 0.003922
0.462745 0.600000 0.000000
0.517647 0.596078 0.003922
0.576471 0.596078 0.000000
0.631373 0.592157 0.003922
0.674510 0.580392 0.000000
0.709804 0.564706 0.003922
0.745098 0.549020 0.027451
0.780392 0.537255 0.054902
0.811765 0.525490 0.090196
0.843137 0.521569 0.098039
0.870588 0.505882 0.101961
0.901961 0.501961 0.109804
0.937255 0.486275 0.121569
0.972549 0.482353 0.121569
0.996078 0.482353 0.129412
1.000000 0.478431 0.137255
1.000000 0.470588 0.152941
0.000000 0.635294 0.000000
0.003922 0.639216 0.000000
0.000000 0.635294 0.000000
0.113725 0.643137 0.000000
0.203922 0.635294 0.003922
0.258824 0.627451 0.003922
0.333333 0.639216 0.000000
0.388235 0.631373 0.000000
0.447059 0.635294 0.003922
0.501961 0.627451 0.003922
0.560784 0.631373 0.003922
0.603922 0.623529 0.000000
0.666667 0.615686 0.000000
0.705882 0.600000 0.007843
0.741176 0.592157 0.031373
0.772549 0.576471 0.054902
0.803922 0.572549 0.070588
0.835294 0.560784 0.086275
0.866667 0.545098 0.105882
0.901961 0.537255 0.121569
0.937255 0.533333 0.129412
0.972549 0.529412 0.129412
0.992157 0.525490 0.125490
1.000000 0.517647 0.141176
1.000000 0.509804 0.145098
0.000000 0.666667 0.003922
0.000000 0.670588 0.000000
0.000000 0.670588 0.000000
0.129412 0.670588 0.000000
0.192157 0.670588 0.000000
0.254902 0.670588 0.000000
0.321569 0.666667 0.000000
0.372549 0.658824 0.000000
0.431373 0.658824 0.000000
0.478431 0.658824 0.000000
0.525490 0.654902 0.000000
0.580392 0.654902 0.000000
0.639216 0.650980 0.003922
0.690196 0.643137 0.007843
0.729412 0.631373 0.027451
0.764706 0.623529 0.050980
0.796078 0.611765 0.070588
0.831373 0.600000 0.098039
0.862745 0.588235 0.113725
0.898039 0.580392 0.121569
0.929412 0.568627 0.125490
0.964706 0.564706 0.129412
0.996078 0.560784 0.149020
1.000000 0.556863 0.141176
1.000000 0.556863 0.156863
0.007843 0.686275 0.031373
0.003922 0.698039 0.035294
0.023529 0.690196 0.035294
0.133333 0.690196 0.023529
0.188235 0.698039 0.039216
0.250980 0.694118 0.035294
0.301961 0.690196 0.031373
0.364706 0.690196 0.039216
0.419608 0.686275 0.039216
0.470588 0.686275 0.043137
0.521569 0.682353 0.031373
0.568627 0.682353 0.031373
0.615686 0.682353 0.039216
0.670588 0.670588 0.043137
0.713725 0.662745 0.050980
0.752941 0.658824 0.062745
0.788235 0.650980 0.078431
0.819608 0.643137 0.090196
0.850980 0.627451 0.105882
0.886275 0.619608 0.121569
0.921569 0.615686 0.129412
0.949020 0.611765 0.129412
0.992157 0.603922 0.145098
0.996078 0.600000 0.152941
0.992157 0.592157 0.168627
0.003922 0.721569 0.062745
0.000000 0.721569 0.070588
0.054902 0.717647 0.070588
0.133333 0.721569 0.066667
0.192157 0.725490 0.066667
0.247059 0.721569 0.074510
0.301961 0.713725 0.074510
0.356863 0.713725 0.074510
0.403922 0.709804 0.074510
0.450980 0.709804 0.074510
0.501961 0.717647 0.074510
0.545098 0.709804 0.074510
0.603922 0.705882 0.074510
0.643137 0.698039 0.078431
0.690196 0.698039 0.074510
0.737255 0.698039 0.082353
0.780392 0.690196 0.082353
0.815686 0.682353 0.090196
0.850980 0.670588 0.101961
0.882353 0.658824 0.113725
0.921569 0.650980 0.141176
0.949020 0.647059 0.145098
0.984314 0.639216 0.145098
0.996078 0.635294 0.145098
1.000000 0.631373 0.152941
0.011765 0.764706 0.117647
0.070588 0.760784 0.133333
0.113725 0.756863 0.133333
0.168627 0.756863 0.129412
0.211765 0.756863 0.117647
0.262745 0.752941 0.117647
0.309804 0.749020 0.113725
0.349020 0.760784 0.125490
0.400000 0.752941 0.125490
0.450980 0.749020 0.117647
0.501961 0.745098 0.113725
0.549020 0.745098 0.121569
0.592157 0.737255 0.117647
0.639216 0.741176 0.117647
0.682353 0.737255 0.117647
0.729412 0.733333 0.121569
0.772549 0.733333 0.117647
0.819608 0.725490 0.129412
0.854902 0.713725 0.133333
0.890196 0.705882 0.149020
0.917647 0.698039 0.160784
0.952941 0.694118 0.160784
0.988235 0.686275 0.176471
1.000000 0.674510 0.184314
0.992157 0.678431 0.188235
0.050980 0.776471 0.125490
0.094118 0.776471 0.149020
0.137255 0.784314 0.137255
0.172549 0.784314 0.121569
0.211765 0.780392 0.133333
0.270588 0.784314 0.141176
0.313725 0.776471 0.141176
0.349020 0.780392 0.149020
0.396078 0.772549 0.145098
0.443137 0.772549 0.145098
0.478431 0.772549 0.141176
0.533333 0.776471 0.145098
0.572549 0.772549 0.133333
0.627451 0.776471 0.145098
0.662745 0.772549 0.145098
0.717647 0.760784 0.145098
0.745098 0.760784 0.145098
0.792157 0.756863 0.149020
0.835294 0.752941 0.152941
0.874510 0.752941 0.156863
0.917647 0.745098 0.164706
0.952941 0.729412 0.168627
0.976471 0.729412 0.184314
1.000000 0.721569 0.196078
0.992157 0.725490 0.203922
0.105882 0.811765 0.156863
0.125490 0.800000 0.156863
0.149020 0.811765 0.172549
0.188235 0.811765 0.172549
0.223529 0.807843 0.164706
0.258824 0.803922 0.156863
0.301961 0.807843 0.168627
0.349020 0.803922 0.172549
0.392157 0.803922 0.164706
0.435294 0.807843 0.164706
0.482353 0.803922 0.168627
0.521569 0.803922 0.168627
0.564706 0.803922 0.164706
0.607843 0.796078 0.160784
0.654902 0.796078 0.168627
0.698039 0.792157 0.164706
0.737255 0.792157 0.172549
0.784314 0.792157 0.168627
0.827451 0.788235 0.164706
0.866667 0.788235 0.172549
0.909804 0.780392 0.180392
0.945098 0.772549 0.180392
0.976471 0.772549 0.200000
1.000000 0.760784 0.192157
0.992157 0.764706 0.200000
0.129412 0.843137 0.172549
0.145098 0.835294 0.196078
0.180392 0.847059 0.176471
0.207843 0.847059 0.192157
0.227451 0.835294 0.192157
0.278431 0.835294 0.192157
0.313725 0.831373 0.188235
0.352941 0.835294 0.184314
0.396078 0.835294 0.192157
0.435294 0.839216 0.192157
0.474510 0.839216 0.188235
0.513725 0.831373 0.184314
0.560784 0.827451 0.188235
0.603922 0.827451 0.180392
0.643137 0.823529 0.192157
0.690196 0.827451 0.192157
0.729412 0.823529 0.196078
0.776471 0.823529 0.196078
0.815686 0.815686 0.188235
0.854902 0.815686 0.188235
0.901961 0.811765 0.192157
0.941176 0.803922 0.200000
0.972549 0.803922 0.200000
0.992157 0.796078 0.211765
1.000000 0.803922 0.211765
0.164706 0.858824 0.196078
0.176471 0.866667 0.203922
0.192157 0.870588 0.215686
0.231373 0.862745 0.211765
0.262745 0.862745 0.203922
0.290196 0.866667 0.207843
0.317647 0.866667 0.211765
0.360784 0.870588 0.211765
0.400000 0.866667 0.211765
0.443137 0.862745 0.211765
0.478431 0.866667 0.207843
0.513725 0.862745 0.211765
0.560784 0.862745 0.219608
0.596078 0.858824 0.211765
0.639216 0.854902 0.203922
0.678431 0.858824 0.200000
0.725490 0.854902 0.207843
0.764706 0.850980 0.211765
0.803922 0.854902 0.207843
0.843137 0.850980 0.211765
0.886275 0.847059 0.219608
0.921569 0.843137 0.219608
0.972549 0.843137 0.227451
0.996078 0.835294 0.231373
1.000000 0.827451 0.227451
0.231373 0.909804 0.254902
0.239216 0.909804 0.258824
0.250980 0.905882 0.247059
0.258824 0.909804 0.243137
0.290196 0.905882 0.250980
0.329412 0.901961 0.262745
0.349020 0.905882 0.262745
0.384314 0.901961 0.258824
0.411765 0.901961 0.250980
0.450980 0.901961 0.254902
0.498039 0.898039 0.262745
0.525490 0.905882 0.258824
0.560784 0.901961 0.254902
0.600000 0.901961 0.250980
0.643137 0.901961 0.243137
0.678431 0.894118 0.250980
0.721569 0.898039 0.250980
0.764706 0.890196 0.250980
0.815686 0.886275 0.250980
0.847059 0.890196 0.247059
0.886275 0.890196 0.247059
0.925490 0.890196 0.250980
0.972549 0.886275 0.254902
0.984314 0.882353 0.258824
1.000000 0.882353 0.254902
0.227451 0.933333 0.270588
0.243137 0.933333 0.262745
0.262745 0.929412 0.274510
0.290196 0.941176 0.274510
0.290196 0.941176 0.266667
0.321569 0.933333 0.270588
0.349020 0.937255 0.274510
0.380392 0.937255 0.270588
0.423529 0.933333 0.266667
0.462745 0.929412 0.270588
0.490196 0.933333 0.274510
0.521569 0.925490 0.270588
0.564706 0.929412 0.274510
0.607843 0.925490 0.270588
0.647059 0.925490 0.266667
0.682353 0.929412 0.274510
0.717647 0.925490 0.274510
0.760784 0.921569 0.270588
0.800000 0.921569 0.270588
0.839216 0.921569 0.266667
0.886275 0.917647 0.270588
0.925490 0.917647 0.278431
0.956863 0.921569 0.282353
1.000000 0.917647 0.298039
0.996078 0.917647 0.294118
0.262745 0.952941 0.282353
0.270588 0.968627 0.286275
0.282353 0.960784 0.294118
0.294118 0.964706 0.274510
0.321569 0.964706 0.290196
0.337255 0.964706 0.290196
0.364706 0.968627 0.294118
0.403922 0.964706 0.298039
0.431373 0.964706 0.290196
0.454902 0.964706 0.294118
0.494118 0.964706 0.286275
0.529412 0.956863 0.286275
0.568627 0.956863 0.294118
0.611765 0.960784 0.294118
0.635294 0.956863 0.282353
0.674510 0.952941 0.294118
0.713725 0.956863 0.294118
0.752941 0.956863 0.290196
0.792157 0.952941 0.298039
0.831373 0.956863 0.294118
0.870588 0.952941 0.298039
0.905882 0.949020 0.298039
0.952941 0.945098 0.305882
0.996078 0.949020 0.305882
1.000000 0.952941 0.309804
0.270588 0.984314 0.305882
0.298039 0.992157 0.301961
0.309804 0.984314 0.317647
0.321569 0.996078 0.313725
0.333333 0.992157 0.305882
0.356863 0.992157 0.313725
0.388235 0.992157 0.317647
0.415686 0.988235 0.309804
0.439216 0.992157 0.309804
0.466667 0.992157 0.313725
0.498039 0.992157 0.317647
0.529412 0.992157 0.309804
0.564706 0.988235 0.313725
0.600000 0.992157 0.301961
0.635294 0.988235 0.309804
0.674510 0.988235 0.309804
0.713725 0.984314 0.313725
0.752941 0.988235 0.309804
0.792157 0.988235 0.309804
0.827451 0.980392 0.309804
0.866667 0.980392 0.313725
0.894118 0.980392 0.309804
0.941176 0.976471 0.321569
0.980392 0.972549 0.333333
0.992157 0.972549 0.329412
0.301961 1.000000 0.309804
0.317647 1.000000 0.321569
0.321569 1.000000 0.325490
0.333333 1.000000 0.321569
0.352941 1.000000 0.337255
0.376471 1.000000 0.337255
0.388235 1.000000 0.325490
0.411765 1.000000 0.333333
0.443137 1.000000 0.333333
0.478431 1.000000 0.337255
0.505882 1.000000 0.333333
0.541176 1.000000 0.337255
0.564706 1.000000 0.329412
0.600000 1.000000 0.333333
0.639216 1.000000 0.329412
0.678431 1.000000 0.325490
0.713725 1.000000 0.333333
0.741176 1.000000 0.333333
0.780392 1.000000 0.329412
0.815686 0.996078 0.333333
0.854902 1.000000 0.333333
0.890196 1.000000 0.333333
0.933333 0.996078 0.333333
0.968627 0.996078 0.337255
0.988235 1.000000 0.337255
0.082353 0.125490 0.141176
0.101961 0.113725 0.133333
0.137255 0.117647 0.133333
0.184314 0.121569 0.133333
0.235294 0.121569 0.141176
0.286275 0.117647 0.145098
0.345098 0.125490 0.137255
0.407843 0.113725 0.129412
0.470588 0.113725 0.141176
0.541176 0.113725 0.125490
0.611765 0.109804 0.113725
0.670588 0.109804 0.117647
0.713725 0.105882 0.121569
0.752941 0.105882 0.129412
0.788235 0.109804 0.117647
0.811765 0.109804 0.121569
0.843137 0.121569 0.129412
0.874510 0.117647 0.129412
0.898039 0.121569 0.125490
0.929412 0.129412 0.125490
0.964706 0.133333 0.129412
0.988235 0.129412 0.121569
1.000000 0.129412 0.129412
1.000000 0.129412 0.133333
1.000000 0.129412 0.133333
0.054902 0.152941 0.137255
0.105882 0.149020 0.133333
0.137255 0.145098 0.141176
0.184314 0.152941 0.141176
0.231373 0.149020 0.137255
0.290196 0.152941 0.129412
0.341176 0.149020 0.121569
0.411765 0.149020 0.125490
0.470588 0.145098 0.129412
0.549020 0.149020 0.133333
0.603922 0.141176 0.125490
0.666667 0.145098 0.125490
0.709804 0.145098 0.113725
0.749020 0.145098 0.113725
0.784314 0.145098 0.117647
0.811765 0.137255 0.121569
0.839216 0.141176 0.125490
0.870588 0.145098 0.125490
0.901961 0.145098 0.125490
0.925490 0.152941 0.121569
0.952941 0.152941 0.125490
0.984314 0.149020 0.133333
1.000000 0.149020 0.141176
0.988235 0.152941 0.137255
0.996078 0.152941 0.133333
0.039216 0.180392 0.133333
0.082353 0.184314 0.141176
0.137255 0.184314 0.137255
0.176471 0.184314 0.133333
0.235294 0.188235 0.141176
0.274510 0.180392 0.133333
0.341176 0.188235 0.129412
0.400000 0.192157 0.137255
0.470588 0.188235 0.133333
0.537255 0.188235 0.125490
0.603922 0.184314 0.121569
0.658824 0.180392 0.121569
0.701961 0.180392 0.113725
0.737255 0.184314 0.113725
0.780392 0.180392 0.125490
0.807843 0.172549 0.121569
0.839216 0.172549 0.113725
0.866667 0.168627 0.113725
0.901961 0.172549 0.121569
0.925490 0.172549 0.129412
0.956863 0.168627 0.137255
0.996078 0.168627 0.141176
1.000000 0.168627 0.137255
1.000000 0.168627 0.137255
0.996078 0.168627 0.133333
0.015686 0.219608 0.133333
0.054902 0.227451 0.121569
0.133333 0.223529 0.145098
0.168627 0.223529 0.121569
0.235294 0.227451 0.137255
0.286275 0.227451 0.137255
0.337255 0.227451 0.133333
0.403922 0.231373 0.133333
0.466667 0.223529 0.125490
0.537255 0.223529 0.125490
0.596078 0.227451 0.117647
0.654902 0.227451 0.113725
0.701961 0.227451 0.121569
0.745098 0.219608 0.113725
0.772549 0.219608 0.113725
0.807843 0.215686 0.109804
0.839216 0.211765 0.109804
0.862745 0.211765 0.117647
0.894118 0.211765 0.117647
0.917647 0.203922 0.121569
0.949020 0.200000 0.129412
0.980392 0.200000 0.117647
1.000000 0.196078 0.141176
0.992157 0.203922 0.133333
1.000000 0.203922 0.129412
0.000000 0.266667 0.125490
0.050980 0.270588 0.133333
0.109804 0.266667 0.121569
0.156863 0.274510 0.133333
0.223529 0.270588 0.121569
0.282353 0.274510 0.125490
0.345098 0.274510 0.125490
0.407843 0.274510 0.125490
0.470588 0.278431 0.117647
0.537255 0.282353 0.117647
0.600000 0.282353 0.113725
0.654902 0.274510 0.109804
0.701961 0.274510 0.105882
0.733333 0.266667 0.109804
0.768627 0.262745 0.109804
0.800000 0.258824 0.113725
0.835294 0.254902 0.113725
0.854902 0.250980 0.117647
0.890196 0.243137 0.125490
0.917647 0.235294 0.129412
0.945098 0.235294 0.121569
0.976471 0.235294 0.121569
1.000000 0.231373 0.129412
1.000000 0.231373 0.129412
0.996078 0.227451 0.133333
0.000000 0.325490 0.121569
0.015686 0.321569 0.117647
0.101961 0.329412 0.129412
0.160784 0.329412 0.117647
0.227451 0.325490 0.109804
0.290196 0.329412 0.121569
0.337255 0.325490 0.109804
0.419608 0.329412 0.125490
0.486275 0.333333 0.109804
0.545098 0.329412 0.109804
0.603922 0.333333 0.109804
0.650980 0.329412 0.109804
0.694118 0.321569 0.101961
0.737255 0.317647 0.105882
0.772549 0.309804 0.113725
0.807843 0.305882 0.121569
0.839216 0.294118 0.125490
0.862745 0.294118 0.121569
0.886275 0.286275 0.121569
0.917647 0.282353 0.129412
0.952941 0.278431 0.129412
0.980392 0.274510 0.129412
0.996078 0.274510 0.133333
0.996078 0.274510 0.141176
1.000000 0.266667 0.137255
0.015686 0.376471 0.113725
0.000000 0.388235 0.105882
0.078431 0.380392 0.113725
0.149020 0.384314 0.109804
0.219608 0.380392 0.121569
0.286275 0.372549 0.117647
0.356863 0.380392 0.105882
0.415686 0.380392 0.109804
0.478431 0.384314 0.101961
0.541176 0.388235 0.094118
0.600000 0.388235 0.098039
0.650980 0.384314 0.105882
0.701961 0.376471 0.109804
0.729412 0.364706 0.101961
0.764706 0.356863 0.109804
0.803922 0.349020 0.117647
0.831373 0.341176 0.113725
0.862745 0.333333 0.117647
0.894118 0.329412 0.121569
0.917647 0.321569 0.125490
0.952941 0.317647 0.125490
0.984314 0.317647 0.125490
1.000000 0.313725 0.129412
0.996078 0.309804 0.141176
1.000000 0.305882 0.145098
0.003922 0.447059 0.101961
0.003922 0.435294 0.086275
0.047059 0.439216 0.101961
0.145098 0.443137 0.098039
0.219608 0.439216 0.098039
0.282353 0.450980 0.098039
0.360784 0.435294 0.086275
0.423529 0.443137 0.090196
0.482353 0.439216 0.078431
0.545098 0.443137 0.078431
0.596078 0.435294 0.074510
0.650980 0.431373 0.090196
0.686275 0.419608 0.086275
0.725490 0.419608 0.098039
0.760784 0.400000 0.098039
0.792157 0.392157 0.109804
0.827451 0.384314 0.117647
0.854902 0.376471 0.121569
0.890196 0.372549 0.129412
0.913725 0.364706 0.125490
0.945098 0.364706 0.121569
0.980392 0.360784 0.121569
0.996078 0.356863 0.133333
1.000000 0.352941 0.133333
0.996078 0.345098 0.141176
0.000000 0.505882 0.082353
0.000000 0.501961 0.066667
0.007843 0.501961 0.070588
0.137255 0.498039 0.070588
0.215686 0.505882 0.070588
0.290196 0.501961 0.066667
0.356863 0.505882 0.070588
0.419608 0.509804 0.062745
0.486275 0.501961 0.058824
0.545098 0.498039 0.058824
0.600000 0.490196 0.058824
0.647059 0.478431 0.066667
0.690196 0.474510 0.078431
0.717647 0.454902 0.098039
0.752941 0.450980 0.105882
0.792157 0.435294 0.109804
0.819608 0.431373 0.113725
0.850980 0.419608 0.125490
0.874510 0.411765 0.121569
0.909804 0.407843 0.129412
0.945098 0.400000 0.137255
0.976471 0.388235 0.141176
1.000000 0.388235 0.133333
0.996078 0.388235 0.137255
1.000000 0.376471 0.149020
0.000000 0.564706 0.047059
0.000000 0.552941 0.050980
0.003922 0.556863 0.047059
0.117647 0.552941 0.043137
0.215686 0.556863 0.047059
0.278431 0.556863 0.047059
0.349020 0.549020 0.035294
0.411765 0.552941 0.035294
0.474510 0.552941 0.031373
0.529412 0.552941 0.035294
0.592157 0.541176 0.031373
0.647059 0.537255 0.043137
0.674510 0.521569 0.054902
0.709804 0.505882 0.074510
0.749020 0.494118 0.094118
0.780392 0.482353 0.113725
0.815686 0.470588 0.117647
0.839216 0.462745 0.121569
0.870588 0.454902 0.117647
0.901961 0.447059 0.121569
0.941176 0.443137 0.133333
0.960784 0.439216 0.137255
0.988235 0.431373 0.141176
1.000000 0.427451 0.141176
0.996078 0.423529 0.137255
0.000000 0.607843 0.039216
0.003922 0.603922 0.039216
0.003922 0.607843 0.035294
0.121569 0.603922 0.043137
0.207843 0.611765 0.050980
0.274510 0.600000 0.035294
0.337255 0.603922 0.035294
0.396078 0.600000 0.035294
0.462745 0.596078 0.023529
0.517647 0.592157 0.027451
0.580392 0.592157 0.031373
