loleis/其他/lut20种/Sports LUT #16.cube
TITLE "Sports LUT #16"
#LUT size
LUT_3D_SIZE 9
#LUT data points
0.086275 0.094118 0.082353
0.133333 0.090196 0.082353
0.207843 0.090196 0.090196
0.313725 0.082353 0.090196
0.454902 0.078431 0.082353
0.611765 0.070588 0.070588
0.768627 0.043137 0.035294
0.901961 0.000000 0.000000
1.000000 0.003922 0.003922
0.090196 0.141176 0.074510
0.141176 0.129412 0.094118
0.211765 0.141176 0.094118
0.309804 0.137255 0.086275
0.458824 0.141176 0.074510
0.619608 0.145098 0.062745
0.764706 0.141176 0.027451
0.898039 0.121569 0.007843
1.000000 0.105882 0.000000
0.094118 0.215686 0.094118
0.137255 0.215686 0.078431
0.215686 0.215686 0.082353
0.325490 0.227451 0.066667
0.470588 0.243137 0.054902
0.631373 0.254902 0.015686
0.776471 0.262745 0.000000
0.909804 0.250980 0.003922
1.000000 0.243137 0.000000
0.035294 0.345098 0.035294
0.117647 0.349020 0.035294
0.239216 0.356863 0.019608
0.352941 0.352941 0.015686
0.498039 0.368627 0.000000
0.631373 0.380392 0.000000
0.764706 0.380392 0.000000
0.898039 0.372549 0.000000
1.000000 0.364706 0.000000
0.000000 0.509804 0.000000
0.074510 0.517647 0.003922
0.235294 0.513725 0.000000
0.376471 0.517647 0.000000
0.509804 0.517647 0.000000
0.658824 0.513725 0.000000
0.784314 0.505882 0.003922
0.909804 0.505882 0.000000
1.000000 0.498039 0.000000
0.003922 0.678431 0.000000
0.000000 0.674510 0.000000
0.211765 0.674510 0.007843
0.368627 0.666667 0.000000
0.521569 0.662745 0.003922
0.654902 0.662745 0.000000
0.796078 0.650980 0.000000
0.909804 0.639216 0.000000
1.000000 0.635294 0.000000
0.000000 0.784314 0.011765
0.000000 0.792157 0.000000
0.133333 0.784314 0.007843
0.349020 0.784314 0.000000
0.490196 0.780392 0.000000
0.639216 0.780392 0.003922
0.772549 0.776471 0.000000
0.905882 0.764706 0.000000
1.000000 0.752941 0.003922
0.000000 0.898039 0.007843
0.003922 0.905882 0.003922
0.000000 0.909804 0.000000
0.309804 0.909804 0.003922
0.466667 0.905882 0.000000
0.607843 0.905882 0.003922
0.756863 0.898039 0.000000
0.898039 0.894118 0.000000
1.000000 0.886275 0.007843
0.011765 0.996078 0.003922
0.000000 1.000000 0.000000
0.000000 0.996078 0.000000
0.266667 1.000000 0.000000
0.431373 1.000000 0.000000
0.584314 1.000000 0.000000
0.733333 0.996078 0.000000
0.870588 1.000000 0.000000
0.992157 0.996078 0.000000
0.086275 0.098039 0.133333
0.137255 0.090196 0.145098
0.211765 0.094118 0.133333
0.321569 0.078431 0.137255
0.458824 0.031373 0.121569
0.623529 0.000000 0.125490
0.772549 0.000000 0.105882
0.898039 0.003922 0.070588
1.000000 0.000000 0.043137
0.094118 0.137255 0.145098
0.129412 0.137255 0.125490
0.211765 0.129412 0.125490
0.321569 0.133333 0.133333
0.458824 0.121569 0.117647
0.607843 0.105882 0.101961
0.752941 0.086275 0.090196
0.882353 0.058824 0.054902
1.000000 0.023529 0.015686
0.050980 0.215686 0.121569
0.129412 0.215686 0.125490
0.219608 0.219608 0.117647
0.329412 0.223529 0.109804
0.482353 0.227451 0.101961
0.623529 0.235294 0.074510
0.772549 0.235294 0.062745
0.905882 0.223529 0.015686
1.000000 0.211765 0.000000
0.000000 0.341176 0.074510
0.074510 0.345098 0.090196
0.219608 0.341176 0.078431
0.345098 0.345098 0.070588
0.482353 0.360784 0.047059
0.627451 0.360784 0.035294
0.768627 0.364706 0.003922
0.894118 0.352941 0.000000
0.996078 0.349020 0.000000
0.000000 0.501961 0.003922
0.000000 0.501961 0.000000
0.207843 0.509804 0.000000
0.368627 0.513725 0.000000
0.509804 0.509804 0.000000
0.643137 0.505882 0.003922
0.776471 0.505882 0.000000
0.901961 0.498039 0.000000
1.000000 0.490196 0.003922
0.000000 0.666667 0.000000
0.000000 0.666667 0.003922
0.168627 0.662745 0.000000
0.352941 0.654902 0.000000
0.513725 0.658824 0.000000
0.647059 0.650980 0.007843
0.784314 0.647059 0.003922
0.905882 0.631373 0.003922
1.000000 0.623529 0.000000
0.000000 0.784314 0.000000
0.000000 0.784314 0.000000
0.090196 0.780392 0.007843
0.329412 0.776471 0.000000
0.478431 0.776471 0.003922
0.627451 0.768627 0.000000
0.764706 0.772549 0.000000
0.901961 0.756863 0.003922
0.996078 0.749020 0.000000
0.000000 0.901961 0.000000
0.003922 0.909804 0.007843
0.000000 0.901961 0.000000
0.286275 0.901961 0.003922
0.458824 0.901961 0.000000
0.615686 0.894118 0.000000
0.756863 0.894118 0.003922
0.886275 0.890196 0.000000
0.992157 0.882353 0.003922
0.000000 1.000000 0.003922
0.000000 1.000000 0.003922
0.000000 1.000000 0.003922
0.235294 1.000000 0.000000
0.427451 1.000000 0.000000
0.580392 1.000000 0.003922
0.737255 1.000000 0.007843
0.858824 0.996078 0.003922
0.992157 0.996078 0.000000
0.090196 0.086275 0.207843
0.141176 0.090196 0.207843
0.207843 0.086275 0.211765
0.325490 0.062745 0.223529
0.466667 0.007843 0.223529
0.639216 0.000000 0.231373
0.776471 0.000000 0.200000
0.913725 0.000000 0.176471
1.000000 0.003922 0.149020
0.070588 0.129412 0.211765
0.133333 0.125490 0.207843
0.219608 0.125490 0.211765
0.321569 0.109804 0.211765
0.474510 0.062745 0.219608
0.631373 0.000000 0.192157
0.780392 0.000000 0.180392
0.909804 0.000000 0.164706
1.000000 0.000000 0.156863
0.023529 0.211765 0.211765
0.094118 0.211765 0.219608
0.211765 0.211765 0.211765
0.333333 0.211765 0.203922
0.494118 0.203922 0.207843
0.647059 0.192157 0.196078
0.784314 0.172549 0.176471
0.917647 0.164706 0.160784
0.992157 0.149020 0.141176
0.003922 0.341176 0.196078
0.000000 0.345098 0.180392
0.184314 0.352941 0.184314
0.352941 0.349020 0.168627
0.490196 0.345098 0.172549
0.631373 0.345098 0.168627
0.780392 0.341176 0.152941
0.901961 0.329412 0.137255
1.000000 0.321569 0.113725
0.000000 0.501961 0.121569
0.000000 0.517647 0.129412
0.121569 0.513725 0.125490
0.333333 0.513725 0.125490
0.509804 0.513725 0.113725
0.650980 0.498039 0.094118
0.784314 0.494118 0.113725
0.909804 0.482353 0.109804
0.996078 0.474510 0.078431
0.007843 0.670588 0.023529
0.000000 0.662745 0.023529
0.027451 0.666667 0.003922
0.325490 0.658824 0.007843
0.498039 0.658824 0.003922
0.647059 0.650980 0.000000
0.788235 0.639216 0.000000
0.913725 0.631373 0.003922
0.988235 0.619608 0.000000
0.000000 0.776471 0.000000
0.000000 0.788235 0.003922
0.003922 0.780392 0.000000
0.294118 0.780392 0.003922
0.458824 0.776471 0.000000
0.627451 0.776471 0.003922
0.768627 0.768627 0.000000
0.905882 0.760784 0.007843
1.000000 0.741176 0.000000
0.000000 0.901961 0.000000
0.003922 0.909804 0.007843
0.000000 0.909804 0.000000
0.254902 0.905882 0.000000
0.447059 0.901961 0.003922
0.600000 0.898039 0.000000
0.745098 0.890196 0.000000
0.894118 0.890196 0.000000
1.000000 0.874510 0.000000
0.000000 0.996078 0.000000
0.000000 1.000000 0.007843
0.003922 0.996078 0.011765
0.188235 1.000000 0.000000
0.411765 1.000000 0.000000
0.576471 0.996078 0.000000
0.721569 1.000000 0.000000
0.862745 1.000000 0.007843
0.996078 1.000000 0.003922
0.086275 0.082353 0.349020
0.145098 0.078431 0.345098
0.231373 0.070588 0.345098
0.360784 0.015686 0.345098
0.486275 0.003922 0.360784
0.650980 0.000000 0.368627
0.796078 0.000000 0.352941
0.917647 0.000000 0.333333
1.000000 0.003922 0.309804
0.027451 0.113725 0.341176
0.117647 0.113725 0.349020
0.219608 0.109804 0.349020
0.341176 0.078431 0.349020
0.478431 0.007843 0.356863
0.643137 0.000000 0.356863
0.776471 0.000000 0.341176
0.913725 0.003922 0.329412
0.992157 0.003922 0.298039
0.007843 0.215686 0.349020
0.000000 0.207843 0.356863
0.184314 0.188235 0.360784
0.356863 0.176471 0.360784
0.505882 0.168627 0.345098
0.654902 0.133333 0.341176
0.796078 0.090196 0.329412
0.921569 0.019608 0.313725
1.000000 0.000000 0.298039
0.015686 0.352941 0.356863
0.003922 0.349020 0.356863
0.109804 0.360784 0.360784
0.337255 0.337255 0.337255
0.490196 0.341176 0.337255
0.647059 0.329412 0.325490
0.784314 0.313725 0.317647
0.909804 0.298039 0.301961
1.000000 0.282353 0.282353
0.003922 0.513725 0.341176
0.000000 0.517647 0.333333
0.000000 0.517647 0.325490
0.309804 0.517647 0.305882
0.509804 0.513725 0.290196
0.658824 0.498039 0.294118
0.784314 0.482353 0.309804
0.909804 0.474510 0.294118
1.000000 0.454902 0.286275
0.000000 0.674510 0.290196
0.000000 0.670588 0.278431
0.000000 0.666667 0.278431
0.274510 0.666667 0.278431
0.482353 0.666667 0.266667
0.650980 0.658824 0.262745
0.792157 0.639216 0.243137
0.917647 0.623529 0.266667
0.996078 0.611765 0.262745
0.007843 0.788235 0.231373
0.000000 0.788235 0.223529
0.000000 0.788235 0.227451
0.215686 0.788235 0.227451
0.447059 0.780392 0.211765
0.615686 0.780392 0.215686
0.764706 0.772549 0.203922
0.901961 0.760784 0.188235
1.000000 0.741176 0.192157
0.000000 0.905882 0.184314
0.003922 0.901961 0.192157
0.000000 0.909804 0.203922
0.192157 0.913725 0.200000
0.415686 0.901961 0.180392
0.592157 0.901961 0.168627
0.749020 0.890196 0.168627
0.894118 0.890196 0.152941
0.996078 0.878431 0.156863
0.007843 1.000000 0.094118
0.000000 1.000000 0.113725
0.000000 1.000000 0.105882
0.094118 0.996078 0.094118
0.388235 1.000000 0.090196
0.556863 1.000000 0.082353
0.713725 1.000000 0.050980
0.862745 1.000000 0.019608
0.992157 0.996078 0.000000
0.058824 0.066667 0.494118
0.137255 0.058824 0.494118
0.254902 0.019608 0.498039
0.372549 0.000000 0.494118
0.494118 0.003922 0.498039
0.650980 0.003922 0.517647
0.788235 0.000000 0.501961
0.921569 0.003922 0.494118
1.000000 0.000000 0.466667
0.000000 0.109804 0.494118
0.094118 0.101961 0.498039
0.227451 0.090196 0.498039
0.364706 0.031373 0.505882
0.494118 0.003922 0.498039
0.647059 0.000000 0.501961
0.784314 0.000000 0.490196
0.909804 0.000000 0.486275
1.000000 0.000000 0.454902
0.000000 0.184314 0.513725
0.007843 0.172549 0.509804
0.172549 0.172549 0.525490
0.341176 0.156863 0.517647
0.501961 0.117647 0.521569
0.662745 0.074510 0.505882
0.792157 0.015686 0.490196
0.925490 0.000000 0.486275
0.992157 0.000000 0.458824
0.000000 0.345098 0.501961
0.000000 0.337255 0.513725
0.003922 0.325490 0.509804
0.301961 0.309804 0.509804
0.505882 0.290196 0.505882
0.650980 0.298039 0.498039
0.788235 0.294118 0.478431
0.909804 0.282353 0.462745
1.000000 0.254902 0.447059
0.003922 0.505882 0.517647
0.000000 0.517647 0.525490
0.000000 0.521569 0.517647
0.270588 0.513725 0.509804
0.501961 0.494118 0.498039
0.647059 0.490196 0.494118
0.792157 0.486275 0.486275
0.917647 0.466667 0.478431
1.000000 0.458824 0.462745
0.000000 0.678431 0.501961
0.000000 0.674510 0.494118
0.000000 0.666667 0.490196
0.219608 0.666667 0.466667
0.458824 0.662745 0.474510
0.654902 0.647059 0.454902
0.800000 0.631373 0.462745
0.909804 0.627451 0.470588
0.996078 0.619608 0.462745
0.000000 0.796078 0.439216
0.007843 0.784314 0.439216
0.000000 0.792157 0.431373
0.137255 0.792157 0.447059
0.427451 0.780392 0.427451
0.607843 0.776471 0.423529
0.776471 0.772549 0.411765
0.913725 0.752941 0.392157
1.000000 0.741176 0.411765
0.003922 0.909804 0.407843
0.000000 0.909804 0.407843
0.000000 0.909804 0.407843
0.121569 0.909804 0.407843
0.396078 0.901961 0.403922
0.584314 0.901961 0.400000
0.737255 0.890196 0.384314
0.890196 0.894118 0.384314
1.000000 0.882353 0.372549
0.000000 1.000000 0.356863
0.000000 1.000000 0.372549
0.000000 0.996078 0.364706
0.000000 0.996078 0.364706
0.368627 0.996078 0.360784
0.549020 1.000000 0.352941
0.713725 1.000000 0.352941
0.858824 0.996078 0.349020
0.992157 1.000000 0.337255
0.031373 0.027451 0.639216
0.133333 0.007843 0.647059
0.254902 0.000000 0.643137
0.380392 0.003922 0.639216
0.505882 0.000000 0.639216
0.647059 0.000000 0.654902
0.788235 0.000000 0.643137
0.909804 0.000000 0.631373
1.000000 0.003922 0.631373
0.000000 0.086275 0.631373
0.074510 0.066667 0.627451
0.223529 0.043137 0.635294
0.376471 0.000000 0.643137
0.498039 0.000000 0.647059
0.650980 0.000000 0.643137
0.776471 0.000000 0.627451
0.909804 0.000000 0.631373
1.000000 0.000000 0.607843
0.007843 0.168627 0.654902
0.000000 0.160784 0.650980
0.149020 0.145098 0.647059
0.349020 0.133333 0.643137
0.494118 0.090196 0.654902
0.654902 0.000000 0.650980
0.792157 0.000000 0.643137
0.917647 0.000000 0.623529
0.996078 0.007843 0.592157
0.003922 0.309804 0.643137
0.000000 0.305882 0.639216
0.000000 0.286275 0.647059
0.282353 0.278431 0.647059
0.478431 0.266667 0.650980
0.643137 0.250980 0.635294
0.792157 0.235294 0.635294
0.917647 0.235294 0.615686
1.000000 0.219608 0.596078
0.000000 0.478431 0.643137
0.000000 0.482353 0.647059
0.000000 0.482353 0.647059
0.223529 0.466667 0.650980
0.450980 0.458824 0.658824
0.643137 0.447059 0.647059
0.792157 0.458824 0.623529
0.909804 0.458824 0.611765
1.000000 0.454902 0.615686
0.003922 0.654902 0.654902
0.000000 0.654902 0.654902
0.003922 0.654902 0.654902
0.196078 0.647059 0.658824
0.450980 0.647059 0.650980
0.635294 0.635294 0.635294
0.772549 0.631373 0.631373
0.901961 0.627451 0.627451
0.996078 0.623529 0.615686
0.003922 0.776471 0.600000
0.003922 0.792157 0.619608
0.003922 0.784314 0.631373
0.074510 0.780392 0.603922
0.411765 0.772549 0.611765
0.592157 0.772549 0.592157
0.768627 0.764706 0.592157
0.898039 0.752941 0.588235
0.996078 0.741176 0.615686
0.000000 0.905882 0.580392
0.000000 0.909804 0.584314
0.000000 0.905882 0.592157
0.050980 0.905882 0.576471
0.376471 0.909804 0.576471
0.584314 0.894118 0.576471
0.733333 0.898039 0.576471
0.894118 0.890196 0.568627
0.988235 0.874510 0.560784
0.003922 1.000000 0.545098
0.003922 1.000000 0.552941
0.003922 1.000000 0.552941
0.000000 1.000000 0.552941
0.352941 1.000000 0.537255
0.549020 1.000000 0.541176
0.709804 1.000000 0.541176
0.850980 1.000000 0.533333
0.996078 1.000000 0.533333
0.000000 0.000000 0.772549
0.109804 0.000000 0.776471
0.247059 0.000000 0.764706
0.372549 0.000000 0.772549
0.501961 0.000000 0.772549
0.643137 0.000000 0.772549
0.772549 0.000000 0.776471
0.909804 0.000000 0.772549
1.000000 0.000000 0.760784
0.003922 0.043137 0.768627
0.031373 0.027451 0.768627
0.219608 0.000000 0.764706
0.360784 0.000000 0.772549
0.486275 0.003922 0.764706
0.631373 0.000000 0.760784
0.764706 0.003922 0.768627
0.917647 0.000000 0.764706
0.996078 0.003922 0.745098
0.000000 0.145098 0.776471
0.000000 0.145098 0.776471
0.125490 0.129412 0.780392
0.329412 0.101961 0.776471
0.482353 0.043137 0.780392
0.627451 0.000000 0.768627
0.776471 0.000000 0.772549
0.921569 0.003922 0.768627
0.996078 0.003922 0.737255
0.000000 0.274510 0.768627
0.000000 0.262745 0.772549
0.003922 0.266667 0.780392
0.247059 0.258824 0.772549
0.450980 0.243137 0.768627
0.619608 0.223529 0.772549
0.768627 0.196078 0.764706
0.917647 0.172549 0.768627
1.000000 0.168627 0.745098
0.007843 0.450980 0.764706
0.000000 0.447059 0.772549
0.000000 0.439216 0.776471
0.149020 0.427451 0.780392
0.415686 0.419608 0.780392
0.607843 0.415686 0.772549
0.776471 0.407843 0.776471
0.921569 0.411765 0.764706
1.000000 0.431373 0.764706
0.000000 0.619608 0.776471
0.003922 0.615686 0.776471
0.000000 0.615686 0.776471
0.113725 0.611765 0.780392
0.403922 0.611765 0.768627
0.596078 0.600000 0.780392
0.768627 0.600000 0.776471
0.901961 0.603922 0.756863
1.000000 0.603922 0.749020
0.003922 0.768627 0.752941
0.000000 0.764706 0.772549
0.007843 0.768627 0.776471
0.000000 0.764706 0.772549
0.396078 0.764706 0.764706
0.592157 0.764706 0.768627
0.752941 0.752941 0.752941
0.886275 0.752941 0.756863
1.000000 0.749020 0.752941
0.000000 0.901961 0.737255
0.000000 0.898039 0.745098
0.007843 0.894118 0.737255
0.000000 0.905882 0.741176
0.384314 0.901961 0.745098
0.572549 0.894118 0.737255
0.733333 0.894118 0.737255
0.886275 0.890196 0.733333
1.000000 0.874510 0.725490
0.000000 1.000000 0.713725
0.000000 1.000000 0.713725
0.000000 1.000000 0.705882
0.000000 1.000000 0.709804
0.352941 1.000000 0.701961
0.545098 1.000000 0.705882
0.709804 0.996078 0.709804
0.850980 1.000000 0.705882
0.988235 1.000000 0.698039
0.003922 0.000000 0.894118
0.082353 0.000000 0.898039
0.231373 0.003922 0.890196
0.356863 0.000000 0.890196
0.490196 0.000000 0.886275
0.623529 0.000000 0.882353
0.756863 0.000000 0.898039
0.890196 0.000000 0.890196
0.996078 0.000000 0.890196
0.007843 0.000000 0.878431
0.007843 0.000000 0.886275
0.207843 0.000000 0.894118
0.345098 0.000000 0.890196
0.482353 0.003922 0.886275
0.615686 0.003922 0.882353
0.745098 0.003922 0.890196
0.898039 0.000000 0.890196
0.992157 0.003922 0.886275
0.000000 0.113725 0.882353
0.000000 0.121569 0.901961
0.105882 0.101961 0.894118
0.301961 0.066667 0.886275
0.462745 0.000000 0.898039
0.607843 0.000000 0.886275
0.752941 0.003922 0.898039
0.901961 0.000000 0.901961
1.000000 0.000000 0.894118
0.000000 0.247059 0.886275
0.000000 0.250980 0.894118
0.000000 0.239216 0.894118
0.243137 0.239216 0.890196
0.439216 0.219608 0.894118
0.592157 0.200000 0.890196
0.741176 0.172549 0.890196
0.886275 0.125490 0.882353
1.000000 0.047059 0.886275
0.003922 0.411765 0.894118
0.000000 0.411765 0.901961
0.003922 0.403922 0.890196
0.105882 0.400000 0.898039
0.380392 0.396078 0.886275
0.568627 0.384314 0.894118
0.737255 0.376471 0.898039
0.886275 0.372549 0.890196
1.000000 0.376471 0.894118
0.000000 0.580392 0.894118
0.000000 0.584314 0.898039
0.003922 0.580392 0.894118
0.000000 0.576471 0.890196
0.368627 0.568627 0.886275
0.572549 0.576471 0.901961
0.737255 0.568627 0.890196
0.894118 0.568627 0.890196
0.992157 0.572549 0.886275
0.000000 0.733333 0.882353
0.000000 0.737255 0.882353
0.000000 0.733333 0.878431
0.000000 0.741176 0.894118
0.372549 0.729412 0.901961
0.564706 0.729412 0.886275
0.733333 0.729412 0.886275
0.882353 0.733333 0.886275
1.000000 0.737255 0.882353
0.003922 0.890196 0.886275
0.007843 0.886275 0.882353
0.007843 0.886275 0.882353
0.000000 0.894118 0.898039
0.376471 0.886275 0.878431
0.568627 0.890196 0.882353
0.733333 0.886275 0.882353
0.878431 0.878431 0.878431
1.000000 0.882353 0.890196
0.000000 1.000000 0.858824
0.000000 1.000000 0.866667
0.003922 1.000000 0.858824
0.000000 1.000000 0.866667
0.356863 1.000000 0.862745
0.545098 1.000000 0.862745
0.709804 1.000000 0.854902
0.854902 0.996078 0.854902
0.996078 1.000000 0.858824
0.007843 0.000000 0.996078
0.023529 0.000000 0.996078
0.219608 0.000000 0.996078
0.337255 0.003922 0.988235
0.474510 0.000000 1.000000
0.607843 0.000000 0.988235
0.741176 0.000000 1.000000
0.866667 0.000000 0.996078
1.000000 0.003922 1.000000
0.003922 0.000000 0.996078
0.000000 0.003922 0.996078
0.180392 0.000000 1.000000
0.325490 0.000000 1.000000
0.458824 0.000000 0.996078
0.603922 0.000000 0.996078
0.733333 0.000000 1.000000
0.862745 0.000000 1.000000
1.000000 0.007843 0.992157
0.011765 0.082353 1.000000
0.000000 0.078431 1.000000
0.050980 0.062745 1.000000
0.298039 0.000000 1.000000
0.454902 0.000000 1.000000
0.592157 0.000000 1.000000
0.729412 0.003922 1.000000
0.866667 0.000000 0.996078
0.988235 0.011765 1.000000
0.003922 0.223529 0.996078
0.000000 0.227451 0.996078
0.000000 0.223529 1.000000
0.215686 0.203922 1.000000
0.407843 0.192157 1.000000
0.568627 0.164706 1.000000
0.717647 0.125490 1.000000
0.854902 0.058824 0.996078
1.000000 0.000000 1.000000
0.000000 0.384314 0.996078
0.000000 0.380392 0.988235
0.000000 0.372549 1.000000
0.019608 0.384314 1.000000
0.368627 0.360784 1.000000
0.545098 0.356863 1.000000
0.705882 0.349020 1.000000
0.858824 0.345098 0.996078
1.000000 0.349020 1.000000
0.000000 0.552941 1.000000
0.000000 0.556863 1.000000
0.003922 0.552941 1.000000
0.007843 0.549020 0.984314
0.337255 0.545098 0.992157
0.537255 0.533333 1.000000
0.705882 0.537255 1.000000
0.858824 0.545098 0.996078
1.000000 0.541176 1.000000
0.003922 0.698039 0.996078
0.000000 0.705882 0.992157
0.000000 0.701961 0.996078
0.000000 0.701961 0.996078
0.341176 0.709804 1.000000
0.533333 0.705882 1.000000
0.705882 0.701961 1.000000
0.862745 0.701961 1.000000
1.000000 0.701961 0.996078
0.003922 0.858824 1.000000
0.003922 0.850980 1.000000
0.003922 0.850980 1.000000
0.000000 0.854902 0.992157
0.349020 0.854902 1.000000
0.537255 0.862745 0.996078
0.701961 0.858824 0.996078
0.858824 0.858824 0.992157
0.984314 0.862745 0.988235
0.000000 0.996078 0.996078
0.003922 1.000000 1.000000
0.003922 1.000000 1.000000
0.000000 1.000000 0.996078
0.321569 1.000000 1.000000
0.529412 1.000000 1.000000
0.701961 1.000000 1.000000
0.858824 1.000000 1.000000
1.000000 1.000000 1.000000
