loleis/其他/lut20种/Sports LUT #17.cube
TITLE "Sports LUT #17"
#LUT size
LUT_3D_SIZE 9
#LUT data points
0.000000 0.000000 0.000000
0.172549 0.000000 0.000000
0.352941 0.000000 0.000000
0.494118 0.000000 0.003922
0.643137 0.000000 0.000000
0.784314 0.000000 0.000000
0.913725 0.000000 0.000000
1.000000 0.000000 0.015686
1.000000 0.000000 0.062745
0.047059 0.149020 0.000000
0.200000 0.145098 0.007843
0.349020 0.145098 0.000000
0.494118 0.129412 0.000000
0.635294 0.129412 0.003922
0.780392 0.125490 0.000000
0.901961 0.121569 0.000000
0.992157 0.125490 0.011765
1.000000 0.141176 0.054902
0.101961 0.309804 0.000000
0.223529 0.313725 0.000000
0.356863 0.313725 0.000000
0.498039 0.305882 0.003922
0.643137 0.305882 0.003922
0.780392 0.301961 0.000000
0.909804 0.298039 0.007843
0.996078 0.290196 0.043137
1.000000 0.290196 0.082353
0.121569 0.466667 0.000000
0.215686 0.470588 0.007843
0.349020 0.470588 0.000000
0.494118 0.470588 0.000000
0.647059 0.462745 0.000000
0.772549 0.454902 0.000000
0.894118 0.443137 0.027451
1.000000 0.427451 0.050980
1.000000 0.419608 0.082353
0.105882 0.635294 0.000000
0.207843 0.631373 0.000000
0.337255 0.631373 0.000000
0.486275 0.627451 0.000000
0.639216 0.619608 0.007843
0.776471 0.607843 0.000000
0.886275 0.592157 0.031373
0.996078 0.572549 0.086275
1.000000 0.556863 0.109804
0.117647 0.768627 0.031373
0.207843 0.768627 0.031373
0.337255 0.764706 0.023529
0.470588 0.764706 0.027451
0.615686 0.756863 0.035294
0.752941 0.745098 0.043137
0.882353 0.733333 0.054902
0.996078 0.709804 0.101961
1.000000 0.690196 0.145098
0.133333 0.862745 0.086275
0.215686 0.866667 0.098039
0.329412 0.862745 0.094118
0.458824 0.862745 0.098039
0.580392 0.854902 0.094118
0.725490 0.854902 0.105882
0.843137 0.839216 0.098039
0.968627 0.835294 0.117647
1.000000 0.803922 0.160784
0.200000 0.952941 0.180392
0.262745 0.960784 0.184314
0.349020 0.956863 0.203922
0.466667 0.960784 0.196078
0.576471 0.960784 0.188235
0.705882 0.952941 0.196078
0.819608 0.949020 0.200000
0.945098 0.941176 0.200000
0.996078 0.933333 0.215686
0.270588 1.000000 0.235294
0.313725 0.996078 0.278431
0.384314 0.996078 0.262745
0.458824 1.000000 0.262745
0.564706 0.996078 0.262745
0.678431 1.000000 0.262745
0.784314 0.996078 0.266667
0.898039 1.000000 0.266667
0.996078 1.000000 0.286275
0.003922 0.000000 0.156863
0.184314 0.000000 0.164706
0.352941 0.000000 0.156863
0.490196 0.000000 0.164706
0.635294 0.000000 0.160784
0.780392 0.000000 0.160784
0.909804 0.000000 0.164706
1.000000 0.000000 0.164706
0.992157 0.000000 0.180392
0.027451 0.149020 0.160784
0.188235 0.145098 0.160784
0.349020 0.129412 0.164706
0.490196 0.133333 0.168627
0.635294 0.125490 0.164706
0.772549 0.121569 0.160784
0.886275 0.117647 0.156863
0.996078 0.117647 0.156863
1.000000 0.133333 0.168627
0.078431 0.313725 0.164706
0.211765 0.305882 0.164706
0.356863 0.301961 0.164706
0.498039 0.301961 0.164706
0.643137 0.305882 0.168627
0.780392 0.298039 0.164706
0.894118 0.294118 0.168627
0.992157 0.282353 0.168627
1.000000 0.282353 0.172549
0.101961 0.458824 0.156863
0.200000 0.462745 0.149020
0.337255 0.458824 0.145098
0.486275 0.466667 0.149020
0.627451 0.458824 0.149020
0.756863 0.443137 0.156863
0.874510 0.431373 0.164706
0.980392 0.419608 0.160784
1.000000 0.403922 0.168627
0.098039 0.623529 0.141176
0.192157 0.623529 0.133333
0.341176 0.619608 0.141176
0.482353 0.623529 0.145098
0.635294 0.615686 0.145098
0.764706 0.596078 0.152941
0.878431 0.588235 0.168627
0.988235 0.568627 0.184314
1.000000 0.552941 0.203922
0.098039 0.760784 0.160784
0.196078 0.756863 0.168627
0.329412 0.756863 0.156863
0.466667 0.749020 0.168627
0.611765 0.745098 0.168627
0.752941 0.745098 0.168627
0.874510 0.729412 0.168627
0.988235 0.701961 0.188235
1.000000 0.690196 0.223529
0.133333 0.854902 0.172549
0.207843 0.858824 0.184314
0.321569 0.854902 0.180392
0.450980 0.850980 0.184314
0.588235 0.850980 0.192157
0.717647 0.847059 0.184314
0.843137 0.839216 0.172549
0.960784 0.811765 0.172549
1.000000 0.803922 0.219608
0.211765 0.952941 0.247059
0.258824 0.964706 0.247059
0.349020 0.956863 0.243137
0.462745 0.952941 0.247059
0.568627 0.952941 0.235294
0.698039 0.949020 0.235294
0.815686 0.945098 0.250980
0.949020 0.937255 0.250980
0.988235 0.937255 0.254902
0.270588 0.996078 0.286275
0.301961 0.996078 0.294118
0.380392 0.996078 0.294118
0.454902 1.000000 0.298039
0.556863 1.000000 0.294118
0.670588 1.000000 0.294118
0.784314 1.000000 0.298039
0.894118 1.000000 0.298039
0.988235 1.000000 0.313725
0.031373 0.000000 0.325490
0.192157 0.000000 0.329412
0.349020 0.000000 0.329412
0.494118 0.000000 0.329412
0.643137 0.003922 0.321569
0.776471 0.000000 0.309804
0.894118 0.000000 0.309804
0.996078 0.007843 0.309804
1.000000 0.074510 0.317647
0.043137 0.137255 0.317647
0.192157 0.129412 0.321569
0.349020 0.125490 0.325490
0.494118 0.125490 0.329412
0.635294 0.121569 0.325490
0.772549 0.121569 0.317647
0.882353 0.125490 0.309804
1.000000 0.141176 0.298039
1.000000 0.160784 0.309804
0.094118 0.301961 0.317647
0.211765 0.301961 0.333333
0.345098 0.301961 0.317647
0.494118 0.301961 0.325490
0.635294 0.301961 0.321569
0.784314 0.301961 0.321569
0.898039 0.290196 0.313725
1.000000 0.294118 0.313725
0.992157 0.301961 0.309804
0.066667 0.466667 0.313725
0.184314 0.466667 0.309804
0.341176 0.466667 0.313725
0.482353 0.462745 0.305882
0.627451 0.454902 0.309804
0.749020 0.443137 0.301961
0.874510 0.431373 0.305882
0.984314 0.423529 0.305882
1.000000 0.415686 0.298039
0.011765 0.623529 0.298039
0.176471 0.619608 0.305882
0.329412 0.623529 0.298039
0.474510 0.623529 0.298039
0.635294 0.615686 0.298039
0.752941 0.600000 0.298039
0.878431 0.584314 0.317647
0.992157 0.568627 0.317647
0.996078 0.564706 0.325490
0.105882 0.760784 0.313725
0.200000 0.752941 0.309804
0.329412 0.752941 0.313725
0.474510 0.749020 0.309804
0.611765 0.745098 0.305882
0.749020 0.741176 0.305882
0.874510 0.725490 0.305882
0.980392 0.705882 0.321569
1.000000 0.686275 0.345098
0.156863 0.854902 0.313725
0.219608 0.854902 0.317647
0.337255 0.854902 0.317647
0.454902 0.850980 0.309804
0.584314 0.843137 0.309804
0.713725 0.847059 0.313725
0.843137 0.835294 0.305882
0.968627 0.819608 0.321569
1.000000 0.803922 0.329412
0.243137 0.952941 0.345098
0.286275 0.956863 0.352941
0.364706 0.956863 0.356863
0.466667 0.956863 0.352941
0.580392 0.952941 0.349020
0.694118 0.949020 0.352941
0.819608 0.937255 0.349020
0.945098 0.941176 0.352941
0.992157 0.929412 0.360784
0.298039 0.996078 0.376471
0.321569 1.000000 0.376471
0.396078 1.000000 0.372549
0.470588 1.000000 0.384314
0.576471 0.996078 0.384314
0.682353 1.000000 0.384314
0.776471 1.000000 0.384314
0.898039 0.996078 0.384314
0.996078 1.000000 0.396078
0.090196 0.000000 0.466667
0.203922 0.003922 0.478431
0.349020 0.003922 0.482353
0.494118 0.000000 0.482353
0.647059 0.003922 0.486275
0.792157 0.000000 0.470588
0.909804 0.000000 0.447059
1.000000 0.058824 0.454902
1.000000 0.164706 0.447059
0.070588 0.125490 0.474510
0.196078 0.121569 0.474510
0.345098 0.113725 0.474510
0.494118 0.101961 0.478431
0.639216 0.098039 0.474510
0.772549 0.105882 0.454902
0.890196 0.133333 0.450980
1.000000 0.172549 0.450980
1.000000 0.227451 0.443137
0.086275 0.298039 0.470588
0.200000 0.286275 0.470588
0.345098 0.298039 0.486275
0.494118 0.290196 0.478431
0.639216 0.298039 0.474510
0.776471 0.298039 0.458824
0.886275 0.313725 0.458824
1.000000 0.329412 0.462745
1.000000 0.345098 0.462745
0.047059 0.470588 0.470588
0.176471 0.470588 0.482353
0.329412 0.466667 0.474510
0.478431 0.458824 0.474510
0.623529 0.458824 0.466667
0.752941 0.454902 0.462745
0.878431 0.447059 0.458824
0.976471 0.443137 0.450980
1.000000 0.431373 0.443137
0.000000 0.623529 0.474510
0.152941 0.623529 0.474510
0.317647 0.623529 0.466667
0.478431 0.619608 0.470588
0.631373 0.611765 0.454902
0.760784 0.603922 0.466667
0.870588 0.592157 0.466667
0.972549 0.584314 0.462745
1.000000 0.576471 0.462745
0.152941 0.756863 0.470588
0.239216 0.756863 0.470588
0.352941 0.752941 0.466667
0.474510 0.749020 0.466667
0.619608 0.741176 0.466667
0.749020 0.737255 0.458824
0.874510 0.729412 0.462745
0.980392 0.705882 0.462745
0.996078 0.701961 0.478431
0.219608 0.854902 0.458824
0.270588 0.858824 0.470588
0.360784 0.854902 0.462745
0.470588 0.847059 0.462745
0.600000 0.850980 0.470588
0.721569 0.847059 0.458824
0.847059 0.835294 0.454902
0.960784 0.827451 0.447059
0.996078 0.815686 0.470588
0.294118 0.952941 0.478431
0.329412 0.949020 0.482353
0.392157 0.949020 0.478431
0.498039 0.949020 0.482353
0.592157 0.949020 0.474510
0.705882 0.945098 0.486275
0.811765 0.945098 0.474510
0.945098 0.941176 0.486275
0.992157 0.921569 0.482353
0.345098 1.000000 0.482353
0.372549 1.000000 0.486275
0.435294 0.996078 0.494118
0.494118 1.000000 0.494118
0.584314 0.996078 0.490196
0.690196 1.000000 0.498039
0.792157 1.000000 0.490196
0.898039 1.000000 0.498039
0.996078 1.000000 0.498039
0.117647 0.000000 0.627451
0.211765 0.000000 0.619608
0.341176 0.000000 0.623529
0.486275 0.000000 0.619608
0.635294 0.003922 0.623529
0.780392 0.003922 0.627451
0.898039 0.000000 0.600000
1.000000 0.039216 0.584314
1.000000 0.156863 0.576471
0.109804 0.109804 0.619608
0.196078 0.113725 0.611765
0.341176 0.109804 0.615686
0.482353 0.101961 0.623529
0.635294 0.082353 0.623529
0.776471 0.082353 0.607843
0.890196 0.113725 0.588235
0.988235 0.149020 0.584314
0.992157 0.219608 0.572549
0.074510 0.286275 0.631373
0.184314 0.294118 0.623529
0.329412 0.290196 0.631373
0.482353 0.286275 0.635294
0.635294 0.282353 0.623529
0.780392 0.286275 0.615686
0.882353 0.309804 0.596078
0.992157 0.329412 0.592157
1.000000 0.360784 0.576471
0.039216 0.454902 0.619608
0.172549 0.450980 0.615686
0.321569 0.450980 0.619608
0.462745 0.450980 0.619608
0.623529 0.447059 0.615686
0.752941 0.447059 0.603922
0.854902 0.458824 0.584314
0.968627 0.454902 0.580392
1.000000 0.462745 0.580392
0.000000 0.611765 0.615686
0.168627 0.623529 0.619608
0.325490 0.623529 0.623529
0.474510 0.611765 0.619608
0.615686 0.607843 0.611765
0.741176 0.607843 0.611765
0.862745 0.603922 0.607843
0.972549 0.603922 0.603922
1.000000 0.600000 0.615686
0.180392 0.752941 0.611765
0.247059 0.756863 0.615686
0.368627 0.749020 0.611765
0.490196 0.749020 0.607843
0.619608 0.741176 0.607843
0.749020 0.737255 0.607843
0.862745 0.725490 0.600000
0.972549 0.721569 0.611765
1.000000 0.721569 0.611765
0.247059 0.854902 0.596078
0.301961 0.854902 0.596078
0.396078 0.850980 0.603922
0.494118 0.847059 0.596078
0.607843 0.850980 0.596078
0.725490 0.843137 0.592157
0.843137 0.839216 0.588235
0.949020 0.827451 0.576471
0.996078 0.819608 0.588235
0.337255 0.952941 0.603922
0.372549 0.945098 0.611765
0.431373 0.952941 0.596078
0.517647 0.949020 0.607843
0.615686 0.945098 0.607843
0.717647 0.945098 0.611765
0.827451 0.945098 0.607843
0.937255 0.937255 0.600000
1.000000 0.929412 0.607843
0.396078 1.000000 0.607843
0.427451 1.000000 0.615686
0.474510 1.000000 0.611765
0.533333 0.996078 0.615686
0.615686 1.000000 0.603922
0.701961 1.000000 0.603922
0.800000 0.996078 0.607843
0.898039 1.000000 0.603922
0.996078 0.996078 0.611765
0.129412 0.003922 0.745098
0.207843 0.003922 0.745098
0.333333 0.000000 0.749020
0.466667 0.000000 0.752941
0.607843 0.000000 0.737255
0.741176 0.000000 0.745098
0.882353 0.003922 0.729412
0.996078 0.000000 0.713725
1.000000 0.137255 0.705882
0.121569 0.101961 0.745098
0.211765 0.101961 0.729412
0.325490 0.105882 0.745098
0.458824 0.098039 0.737255
0.584314 0.090196 0.725490
0.741176 0.074510 0.737255
0.866667 0.078431 0.721569
0.980392 0.121569 0.694118
0.992157 0.180392 0.690196
0.101961 0.278431 0.737255
0.200000 0.278431 0.729412
0.321569 0.278431 0.741176
0.466667 0.278431 0.749020
0.607843 0.278431 0.752941
0.745098 0.278431 0.741176
0.866667 0.282353 0.737255
0.984314 0.309804 0.709804
1.000000 0.345098 0.717647
0.078431 0.419608 0.721569
0.188235 0.427451 0.741176
0.313725 0.427451 0.733333
0.454902 0.427451 0.729412
0.592157 0.431373 0.729412
0.741176 0.423529 0.725490
0.850980 0.431373 0.705882
0.968627 0.431373 0.698039
0.992157 0.443137 0.682353
0.101961 0.584314 0.749020
0.203922 0.596078 0.729412
0.341176 0.592157 0.741176
0.474510 0.592157 0.741176
0.611765 0.588235 0.729412
0.733333 0.588235 0.721569
0.854902 0.588235 0.733333
0.964706 0.592157 0.709804
1.000000 0.596078 0.694118
0.200000 0.741176 0.749020
0.254902 0.733333 0.737255
0.368627 0.741176 0.749020
0.494118 0.733333 0.745098
0.611765 0.733333 0.745098
0.733333 0.733333 0.733333
0.850980 0.725490 0.737255
0.956863 0.721569 0.729412
1.000000 0.721569 0.733333
0.239216 0.843137 0.709804
0.298039 0.843137 0.713725
0.384314 0.847059 0.713725
0.490196 0.839216 0.721569
0.603922 0.839216 0.729412
0.717647 0.839216 0.713725
0.831373 0.835294 0.713725
0.937255 0.819608 0.709804
0.996078 0.823529 0.725490
0.349020 0.945098 0.713725
0.384314 0.952941 0.721569
0.443137 0.945098 0.721569
0.533333 0.945098 0.721569
0.627451 0.945098 0.725490
0.725490 0.941176 0.725490
0.823529 0.937255 0.709804
0.933333 0.937255 0.713725
0.996078 0.929412 0.725490
0.427451 1.000000 0.721569
0.450980 1.000000 0.713725
0.509804 1.000000 0.717647
0.572549 1.000000 0.733333
0.643137 1.000000 0.729412
0.725490 1.000000 0.717647
0.811765 0.996078 0.713725
0.909804 1.000000 0.717647
0.992157 1.000000 0.713725
0.137255 0.000000 0.858824
0.203922 0.003922 0.862745
0.321569 0.003922 0.862745
0.447059 0.000000 0.854902
0.584314 0.003922 0.858824
0.709804 0.000000 0.850980
0.839216 0.000000 0.839216
0.992157 0.000000 0.858824
1.000000 0.117647 0.815686
0.125490 0.101961 0.839216
0.207843 0.105882 0.862745
0.321569 0.105882 0.847059
0.447059 0.105882 0.850980
0.572549 0.105882 0.843137
0.713725 0.101961 0.839216
0.843137 0.098039 0.835294
0.964706 0.109804 0.827451
1.000000 0.176471 0.823529
0.133333 0.254902 0.850980
0.207843 0.270588 0.850980
0.321569 0.274510 0.854902
0.447059 0.274510 0.850980
0.584314 0.270588 0.847059
0.717647 0.270588 0.847059
0.847059 0.274510 0.843137
0.980392 0.286275 0.835294
1.000000 0.333333 0.811765
0.125490 0.407843 0.839216
0.200000 0.423529 0.835294
0.317647 0.419608 0.850980
0.450980 0.419608 0.847059
0.580392 0.415686 0.839216
0.705882 0.419608 0.839216
0.839216 0.419608 0.835294
0.956863 0.419608 0.827451
1.000000 0.435294 0.807843
0.164706 0.560784 0.835294
0.243137 0.572549 0.847059
0.349020 0.572549 0.843137
0.466667 0.572549 0.843137
0.596078 0.576471 0.839216
0.717647 0.572549 0.843137
0.847059 0.576471 0.839216
0.964706 0.576471 0.831373
0.996078 0.588235 0.819608
0.250980 0.705882 0.850980
0.298039 0.717647 0.850980
0.380392 0.717647 0.847059
0.490196 0.721569 0.847059
0.607843 0.709804 0.839216
0.725490 0.713725 0.835294
0.843137 0.713725 0.835294
0.945098 0.705882 0.827451
1.000000 0.725490 0.827451
0.247059 0.831373 0.847059
0.286275 0.827451 0.835294
0.380392 0.835294 0.835294
0.490196 0.835294 0.839216
0.600000 0.835294 0.835294
0.713725 0.831373 0.831373
0.823529 0.823529 0.823529
0.929412 0.827451 0.831373
1.000000 0.831373 0.835294
0.345098 0.945098 0.827451
0.376471 0.945098 0.823529
0.443137 0.941176 0.823529
0.529412 0.941176 0.823529
0.627451 0.941176 0.835294
0.741176 0.937255 0.831373
0.831373 0.933333 0.827451
0.933333 0.933333 0.831373
0.992157 0.925490 0.847059
0.431373 1.000000 0.811765
0.466667 1.000000 0.819608
0.517647 1.000000 0.815686
0.580392 1.000000 0.819608
0.662745 0.996078 0.831373
0.745098 1.000000 0.831373
0.823529 1.000000 0.831373
0.909804 1.000000 0.827451
0.992157 0.996078 0.823529
0.137255 0.000000 0.956863
0.203922 0.003922 0.956863
0.313725 0.003922 0.952941
0.431373 0.003922 0.956863
0.564706 0.000000 0.960784
0.686275 0.000000 0.952941
0.819608 0.000000 0.949020
0.941176 0.039216 0.941176
0.996078 0.117647 0.945098
0.133333 0.109804 0.949020
0.196078 0.117647 0.952941
0.305882 0.117647 0.941176
0.431373 0.117647 0.945098
0.560784 0.117647 0.949020
0.686275 0.121569 0.949020
0.815686 0.125490 0.937255
0.949020 0.137255 0.937255
0.996078 0.172549 0.937255
0.152941 0.274510 0.937255
0.223529 0.274510 0.960784
0.321569 0.274510 0.949020
0.431373 0.278431 0.949020
0.556863 0.274510 0.941176
0.694118 0.278431 0.949020
0.819608 0.286275 0.945098
0.945098 0.298039 0.941176
1.000000 0.317647 0.933333
0.164706 0.407843 0.929412
0.227451 0.415686 0.941176
0.329412 0.415686 0.945098
0.447059 0.415686 0.945098
0.564706 0.415686 0.945098
0.686275 0.411765 0.933333
0.811765 0.415686 0.933333
0.929412 0.415686 0.925490
1.000000 0.419608 0.929412
0.227451 0.556863 0.945098
0.274510 0.556863 0.941176
0.372549 0.560784 0.945098
0.474510 0.564706 0.941176
0.588235 0.564706 0.941176
0.698039 0.564706 0.945098
0.819608 0.568627 0.945098
0.937255 0.564706 0.933333
1.000000 0.576471 0.925490
0.294118 0.694118 0.945098
0.325490 0.694118 0.937255
0.400000 0.698039 0.941176
0.498039 0.698039 0.945098
0.600000 0.701961 0.941176
0.713725 0.709804 0.945098
0.823529 0.701961 0.937255
0.937255 0.701961 0.937255
0.988235 0.709804 0.937255
0.298039 0.803922 0.925490
0.345098 0.811765 0.937255
0.407843 0.811765 0.933333
0.498039 0.815686 0.933333
0.603922 0.819608 0.937255
0.717647 0.819608 0.925490
0.823529 0.823529 0.933333
0.933333 0.819608 0.929412
1.000000 0.827451 0.917647
0.368627 0.933333 0.937255
0.400000 0.933333 0.933333
0.462745 0.933333 0.929412
0.541176 0.933333 0.933333
0.635294 0.933333 0.933333
0.737255 0.933333 0.929412
0.831373 0.933333 0.929412
0.925490 0.933333 0.929412
0.992157 0.929412 0.929412
0.454902 1.000000 0.925490
0.478431 1.000000 0.917647
0.533333 1.000000 0.921569
0.584314 1.000000 0.913725
0.666667 1.000000 0.917647
0.752941 1.000000 0.917647
0.839216 1.000000 0.925490
0.921569 0.996078 0.917647
0.996078 1.000000 0.921569
0.156863 0.000000 1.000000
0.207843 0.000000 1.000000
0.309804 0.000000 0.996078
0.419608 0.000000 0.996078
0.537255 0.007843 0.996078
0.654902 0.023529 1.000000
0.780392 0.043137 0.996078
0.898039 0.082353 0.996078
1.000000 0.149020 1.000000
0.141176 0.117647 0.996078
0.192157 0.121569 1.000000
0.298039 0.121569 1.000000
0.419608 0.125490 1.000000
0.537255 0.125490 1.000000
0.647059 0.129412 0.996078
0.772549 0.141176 0.996078
0.901961 0.160784 1.000000
1.000000 0.196078 1.000000
0.176471 0.254902 1.000000
0.231373 0.270588 1.000000
0.313725 0.270588 1.000000
0.423529 0.274510 0.996078
0.545098 0.278431 1.000000
0.662745 0.278431 1.000000
0.776471 0.286275 1.000000
0.898039 0.298039 0.996078
0.992157 0.337255 0.996078
0.203922 0.396078 1.000000
0.247059 0.400000 1.000000
0.325490 0.403922 0.996078
0.423529 0.403922 1.000000
0.545098 0.403922 1.000000
0.654902 0.400000 0.996078
0.776471 0.407843 0.996078
0.901961 0.415686 1.000000
1.000000 0.431373 1.000000
0.286275 0.541176 1.000000
0.333333 0.556863 1.000000
0.384314 0.552941 1.000000
0.470588 0.552941 1.000000
0.568627 0.552941 0.996078
0.670588 0.552941 1.000000
0.788235 0.552941 1.000000
0.901961 0.564706 1.000000
0.996078 0.584314 0.996078
0.352941 0.674510 0.996078
0.376471 0.678431 1.000000
0.439216 0.686275 1.000000
0.517647 0.682353 1.000000
0.603922 0.686275 1.000000
0.701961 0.690196 1.000000
0.803922 0.690196 1.000000
0.905882 0.698039 1.000000
0.992157 0.709804 1.000000
0.372549 0.792157 0.996078
0.407843 0.788235 0.996078
0.466667 0.792157 0.996078
0.533333 0.796078 1.000000
0.619608 0.800000 1.000000
0.721569 0.807843 1.000000
0.819608 0.811765 1.000000
0.921569 0.819608 0.996078
0.996078 0.827451 1.000000
0.439216 0.905882 0.992157
0.470588 0.901961 1.000000
0.513725 0.905882 1.000000
0.576471 0.905882 1.000000
0.658824 0.913725 1.000000
0.749020 0.913725 1.000000
0.835294 0.917647 1.000000
0.921569 0.925490 0.996078
0.996078 0.929412 1.000000
0.498039 1.000000 1.000000
0.525490 0.996078 0.992157
0.552941 1.000000 1.000000
0.611765 0.996078 1.000000
0.686275 1.000000 1.000000
0.764706 1.000000 1.000000
0.850980 1.000000 1.000000
0.937255 1.000000 1.000000
1.000000 1.000000 1.000000
