loleis/其他/lut20种/Sports LUT #4.cube
TITLE "Sports LUT #4"
#LUT size
LUT_3D_SIZE 5
#LUT data points
0.145098 0.109804 0.121569
0.239216 0.113725 0.133333
0.411765 0.117647 0.145098
0.698039 0.125490 0.164706
0.980392 0.152941 0.176471
0.188235 0.215686 0.152941
0.258824 0.215686 0.145098
0.439216 0.239216 0.156863
0.721569 0.274510 0.168627
0.996078 0.298039 0.196078
0.207843 0.474510 0.149020
0.294118 0.462745 0.141176
0.509804 0.494118 0.152941
0.772549 0.521569 0.168627
1.000000 0.541176 0.266667
0.211765 0.780392 0.180392
0.321569 0.764706 0.176471
0.545098 0.780392 0.200000
0.807843 0.800000 0.270588
1.000000 0.800000 0.372549
0.529412 1.000000 0.533333
0.564706 1.000000 0.517647
0.690196 0.996078 0.564706
0.854902 1.000000 0.623529
1.000000 1.000000 0.705882
0.152941 0.113725 0.211765
0.250980 0.117647 0.223529
0.443137 0.113725 0.247059
0.737255 0.015686 0.258824
1.000000 0.086275 0.294118
0.180392 0.223529 0.239216
0.278431 0.219608 0.239216
0.466667 0.235294 0.250980
0.756863 0.250980 0.266667
0.992157 0.290196 0.305882
0.105882 0.501961 0.243137
0.274510 0.494118 0.254902
0.529412 0.509804 0.258824
0.788235 0.529412 0.294118
1.000000 0.549020 0.372549
0.192157 0.792157 0.305882
0.321569 0.792157 0.305882
0.560784 0.800000 0.325490
0.800000 0.792157 0.349020
0.996078 0.800000 0.450980
0.545098 1.000000 0.572549
0.603922 1.000000 0.592157
0.698039 1.000000 0.615686
0.847059 1.000000 0.650980
1.000000 1.000000 0.717647
0.164706 0.109804 0.411765
0.266667 0.101961 0.423529
0.466667 0.074510 0.458824
0.756863 0.000000 0.490196
1.000000 0.000000 0.517647
0.129412 0.207843 0.447059
0.266667 0.203922 0.450980
0.486275 0.200000 0.470588
0.768627 0.219608 0.505882
0.996078 0.266667 0.513725
0.000000 0.498039 0.501961
0.231373 0.486275 0.494118
0.517647 0.501961 0.505882
0.788235 0.529412 0.537255
1.000000 0.564706 0.580392
0.145098 0.792157 0.525490
0.286275 0.780392 0.529412
0.552941 0.796078 0.549020
0.803922 0.796078 0.564706
1.000000 0.815686 0.643137
0.552941 0.996078 0.690196
0.592157 0.996078 0.678431
0.701961 1.000000 0.705882
0.854902 1.000000 0.729412
0.996078 1.000000 0.776471
0.176471 0.062745 0.721569
0.294118 0.043137 0.729412
0.513725 0.000000 0.745098
0.764706 0.000000 0.752941
1.000000 0.003922 0.756863
0.003922 0.196078 0.741176
0.243137 0.188235 0.764706
0.505882 0.176471 0.756863
0.772549 0.152941 0.760784
1.000000 0.239216 0.788235
0.000000 0.470588 0.768627
0.149020 0.474510 0.772549
0.486275 0.470588 0.768627
0.780392 0.482353 0.776471
1.000000 0.533333 0.772549
0.098039 0.780392 0.784314
0.298039 0.784314 0.784314
0.537255 0.788235 0.788235
0.784314 0.784314 0.784314
1.000000 0.815686 0.800000
0.537255 1.000000 0.831373
0.584314 0.996078 0.827451
0.698039 1.000000 0.835294
0.839216 1.000000 0.847059
1.000000 0.996078 0.874510
0.133333 0.003922 0.996078
0.282353 0.000000 0.996078
0.505882 0.000000 0.992157
0.745098 0.003922 0.992157
1.000000 0.000000 0.996078
0.000000 0.164706 0.984314
0.219608 0.172549 0.988235
0.490196 0.156863 1.000000
0.741176 0.156863 0.992157
0.996078 0.247059 0.996078
0.000000 0.415686 0.996078
0.007843 0.427451 0.984314
0.450980 0.431373 0.996078
0.741176 0.450980 0.996078
1.000000 0.525490 1.000000
0.231373 0.764706 1.000000
0.349020 0.764706 1.000000
0.521569 0.756863 1.000000
0.760784 0.760784 1.000000
0.996078 0.788235 1.000000
0.596078 1.000000 0.996078
0.639216 1.000000 0.996078
0.709804 1.000000 0.996078
0.850980 1.000000 1.000000
1.000000 1.000000 1.000000
