loleis/其他/lut20种/Sports LUT #19.cube
TITLE "Sports LUT #19"
#LUT size
LUT_3D_SIZE 9
#LUT data points
0.000000 0.003922 0.000000
0.121569 0.000000 0.000000
0.278431 0.000000 0.011765
0.419608 0.003922 0.019608
0.576471 0.000000 0.031373
0.737255 0.000000 0.058824
0.886275 0.019608 0.090196
1.000000 0.070588 0.141176
0.996078 0.121569 0.192157
0.000000 0.141176 0.011765
0.141176 0.145098 0.019608
0.282353 0.145098 0.027451
0.431373 0.141176 0.027451
0.580392 0.149020 0.050980
0.741176 0.156863 0.078431
0.882353 0.164706 0.109804
0.992157 0.172549 0.152941
0.996078 0.203922 0.188235
0.011765 0.294118 0.043137
0.145098 0.286275 0.035294
0.294118 0.298039 0.039216
0.450980 0.298039 0.066667
0.592157 0.305882 0.098039
0.749020 0.309804 0.121569
0.886275 0.309804 0.141176
0.996078 0.313725 0.176471
1.000000 0.329412 0.227451
0.007843 0.443137 0.082353
0.141176 0.454902 0.074510
0.301961 0.458824 0.082353
0.458824 0.462745 0.094118
0.619608 0.466667 0.101961
0.752941 0.458824 0.141176
0.874510 0.454902 0.180392
1.000000 0.447059 0.203922
1.000000 0.447059 0.239216
0.007843 0.623529 0.109804
0.137255 0.631373 0.137255
0.309804 0.627451 0.121569
0.466667 0.627451 0.125490
0.627451 0.627451 0.141176
0.772549 0.619608 0.152941
0.890196 0.603922 0.192157
1.000000 0.596078 0.231373
1.000000 0.588235 0.282353
0.011765 0.768627 0.160784
0.152941 0.768627 0.168627
0.313725 0.768627 0.168627
0.458824 0.768627 0.176471
0.611765 0.760784 0.180392
0.752941 0.760784 0.192157
0.890196 0.749020 0.215686
1.000000 0.725490 0.250980
1.000000 0.717647 0.317647
0.125490 0.878431 0.207843
0.207843 0.874510 0.219608
0.321569 0.874510 0.219608
0.458824 0.878431 0.235294
0.592157 0.874510 0.239216
0.737255 0.870588 0.254902
0.862745 0.866667 0.262745
0.992157 0.847059 0.286275
1.000000 0.839216 0.352941
0.270588 0.976471 0.313725
0.325490 0.980392 0.333333
0.400000 0.972549 0.341176
0.501961 0.976471 0.337255
0.607843 0.964706 0.349020
0.733333 0.964706 0.368627
0.831373 0.964706 0.388235
0.968627 0.956863 0.403922
0.996078 0.956863 0.439216
0.450980 1.000000 0.478431
0.482353 1.000000 0.470588
0.513725 1.000000 0.474510
0.568627 0.996078 0.490196
0.650980 1.000000 0.498039
0.741176 1.000000 0.513725
0.827451 0.996078 0.533333
0.933333 1.000000 0.552941
0.996078 1.000000 0.584314
0.000000 0.000000 0.149020
0.121569 0.000000 0.160784
0.278431 0.000000 0.172549
0.423529 0.003922 0.184314
0.576471 0.000000 0.176471
0.741176 0.003922 0.200000
0.878431 0.000000 0.203922
1.000000 0.054902 0.223529
1.000000 0.121569 0.247059
0.000000 0.141176 0.168627
0.137255 0.137255 0.168627
0.278431 0.137255 0.184314
0.423529 0.141176 0.188235
0.584314 0.145098 0.192157
0.729412 0.149020 0.196078
0.866667 0.152941 0.203922
0.996078 0.164706 0.219608
1.000000 0.192157 0.243137
0.000000 0.294118 0.164706
0.125490 0.294118 0.184314
0.301961 0.298039 0.180392
0.439216 0.294118 0.192157
0.596078 0.301961 0.211765
0.745098 0.305882 0.211765
0.890196 0.301961 0.235294
0.996078 0.309804 0.235294
1.000000 0.313725 0.254902
0.007843 0.443137 0.176471
0.101961 0.454902 0.172549
0.286275 0.454902 0.184314
0.450980 0.454902 0.188235
0.603922 0.458824 0.192157
0.737255 0.454902 0.223529
0.866667 0.447059 0.235294
0.984314 0.443137 0.258824
1.000000 0.439216 0.266667
0.007843 0.615686 0.207843
0.082353 0.623529 0.196078
0.294118 0.619608 0.196078
0.462745 0.627451 0.203922
0.615686 0.623529 0.203922
0.760784 0.611765 0.215686
0.886275 0.596078 0.254902
0.996078 0.592157 0.290196
0.996078 0.584314 0.317647
0.000000 0.768627 0.223529
0.113725 0.760784 0.215686
0.305882 0.760784 0.223529
0.454902 0.760784 0.219608
0.603922 0.760784 0.231373
0.756863 0.756863 0.247059
0.886275 0.749020 0.254902
1.000000 0.725490 0.290196
1.000000 0.713725 0.356863
0.105882 0.870588 0.258824
0.192157 0.878431 0.270588
0.321569 0.874510 0.262745
0.450980 0.870588 0.262745
0.592157 0.866667 0.274510
0.729412 0.870588 0.290196
0.862745 0.858824 0.294118
0.964706 0.850980 0.309804
0.996078 0.839216 0.364706
0.286275 0.968627 0.345098
0.325490 0.972549 0.360784
0.403922 0.972549 0.356863
0.498039 0.972549 0.364706
0.600000 0.968627 0.380392
0.733333 0.964706 0.400000
0.835294 0.964706 0.411765
0.964706 0.952941 0.431373
0.996078 0.949020 0.486275
0.447059 1.000000 0.478431
0.466667 1.000000 0.486275
0.513725 1.000000 0.490196
0.572549 1.000000 0.509804
0.647059 1.000000 0.513725
0.745098 1.000000 0.529412
0.831373 1.000000 0.545098
0.929412 1.000000 0.560784
0.996078 1.000000 0.592157
0.000000 0.003922 0.298039
0.109804 0.003922 0.305882
0.278431 0.000000 0.325490
0.427451 0.000000 0.333333
0.584314 0.000000 0.329412
0.741176 0.000000 0.333333
0.886275 0.000000 0.329412
1.000000 0.023529 0.337255
1.000000 0.121569 0.341176
0.000000 0.125490 0.313725
0.090196 0.121569 0.313725
0.274510 0.117647 0.321569
0.431373 0.125490 0.321569
0.588235 0.129412 0.337255
0.737255 0.121569 0.329412
0.870588 0.133333 0.329412
1.000000 0.156863 0.341176
1.000000 0.192157 0.345098
0.000000 0.290196 0.341176
0.066667 0.294118 0.341176
0.278431 0.294118 0.329412
0.435294 0.294118 0.333333
0.596078 0.298039 0.337255
0.749020 0.294118 0.337255
0.878431 0.301961 0.333333
1.000000 0.305882 0.345098
1.000000 0.321569 0.356863
0.000000 0.450980 0.329412
0.000000 0.458824 0.321569
0.270588 0.454902 0.313725
0.450980 0.454902 0.321569
0.611765 0.450980 0.333333
0.741176 0.450980 0.337255
0.874510 0.443137 0.337255
0.988235 0.447059 0.345098
1.000000 0.447059 0.368627
0.000000 0.623529 0.309804
0.000000 0.623529 0.309804
0.266667 0.623529 0.309804
0.447059 0.619608 0.309804
0.619608 0.623529 0.317647
0.760784 0.603922 0.321569
0.878431 0.600000 0.349020
0.988235 0.592157 0.372549
1.000000 0.596078 0.388235
0.000000 0.768627 0.329412
0.050980 0.764706 0.329412
0.286275 0.768627 0.321569
0.450980 0.760784 0.333333
0.603922 0.756863 0.337255
0.749020 0.756863 0.329412
0.882353 0.745098 0.345098
1.000000 0.725490 0.380392
1.000000 0.721569 0.439216
0.086275 0.870588 0.349020
0.188235 0.874510 0.337255
0.317647 0.870588 0.356863
0.450980 0.870588 0.360784
0.592157 0.862745 0.364706
0.729412 0.866667 0.372549
0.862745 0.862745 0.384314
0.972549 0.858824 0.400000
0.996078 0.831373 0.431373
0.301961 0.972549 0.431373
0.337255 0.964706 0.431373
0.415686 0.972549 0.439216
0.498039 0.972549 0.435294
0.615686 0.964706 0.454902
0.721569 0.960784 0.462745
0.843137 0.960784 0.474510
0.960784 0.960784 0.490196
1.000000 0.952941 0.529412
0.470588 1.000000 0.525490
0.486275 1.000000 0.533333
0.521569 0.996078 0.541176
0.584314 1.000000 0.556863
0.650980 1.000000 0.556863
0.749020 0.996078 0.576471
0.831373 1.000000 0.580392
0.925490 0.996078 0.596078
1.000000 1.000000 0.623529
0.003922 0.003922 0.450980
0.113725 0.000000 0.443137
0.274510 0.000000 0.458824
0.427451 0.000000 0.458824
0.596078 0.000000 0.474510
0.745098 0.003922 0.466667
0.878431 0.003922 0.454902
1.000000 0.011765 0.470588
1.000000 0.156863 0.466667
0.000000 0.101961 0.443137
0.070588 0.109804 0.458824
0.266667 0.098039 0.447059
0.435294 0.082353 0.458824
0.592157 0.090196 0.462745
0.737255 0.090196 0.458824
0.882353 0.113725 0.450980
0.992157 0.160784 0.458824
1.000000 0.231373 0.470588
0.000000 0.282353 0.458824
0.000000 0.270588 0.462745
0.258824 0.274510 0.462745
0.450980 0.266667 0.470588
0.615686 0.278431 0.462745
0.756863 0.286275 0.466667
0.890196 0.298039 0.458824
0.996078 0.321569 0.470588
1.000000 0.349020 0.466667
0.003922 0.454902 0.466667
0.000000 0.454902 0.470588
0.243137 0.458824 0.486275
0.447059 0.450980 0.458824
0.592157 0.450980 0.466667
0.737255 0.454902 0.470588
0.878431 0.450980 0.470588
0.984314 0.458824 0.462745
1.000000 0.458824 0.478431
0.000000 0.627451 0.462745
0.000000 0.623529 0.466667
0.215686 0.627451 0.466667
0.435294 0.619608 0.454902
0.615686 0.619608 0.454902
0.760784 0.611765 0.470588
0.878431 0.603922 0.501961
0.984314 0.611765 0.494118
0.996078 0.611765 0.513725
0.000000 0.764706 0.466667
0.007843 0.764706 0.454902
0.270588 0.768627 0.466667
0.439216 0.760784 0.470588
0.600000 0.756863 0.470588
0.756863 0.756863 0.474510
0.886275 0.741176 0.474510
0.988235 0.733333 0.513725
0.992157 0.733333 0.545098
0.137255 0.866667 0.470588
0.215686 0.878431 0.490196
0.325490 0.870588 0.482353
0.462745 0.870588 0.482353
0.603922 0.866667 0.494118
0.725490 0.866667 0.490196
0.862745 0.866667 0.501961
0.980392 0.843137 0.525490
1.000000 0.835294 0.564706
0.349020 0.960784 0.529412
0.372549 0.972549 0.525490
0.435294 0.968627 0.537255
0.525490 0.964706 0.533333
0.623529 0.964706 0.545098
0.737255 0.960784 0.556863
0.847059 0.956863 0.556863
0.964706 0.952941 0.580392
1.000000 0.941176 0.600000
0.490196 1.000000 0.607843
0.521569 1.000000 0.611765
0.549020 0.996078 0.611765
0.607843 1.000000 0.611765
0.674510 1.000000 0.627451
0.749020 1.000000 0.623529
0.839216 1.000000 0.639216
0.929412 1.000000 0.654902
1.000000 0.996078 0.674510
0.000000 0.000000 0.588235
0.105882 0.003922 0.588235
0.270588 0.003922 0.588235
0.427451 0.000000 0.600000
0.592157 0.000000 0.607843
0.749020 0.000000 0.615686
0.890196 0.000000 0.596078
0.992157 0.003922 0.588235
1.000000 0.129412 0.588235
0.000000 0.098039 0.603922
0.066667 0.086275 0.596078
0.262745 0.082353 0.600000
0.439216 0.054902 0.600000
0.592157 0.027451 0.611765
0.752941 0.007843 0.603922
0.878431 0.066667 0.592157
0.988235 0.129412 0.584314
0.996078 0.207843 0.584314
0.000000 0.258824 0.607843
0.000000 0.258824 0.607843
0.239216 0.250980 0.615686
0.427451 0.250980 0.615686
0.600000 0.243137 0.619608
0.760784 0.254902 0.607843
0.894118 0.274510 0.603922
0.996078 0.305882 0.592157
1.000000 0.364706 0.603922
0.000000 0.431373 0.611765
0.000000 0.435294 0.615686
0.203922 0.423529 0.607843
0.419608 0.419608 0.623529
0.603922 0.419608 0.623529
0.756863 0.439216 0.607843
0.866667 0.450980 0.600000
0.976471 0.466667 0.600000
1.000000 0.486275 0.607843
0.007843 0.615686 0.631373
0.007843 0.615686 0.631373
0.211765 0.619608 0.631373
0.431373 0.619608 0.627451
0.607843 0.615686 0.611765
0.741176 0.615686 0.627451
0.858824 0.615686 0.635294
0.976471 0.615686 0.619608
1.000000 0.627451 0.643137
0.000000 0.768627 0.619608
0.035294 0.764706 0.619608
0.274510 0.764706 0.607843
0.447059 0.760784 0.623529
0.611765 0.756863 0.623529
0.752941 0.752941 0.619608
0.874510 0.745098 0.623529
0.968627 0.741176 0.654902
1.000000 0.741176 0.666667
0.164706 0.870588 0.615686
0.247059 0.870588 0.611765
0.360784 0.870588 0.619608
0.482353 0.870588 0.615686
0.607843 0.866667 0.623529
0.733333 0.870588 0.619608
0.858824 0.862745 0.627451
0.968627 0.847059 0.631373
1.000000 0.850980 0.666667
0.376471 0.960784 0.639216
0.411765 0.960784 0.623529
0.462745 0.960784 0.643137
0.541176 0.960784 0.639216
0.639216 0.964706 0.650980
0.737255 0.968627 0.654902
0.847059 0.956863 0.654902
0.956863 0.949020 0.658824
1.000000 0.949020 0.682353
0.517647 1.000000 0.674510
0.545098 0.996078 0.690196
0.564706 1.000000 0.682353
0.619608 1.000000 0.690196
0.682353 1.000000 0.698039
0.764706 1.000000 0.701961
0.843137 1.000000 0.705882
0.929412 0.996078 0.721569
1.000000 1.000000 0.737255
0.011765 0.000000 0.729412
0.105882 0.000000 0.721569
0.274510 0.000000 0.729412
0.427451 0.000000 0.741176
0.576471 0.003922 0.737255
0.721569 0.003922 0.741176
0.886275 0.000000 0.737255
0.996078 0.000000 0.721569
1.000000 0.101961 0.698039
0.003922 0.078431 0.721569
0.050980 0.070588 0.705882
0.250980 0.062745 0.729412
0.415686 0.035294 0.729412
0.564706 0.000000 0.721569
0.725490 0.000000 0.741176
0.874510 0.003922 0.725490
0.992157 0.070588 0.717647
1.000000 0.180392 0.694118
0.000000 0.239216 0.737255
0.000000 0.243137 0.737255
0.231373 0.235294 0.733333
0.411765 0.235294 0.741176
0.572549 0.231373 0.741176
0.737255 0.227451 0.745098
0.886275 0.239216 0.741176
0.992157 0.282353 0.725490
1.000000 0.337255 0.713725
0.000000 0.407843 0.733333
0.000000 0.407843 0.745098
0.164706 0.400000 0.737255
0.396078 0.396078 0.741176
0.568627 0.403922 0.741176
0.729412 0.400000 0.745098
0.874510 0.415686 0.725490
0.980392 0.443137 0.717647
0.992157 0.466667 0.705882
0.007843 0.576471 0.752941
0.000000 0.584314 0.749020
0.215686 0.580392 0.749020
0.411765 0.580392 0.749020
0.584314 0.580392 0.745098
0.737255 0.588235 0.749020
0.878431 0.596078 0.741176
0.976471 0.611765 0.733333
1.000000 0.623529 0.729412
0.000000 0.756863 0.752941
0.062745 0.749020 0.760784
0.282353 0.752941 0.756863
0.439216 0.752941 0.756863
0.596078 0.745098 0.749020
0.737255 0.741176 0.749020
0.858824 0.749020 0.745098
0.964706 0.745098 0.749020
0.996078 0.752941 0.756863
0.152941 0.874510 0.741176
0.227451 0.870588 0.725490
0.356863 0.866667 0.733333
0.474510 0.866667 0.733333
0.607843 0.862745 0.737255
0.733333 0.862745 0.749020
0.854902 0.854902 0.745098
0.956863 0.850980 0.745098
1.000000 0.839216 0.776471
0.380392 0.964706 0.749020
0.423529 0.960784 0.756863
0.462745 0.964706 0.741176
0.556863 0.960784 0.745098
0.650980 0.956863 0.752941
0.756863 0.952941 0.752941
0.850980 0.956863 0.756863
0.952941 0.952941 0.756863
1.000000 0.941176 0.772549
0.533333 0.996078 0.768627
0.560784 1.000000 0.768627
0.603922 1.000000 0.780392
0.643137 1.000000 0.776471
0.698039 1.000000 0.776471
0.772549 0.996078 0.780392
0.854902 1.000000 0.788235
0.925490 0.996078 0.792157
1.000000 1.000000 0.803922
0.000000 0.003922 0.854902
0.082353 0.000000 0.843137
0.254902 0.000000 0.847059
0.411765 0.000000 0.850980
0.560784 0.000000 0.854902
0.698039 0.000000 0.854902
0.843137 0.000000 0.854902
0.988235 0.003922 0.854902
1.000000 0.054902 0.843137
0.000000 0.054902 0.835294
0.035294 0.058824 0.835294
0.250980 0.050980 0.847059
0.403922 0.031373 0.847059
0.552941 0.000000 0.847059
0.698039 0.000000 0.847059
0.843137 0.000000 0.850980
0.992157 0.000000 0.850980
1.000000 0.152941 0.819608
0.007843 0.227451 0.850980
0.000000 0.231373 0.843137
0.219608 0.227451 0.854902
0.400000 0.223529 0.862745
0.556863 0.227451 0.854902
0.698039 0.219608 0.850980
0.850980 0.223529 0.858824
0.988235 0.254902 0.854902
1.000000 0.313725 0.819608
0.000000 0.380392 0.850980
0.000000 0.380392 0.847059
0.176471 0.380392 0.858824
0.380392 0.380392 0.858824
0.552941 0.384314 0.847059
0.698039 0.388235 0.854902
0.850980 0.392157 0.843137
0.984314 0.407843 0.854902
0.996078 0.447059 0.823529
0.000000 0.552941 0.862745
0.000000 0.552941 0.862745
0.215686 0.552941 0.847059
0.400000 0.552941 0.854902
0.552941 0.560784 0.854902
0.705882 0.560784 0.862745
0.854902 0.564706 0.858824
0.980392 0.584314 0.850980
1.000000 0.603922 0.850980
0.000000 0.713725 0.858824
0.137255 0.717647 0.858824
0.290196 0.713725 0.862745
0.435294 0.717647 0.866667
0.584314 0.717647 0.862745
0.721569 0.721569 0.854902
0.858824 0.725490 0.854902
0.952941 0.733333 0.847059
0.996078 0.749020 0.854902
0.192157 0.850980 0.850980
0.254902 0.850980 0.862745
0.352941 0.854902 0.858824
0.482353 0.850980 0.858824
0.603922 0.854902 0.862745
0.733333 0.858824 0.854902
0.850980 0.850980 0.850980
0.949020 0.854902 0.847059
0.996078 0.862745 0.866667
0.376471 0.960784 0.843137
0.403922 0.964706 0.854902
0.474510 0.960784 0.850980
0.552941 0.956863 0.843137
0.654902 0.964706 0.850980
0.760784 0.956863 0.858824
0.858824 0.952941 0.858824
0.952941 0.952941 0.858824
1.000000 0.941176 0.878431
0.545098 1.000000 0.839216
0.568627 1.000000 0.847059
0.603922 1.000000 0.843137
0.658824 1.000000 0.862745
0.733333 0.996078 0.858824
0.800000 1.000000 0.870588
0.866667 1.000000 0.870588
0.937255 1.000000 0.878431
1.000000 1.000000 0.882353
0.000000 0.000000 0.956863
0.086275 0.003922 0.956863
0.247059 0.000000 0.945098
0.396078 0.000000 0.956863
0.541176 0.000000 0.952941
0.682353 0.000000 0.952941
0.815686 0.000000 0.956863
0.956863 0.000000 0.960784
0.996078 0.000000 0.956863
0.000000 0.050980 0.945098
0.043137 0.054902 0.952941
0.239216 0.047059 0.952941
0.396078 0.035294 0.949020
0.529412 0.027451 0.949020
0.674510 0.011765 0.949020
0.807843 0.011765 0.949020
0.956863 0.047059 0.956863
0.996078 0.121569 0.949020
0.000000 0.219608 0.945098
0.000000 0.223529 0.956863
0.219608 0.223529 0.960784
0.384314 0.219608 0.956863
0.525490 0.227451 0.956863
0.678431 0.223529 0.956863
0.807843 0.239216 0.956863
0.952941 0.258824 0.956863
0.996078 0.282353 0.960784
0.000000 0.356863 0.941176
0.000000 0.372549 0.945098
0.192157 0.364706 0.956863
0.372549 0.372549 0.960784
0.525490 0.376471 0.952941
0.670588 0.376471 0.945098
0.811765 0.392157 0.949020
0.941176 0.400000 0.945098
0.996078 0.419608 0.941176
0.007843 0.521569 0.968627
0.000000 0.537255 0.952941
0.227451 0.529412 0.952941
0.388235 0.533333 0.952941
0.533333 0.537255 0.952941
0.678431 0.537255 0.952941
0.819608 0.552941 0.956863
0.956863 0.564706 0.952941
1.000000 0.584314 0.952941
0.109804 0.686275 0.949020
0.180392 0.694118 0.968627
0.309804 0.694118 0.949020
0.435294 0.690196 0.949020
0.572549 0.694118 0.949020
0.701961 0.701961 0.952941
0.823529 0.705882 0.949020
0.949020 0.713725 0.949020
0.996078 0.733333 0.945098
0.258824 0.823529 0.956863
0.301961 0.831373 0.949020
0.392157 0.827451 0.945098
0.494118 0.827451 0.949020
0.607843 0.831373 0.949020
0.729412 0.835294 0.949020
0.839216 0.839216 0.949020
0.945098 0.843137 0.941176
1.000000 0.854902 0.945098
0.415686 0.949020 0.949020
0.431373 0.952941 0.949020
0.494118 0.949020 0.945098
0.564706 0.949020 0.945098
0.662745 0.945098 0.941176
0.756863 0.945098 0.945098
0.866667 0.952941 0.945098
0.949020 0.949020 0.941176
0.996078 0.949020 0.949020
0.568627 1.000000 0.929412
0.588235 1.000000 0.941176
0.619608 1.000000 0.933333
0.662745 1.000000 0.937255
0.737255 1.000000 0.929412
0.815686 1.000000 0.937255
0.890196 1.000000 0.952941
0.949020 1.000000 0.952941
0.996078 0.996078 0.956863
0.003922 0.000000 0.996078
0.090196 0.000000 1.000000
0.254902 0.000000 1.000000
0.380392 0.000000 1.000000
0.513725 0.000000 1.000000
0.647059 0.000000 1.000000
0.772549 0.000000 1.000000
0.901961 0.047059 1.000000
1.000000 0.145098 1.000000
0.000000 0.066667 1.000000
0.062745 0.066667 1.000000
0.227451 0.070588 1.000000
0.376471 0.066667 1.000000
0.501961 0.070588 1.000000
0.639216 0.082353 1.000000
0.772549 0.101961 1.000000
0.894118 0.145098 0.996078
0.996078 0.200000 0.996078
0.000000 0.219608 0.996078
0.007843 0.227451 1.000000
0.227451 0.227451 0.996078
0.360784 0.231373 0.996078
0.509804 0.235294 0.996078
0.639216 0.243137 0.996078
0.776471 0.250980 1.000000
0.898039 0.278431 0.988235
1.000000 0.325490 1.000000
0.000000 0.352941 1.000000
0.003922 0.352941 0.996078
0.207843 0.360784 1.000000
0.360784 0.356863 1.000000
0.505882 0.368627 1.000000
0.639216 0.376471 0.996078
0.768627 0.388235 0.996078
0.898039 0.407843 1.000000
0.996078 0.443137 0.996078
0.003922 0.505882 0.996078
0.098039 0.509804 1.000000
0.258824 0.509804 0.996078
0.392157 0.517647 1.000000
0.521569 0.513725 0.996078
0.647059 0.533333 1.000000
0.780392 0.541176 1.000000
0.905882 0.560784 1.000000
1.000000 0.584314 1.000000
0.231373 0.662745 0.996078
0.262745 0.658824 1.000000
0.349020 0.670588 1.000000
0.458824 0.670588 1.000000
0.572549 0.674510 1.000000
0.678431 0.682353 1.000000
0.796078 0.690196 1.000000
0.909804 0.705882 1.000000
1.000000 0.721569 1.000000
0.352941 0.800000 0.996078
0.388235 0.796078 1.000000
0.447059 0.800000 0.996078
0.525490 0.800000 1.000000
0.619608 0.807843 1.000000
0.725490 0.811765 0.996078
0.831373 0.827451 1.000000
0.921569 0.831373 0.996078
1.000000 0.843137 1.000000
0.494118 0.909804 1.000000
0.525490 0.909804 1.000000
0.545098 0.917647 0.996078
0.615686 0.917647 0.996078
0.690196 0.917647 0.996078
0.776471 0.925490 1.000000
0.866667 0.933333 0.996078
0.945098 0.941176 1.000000
1.000000 0.949020 0.988235
0.607843 1.000000 1.000000
0.627451 0.996078 1.000000
0.654902 1.000000 1.000000
0.701961 1.000000 1.000000
0.760784 1.000000 1.000000
0.827451 1.000000 0.996078
0.901961 1.000000 0.992157
0.964706 1.000000 1.000000
1.000000 1.000000 1.000000
