loleis/其他/lut20种/Sports LUT #3.cube
TITLE "Sports LUT #3"
#LUT size
LUT_3D_SIZE 25
#LUT data points
0.000000 0.000000 0.000000
0.039216 0.000000 0.000000
0.094118 0.000000 0.000000
0.149020 0.000000 0.000000
0.200000 0.000000 0.000000
0.250980 0.000000 0.000000
0.294118 0.003922 0.000000
0.349020 0.003922 0.000000
0.392157 0.000000 0.000000
0.435294 0.003922 0.000000
0.486275 0.007843 0.003922
0.525490 0.007843 0.000000
0.576471 0.015686 0.000000
0.619608 0.019608 0.000000
0.674510 0.019608 0.000000
0.717647 0.019608 0.003922
0.756863 0.023529 0.003922
0.800000 0.019608 0.007843
0.843137 0.019608 0.015686
0.878431 0.015686 0.023529
0.921569 0.007843 0.023529
0.964706 0.003922 0.035294
1.000000 0.000000 0.054902
1.000000 0.000000 0.062745
1.000000 0.000000 0.062745
0.000000 0.043137 0.003922
0.050980 0.043137 0.000000
0.094118 0.047059 0.000000
0.149020 0.047059 0.000000
0.200000 0.050980 0.000000
0.250980 0.047059 0.000000
0.301961 0.050980 0.003922
0.337255 0.047059 0.000000
0.392157 0.054902 0.003922
0.435294 0.054902 0.000000
0.482353 0.062745 0.000000
0.525490 0.066667 0.000000
0.568627 0.070588 0.003922
0.623529 0.070588 0.000000
0.662745 0.070588 0.003922
0.713725 0.078431 0.000000
0.756863 0.070588 0.000000
0.796078 0.070588 0.000000
0.831373 0.074510 0.015686
0.882353 0.070588 0.031373
0.929412 0.058824 0.039216
0.968627 0.050980 0.047059
1.000000 0.047059 0.047059
1.000000 0.035294 0.054902
0.996078 0.027451 0.062745
0.000000 0.086275 0.000000
0.050980 0.086275 0.003922
0.090196 0.098039 0.003922
0.141176 0.101961 0.000000
0.203922 0.094118 0.000000
0.243137 0.098039 0.000000
0.294118 0.098039 0.000000
0.341176 0.098039 0.000000
0.392157 0.101961 0.000000
0.431373 0.101961 0.000000
0.474510 0.105882 0.003922
0.521569 0.109804 0.000000
0.572549 0.109804 0.000000
0.619608 0.113725 0.000000
0.666667 0.113725 0.000000
0.705882 0.113725 0.000000
0.752941 0.109804 0.000000
0.792157 0.109804 0.003922
0.831373 0.109804 0.015686
0.874510 0.101961 0.027451
0.921569 0.098039 0.031373
0.960784 0.098039 0.043137
1.000000 0.098039 0.047059
0.996078 0.090196 0.058824
1.000000 0.086275 0.070588
0.003922 0.141176 0.011765
0.050980 0.133333 0.003922
0.105882 0.145098 0.000000
0.145098 0.145098 0.003922
0.200000 0.145098 0.000000
0.247059 0.149020 0.000000
0.298039 0.149020 0.000000
0.341176 0.149020 0.000000
0.384314 0.152941 0.000000
0.431373 0.149020 0.000000
0.466667 0.156863 0.003922
0.513725 0.152941 0.000000
0.564706 0.160784 0.000000
0.615686 0.156863 0.000000
0.662745 0.164706 0.003922
0.705882 0.160784 0.000000
0.752941 0.156863 0.003922
0.792157 0.156863 0.007843
0.831373 0.152941 0.019608
0.870588 0.145098 0.027451
0.909804 0.141176 0.039216
0.956863 0.141176 0.039216
1.000000 0.133333 0.050980
1.000000 0.133333 0.062745
0.992157 0.133333 0.058824
0.007843 0.196078 0.007843
0.050980 0.196078 0.000000
0.105882 0.196078 0.000000
0.156863 0.196078 0.000000
0.203922 0.188235 0.000000
0.247059 0.192157 0.000000
0.294118 0.192157 0.000000
0.337255 0.196078 0.000000
0.388235 0.188235 0.003922
0.435294 0.192157 0.007843
0.470588 0.196078 0.000000
0.509804 0.207843 0.003922
0.560784 0.203922 0.000000
0.611765 0.203922 0.000000
0.658824 0.207843 0.000000
0.701961 0.203922 0.000000
0.741176 0.200000 0.007843
0.780392 0.200000 0.011765
0.827451 0.196078 0.023529
0.866667 0.196078 0.027451
0.905882 0.184314 0.043137
0.945098 0.184314 0.043137
0.984314 0.184314 0.054902
1.000000 0.180392 0.058824
0.996078 0.176471 0.058824
0.000000 0.254902 0.000000
0.047059 0.250980 0.000000
0.101961 0.254902 0.000000
0.152941 0.254902 0.000000
0.203922 0.250980 0.000000
0.254902 0.250980 0.000000
0.294118 0.250980 0.000000
0.345098 0.250980 0.007843
0.388235 0.250980 0.000000
0.427451 0.250980 0.000000
0.478431 0.250980 0.000000
0.525490 0.254902 0.000000
0.572549 0.254902 0.000000
0.627451 0.262745 0.000000
0.678431 0.254902 0.000000
0.721569 0.250980 0.003922
0.764706 0.254902 0.019608
0.800000 0.250980 0.019608
0.835294 0.243137 0.027451
0.878431 0.247059 0.043137
0.925490 0.239216 0.054902
0.968627 0.235294 0.058824
1.000000 0.231373 0.066667
1.000000 0.231373 0.074510
1.000000 0.227451 0.090196
0.000000 0.294118 0.000000
0.054902 0.294118 0.000000
0.101961 0.298039 0.011765
0.141176 0.290196 0.000000
0.200000 0.294118 0.000000
0.250980 0.290196 0.003922
0.282353 0.290196 0.000000
0.333333 0.298039 0.003922
0.384314 0.298039 0.003922
0.435294 0.294118 0.003922
0.478431 0.298039 0.000000
0.525490 0.301961 0.000000
0.572549 0.301961 0.000000
0.627451 0.305882 0.007843
0.674510 0.309804 0.007843
0.709804 0.301961 0.023529
0.756863 0.298039 0.027451
0.800000 0.294118 0.035294
0.839216 0.290196 0.047059
0.886275 0.286275 0.058824
0.925490 0.286275 0.062745
0.968627 0.282353 0.074510
1.000000 0.274510 0.074510
1.000000 0.274510 0.090196
1.000000 0.274510 0.090196
0.007843 0.341176 0.007843
0.050980 0.341176 0.000000
0.098039 0.341176 0.003922
0.152941 0.341176 0.003922
0.200000 0.341176 0.000000
0.239216 0.341176 0.000000
0.286275 0.341176 0.000000
0.333333 0.345098 0.003922
0.384314 0.345098 0.003922
0.427451 0.341176 0.003922
0.478431 0.345098 0.003922
0.525490 0.352941 0.011765
0.572549 0.352941 0.011765
0.615686 0.352941 0.011765
0.670588 0.349020 0.019608
0.709804 0.345098 0.031373
0.749020 0.345098 0.035294
0.792157 0.337255 0.043137
0.831373 0.333333 0.054902
0.874510 0.329412 0.066667
0.921569 0.325490 0.070588
0.960784 0.325490 0.082353
1.000000 0.317647 0.078431
1.000000 0.325490 0.082353
1.000000 0.317647 0.094118
0.003922 0.384314 0.003922
0.043137 0.388235 0.000000
0.094118 0.392157 0.000000
0.141176 0.392157 0.011765
0.196078 0.392157 0.019608
0.235294 0.392157 0.011765
0.286275 0.392157 0.019608
0.333333 0.396078 0.011765
0.372549 0.396078 0.011765
0.419608 0.396078 0.011765
0.470588 0.400000 0.015686
0.521569 0.392157 0.011765
0.568627 0.396078 0.015686
0.615686 0.403922 0.027451
0.658824 0.400000 0.031373
0.705882 0.396078 0.035294
0.741176 0.392157 0.039216
0.784314 0.384314 0.054902
0.819608 0.380392 0.058824
0.866667 0.372549 0.070588
0.905882 0.372549 0.074510
0.952941 0.372549 0.090196
1.000000 0.368627 0.086275
0.996078 0.364706 0.090196
1.000000 0.364706 0.101961
0.000000 0.439216 0.015686
0.019608 0.443137 0.015686
0.066667 0.443137 0.019608
0.137255 0.439216 0.023529
0.180392 0.447059 0.011765
0.235294 0.443137 0.019608
0.286275 0.439216 0.011765
0.329412 0.443137 0.011765
0.372549 0.447059 0.023529
0.419608 0.450980 0.023529
0.470588 0.443137 0.023529
0.517647 0.447059 0.023529
0.568627 0.447059 0.023529
0.611765 0.443137 0.031373
0.654902 0.439216 0.035294
0.701961 0.435294 0.047059
0.737255 0.427451 0.054902
0.772549 0.415686 0.066667
0.815686 0.419608 0.074510
0.854902 0.415686 0.078431
0.901961 0.411765 0.082353
0.945098 0.407843 0.090196
0.992157 0.407843 0.094118
1.000000 0.403922 0.098039
1.000000 0.400000 0.094118
0.000000 0.517647 0.035294
0.007843 0.517647 0.031373
0.054902 0.517647 0.035294
0.121569 0.517647 0.039216
0.184314 0.513725 0.035294
0.239216 0.513725 0.027451
0.282353 0.517647 0.031373
0.341176 0.521569 0.035294
0.392157 0.517647 0.035294
0.435294 0.513725 0.039216
0.486275 0.517647 0.043137
0.533333 0.513725 0.043137
0.580392 0.513725 0.050980
0.623529 0.505882 0.058824
0.666667 0.498039 0.058824
0.701961 0.490196 0.066667
0.752941 0.482353 0.086275
0.796078 0.470588 0.094118
0.835294 0.470588 0.098039
0.874510 0.470588 0.105882
0.917647 0.466667 0.109804
0.964706 0.462745 0.105882
1.000000 0.458824 0.109804
1.000000 0.462745 0.113725
1.000000 0.462745 0.117647
0.000000 0.552941 0.043137
0.000000 0.552941 0.039216
0.007843 0.556863 0.043137
0.098039 0.568627 0.047059
0.160784 0.556863 0.039216
0.219608 0.560784 0.047059
0.282353 0.560784 0.043137
0.325490 0.556863 0.050980
0.376471 0.560784 0.050980
0.431373 0.560784 0.050980
0.474510 0.556863 0.050980
0.529412 0.552941 0.058824
0.572549 0.549020 0.062745
0.619608 0.549020 0.062745
0.666667 0.541176 0.066667
0.694118 0.533333 0.086275
0.737255 0.529412 0.090196
0.788235 0.521569 0.101961
0.827451 0.517647 0.105882
0.874510 0.513725 0.109804
0.917647 0.513725 0.117647
0.956863 0.513725 0.113725
0.996078 0.513725 0.109804
0.988235 0.509804 0.121569
0.996078 0.517647 0.121569
0.000000 0.588235 0.066667
0.000000 0.596078 0.054902
0.003922 0.603922 0.054902
0.070588 0.603922 0.070588
0.141176 0.596078 0.058824
0.207843 0.600000 0.074510
0.254902 0.600000 0.066667
0.313725 0.600000 0.074510
0.360784 0.596078 0.070588
0.407843 0.596078 0.066667
0.462745 0.592157 0.070588
0.509804 0.596078 0.070588
0.564706 0.592157 0.074510
0.603922 0.588235 0.066667
0.654902 0.580392 0.078431
0.694118 0.576471 0.090196
0.737255 0.572549 0.101961
0.780392 0.564706 0.105882
0.823529 0.560784 0.117647
0.870588 0.556863 0.113725
0.913725 0.552941 0.117647
0.964706 0.552941 0.125490
1.000000 0.552941 0.133333
1.000000 0.545098 0.129412
0.988235 0.556863 0.121569
0.000000 0.623529 0.090196
0.000000 0.647059 0.082353
0.007843 0.627451 0.090196
0.035294 0.635294 0.070588
0.133333 0.639216 0.082353
0.188235 0.627451 0.086275
0.239216 0.635294 0.094118
0.294118 0.635294 0.090196
0.349020 0.631373 0.090196
0.392157 0.631373 0.086275
0.447059 0.631373 0.090196
0.498039 0.623529 0.086275
0.549020 0.619608 0.086275
0.596078 0.619608 0.086275
0.643137 0.615686 0.098039
0.686275 0.611765 0.098039
0.729412 0.607843 0.117647
0.776471 0.603922 0.113725
0.815686 0.603922 0.125490
0.854902 0.596078 0.113725
0.901961 0.592157 0.125490
0.956863 0.596078 0.113725
1.000000 0.592157 0.129412
1.000000 0.584314 0.117647
1.000000 0.596078 0.129412
0.011765 0.662745 0.105882
0.000000 0.674510 0.109804
0.000000 0.670588 0.098039
0.000000 0.674510 0.109804
0.109804 0.674510 0.098039
0.172549 0.674510 0.105882
0.231373 0.670588 0.105882
0.286275 0.670588 0.101961
0.333333 0.666667 0.105882
0.384314 0.662745 0.105882
0.439216 0.662745 0.101961
0.490196 0.666667 0.105882
0.537255 0.666667 0.113725
0.576471 0.658824 0.105882
0.627451 0.662745 0.109804
0.682353 0.658824 0.109804
0.725490 0.654902 0.113725
0.764706 0.650980 0.117647
0.807843 0.643137 0.117647
0.850980 0.635294 0.129412
0.901961 0.639216 0.125490
0.941176 0.639216 0.129412
0.976471 0.635294 0.129412
0.996078 0.631373 0.125490
0.996078 0.627451 0.133333
0.003922 0.737255 0.145098
0.000000 0.737255 0.141176
0.000000 0.737255 0.133333
0.011765 0.737255 0.129412
0.078431 0.733333 0.137255
0.172549 0.733333 0.145098
0.231373 0.729412 0.137255
0.286275 0.737255 0.137255
0.341176 0.725490 0.141176
0.392157 0.729412 0.145098
0.443137 0.729412 0.137255
0.486275 0.721569 0.133333
0.545098 0.717647 0.133333
0.588235 0.717647 0.133333
0.643137 0.713725 0.141176
0.690196 0.709804 0.145098
0.737255 0.713725 0.141176
0.776471 0.705882 0.141176
0.827451 0.705882 0.149020
0.866667 0.698039 0.145098
0.913725 0.694118 0.149020
0.956863 0.694118 0.145098
0.996078 0.694118 0.152941
1.000000 0.690196 0.160784
1.000000 0.694118 0.164706
0.000000 0.764706 0.141176
0.000000 0.756863 0.149020
0.000000 0.764706 0.152941
0.000000 0.756863 0.137255
0.058824 0.764706 0.149020
0.141176 0.768627 0.149020
0.211765 0.764706 0.152941
0.278431 0.764706 0.152941
0.329412 0.764706 0.152941
0.380392 0.760784 0.152941
0.427451 0.752941 0.149020
0.478431 0.756863 0.152941
0.533333 0.752941 0.152941
0.580392 0.756863 0.156863
0.623529 0.752941 0.152941
0.678431 0.752941 0.149020
0.729412 0.749020 0.152941
0.772549 0.745098 0.156863
0.823529 0.745098 0.160784
0.874510 0.741176 0.156863
0.917647 0.737255 0.156863
0.964706 0.741176 0.156863
1.000000 0.741176 0.160784
0.996078 0.745098 0.160784
1.000000 0.741176 0.160784
0.003922 0.800000 0.145098
0.000000 0.803922 0.164706
0.000000 0.803922 0.156863
0.000000 0.803922 0.164706
0.035294 0.807843 0.152941
0.129412 0.800000 0.149020
0.207843 0.800000 0.152941
0.258824 0.803922 0.156863
0.321569 0.800000 0.160784
0.368627 0.803922 0.160784
0.423529 0.796078 0.160784
0.474510 0.796078 0.160784
0.529412 0.796078 0.164706
0.572549 0.792157 0.160784
0.627451 0.792157 0.156863
0.670588 0.788235 0.160784
0.721569 0.792157 0.164706
0.764706 0.788235 0.168627
0.819608 0.784314 0.168627
0.862745 0.784314 0.168627
0.909804 0.784314 0.156863
0.956863 0.784314 0.168627
1.000000 0.780392 0.164706
0.996078 0.784314 0.164706
1.000000 0.788235 0.172549
0.000000 0.831373 0.156863
0.003922 0.831373 0.176471
0.000000 0.839216 0.160784
0.000000 0.847059 0.184314
0.000000 0.839216 0.160784
0.129412 0.839216 0.160784
0.192157 0.843137 0.168627
0.254902 0.843137 0.176471
0.317647 0.843137 0.168627
0.372549 0.839216 0.172549
0.419608 0.843137 0.172549
0.470588 0.835294 0.172549
0.517647 0.839216 0.172549
0.576471 0.835294 0.168627
0.623529 0.831373 0.164706
0.674510 0.827451 0.172549
0.721569 0.831373 0.164706
0.764706 0.823529 0.176471
0.811765 0.823529 0.160784
0.854902 0.819608 0.164706
0.905882 0.823529 0.168627
0.945098 0.823529 0.172549
1.000000 0.819608 0.168627
1.000000 0.815686 0.168627
1.000000 0.827451 0.172549
0.000000 0.878431 0.180392
0.000000 0.882353 0.176471
0.003922 0.874510 0.188235
0.003922 0.878431 0.184314
0.007843 0.882353 0.180392
0.105882 0.882353 0.196078
0.200000 0.874510 0.192157
0.266667 0.882353 0.196078
0.317647 0.878431 0.188235
0.364706 0.878431 0.180392
0.419608 0.882353 0.176471
0.474510 0.878431 0.176471
0.525490 0.878431 0.188235
0.564706 0.874510 0.180392
0.615686 0.866667 0.180392
0.662745 0.870588 0.172549
0.713725 0.870588 0.180392
0.756863 0.870588 0.180392
0.807843 0.866667 0.172549
0.854902 0.866667 0.180392
0.901961 0.862745 0.172549
0.949020 0.866667 0.172549
0.996078 0.866667 0.180392
1.000000 0.862745 0.184314
0.996078 0.866667 0.180392
0.000000 0.949020 0.227451
0.000000 0.949020 0.231373
0.000000 0.949020 0.231373
0.000000 0.952941 0.223529
0.066667 0.952941 0.227451
0.164706 0.945098 0.235294
0.223529 0.945098 0.223529
0.270588 0.945098 0.223529
0.333333 0.941176 0.203922
0.380392 0.941176 0.211765
0.439216 0.941176 0.215686
0.486275 0.941176 0.215686
0.537255 0.937255 0.211765
0.584314 0.937255 0.215686
0.635294 0.933333 0.211765
0.674510 0.933333 0.207843
0.729412 0.925490 0.207843
0.776471 0.925490 0.207843
0.819608 0.929412 0.211765
0.870588 0.925490 0.203922
0.917647 0.925490 0.200000
0.960784 0.921569 0.196078
1.000000 0.917647 0.207843
1.000000 0.917647 0.215686
1.000000 0.913725 0.223529
0.000000 0.968627 0.215686
0.011765 0.972549 0.223529
0.000000 0.976471 0.207843
0.007843 0.988235 0.227451
0.054902 0.984314 0.231373
0.145098 0.984314 0.223529
0.223529 0.984314 0.231373
0.286275 0.980392 0.227451
0.333333 0.980392 0.231373
0.388235 0.980392 0.231373
0.435294 0.984314 0.227451
0.486275 0.976471 0.223529
0.533333 0.976471 0.215686
0.584314 0.976471 0.215686
0.631373 0.972549 0.215686
0.686275 0.972549 0.207843
0.729412 0.968627 0.215686
0.776471 0.972549 0.215686
0.815686 0.972549 0.215686
0.870588 0.968627 0.223529
0.913725 0.964706 0.215686
0.960784 0.964706 0.223529
1.000000 0.960784 0.231373
1.000000 0.960784 0.231373
0.996078 0.964706 0.235294
0.000000 1.000000 0.215686
0.011765 0.996078 0.239216
0.000000 1.000000 0.235294
0.003922 1.000000 0.239216
0.066667 0.996078 0.235294
0.176471 0.996078 0.254902
0.231373 1.000000 0.239216
0.290196 1.000000 0.243137
0.337255 1.000000 0.247059
0.392157 1.000000 0.239216
0.435294 1.000000 0.239216
0.486275 1.000000 0.239216
0.537255 1.000000 0.231373
0.584314 1.000000 0.239216
0.631373 0.996078 0.231373
0.678431 1.000000 0.231373
0.721569 0.996078 0.231373
0.772549 1.000000 0.231373
0.819608 1.000000 0.235294
0.858824 1.000000 0.231373
0.905882 0.996078 0.227451
0.952941 1.000000 0.239216
0.996078 0.996078 0.235294
1.000000 1.000000 0.258824
0.992157 0.996078 0.243137
0.000000 1.000000 0.247059
0.000000 1.000000 0.254902
0.000000 0.992157 0.250980
0.015686 1.000000 0.243137
0.125490 1.000000 0.258824
0.180392 1.000000 0.258824
0.239216 1.000000 0.266667
0.294118 0.996078 0.258824
0.345098 0.996078 0.258824
0.396078 0.996078 0.262745
0.435294 0.996078 0.250980
0.486275 1.000000 0.254902
0.533333 1.000000 0.254902
0.572549 1.000000 0.254902
0.623529 1.000000 0.262745
0.666667 1.000000 0.247059
0.717647 1.000000 0.254902
0.760784 1.000000 0.247059
0.800000 1.000000 0.250980
0.843137 1.000000 0.243137
0.890196 0.996078 0.254902
0.933333 1.000000 0.254902
0.960784 1.000000 0.258824
0.996078 1.000000 0.262745
1.000000 1.000000 0.270588
0.003922 1.000000 0.278431
0.000000 1.000000 0.278431
0.066667 1.000000 0.278431
0.121569 1.000000 0.290196
0.176471 0.996078 0.290196
0.227451 1.000000 0.294118
0.266667 1.000000 0.286275
0.305882 1.000000 0.290196
0.341176 1.000000 0.282353
0.392157 1.000000 0.294118
0.435294 0.996078 0.290196
0.478431 1.000000 0.294118
0.525490 1.000000 0.282353
0.568627 1.000000 0.282353
0.611765 1.000000 0.282353
0.650980 1.000000 0.286275
0.694118 1.000000 0.294118
0.733333 1.000000 0.290196
0.772549 1.000000 0.286275
0.819608 0.996078 0.294118
0.862745 1.000000 0.294118
0.901961 1.000000 0.294118
0.945098 0.996078 0.298039
0.972549 1.000000 0.309804
0.988235 1.000000 0.313725
0.007843 0.000000 0.050980
0.047059 0.000000 0.054902
0.101961 0.000000 0.054902
0.137255 0.003922 0.058824
0.192157 0.003922 0.050980
0.250980 0.000000 0.054902
0.298039 0.000000 0.047059
0.352941 0.000000 0.047059
0.396078 0.000000 0.054902
0.439216 0.000000 0.054902
0.486275 0.000000 0.050980
0.525490 0.000000 0.050980
0.576471 0.003922 0.054902
0.619608 0.007843 0.050980
0.670588 0.015686 0.047059
0.709804 0.015686 0.054902
0.752941 0.019608 0.062745
0.800000 0.015686 0.058824
0.843137 0.019608 0.070588
0.882353 0.015686 0.074510
0.925490 0.015686 0.078431
0.960784 0.007843 0.078431
0.996078 0.000000 0.094118
0.996078 0.000000 0.101961
0.992157 0.003922 0.101961
0.000000 0.047059 0.047059
0.039216 0.039216 0.039216
0.090196 0.050980 0.047059
0.141176 0.039216 0.050980
0.200000 0.039216 0.054902
0.250980 0.035294 0.047059
0.309804 0.039216 0.050980
0.349020 0.043137 0.043137
0.396078 0.043137 0.050980
0.439216 0.047059 0.047059
0.478431 0.047059 0.043137
0.525490 0.054902 0.050980
0.568627 0.058824 0.050980
0.623529 0.066667 0.058824
0.670588 0.074510 0.062745
0.713725 0.070588 0.062745
0.756863 0.066667 0.066667
0.796078 0.066667 0.070588
0.831373 0.070588 0.070588
0.874510 0.066667 0.074510
0.917647 0.058824 0.082353
0.964706 0.058824 0.090196
1.000000 0.050980 0.098039
1.000000 0.039216 0.098039
1.000000 0.035294 0.109804
0.000000 0.090196 0.050980
0.031373 0.094118 0.043137
0.094118 0.094118 0.047059
0.149020 0.094118 0.050980
0.192157 0.101961 0.047059
0.250980 0.094118 0.054902
0.290196 0.094118 0.050980
0.341176 0.098039 0.054902
0.388235 0.098039 0.054902
0.431373 0.105882 0.050980
0.478431 0.101961 0.047059
0.521569 0.105882 0.050980
0.568627 0.109804 0.043137
0.623529 0.113725 0.058824
0.662745 0.113725 0.054902
0.709804 0.113725 0.062745
0.749020 0.113725 0.062745
0.788235 0.113725 0.066667
0.827451 0.113725 0.070588
0.866667 0.109804 0.074510
0.909804 0.109804 0.082353
0.956863 0.101961 0.094118
1.000000 0.101961 0.090196
0.992157 0.090196 0.098039
1.000000 0.082353 0.109804
0.000000 0.133333 0.035294
0.039216 0.141176 0.035294
0.094118 0.152941 0.039216
0.149020 0.149020 0.054902
0.203922 0.145098 0.054902
0.247059 0.145098 0.054902
0.294118 0.145098 0.054902
0.341176 0.145098 0.054902
0.380392 0.145098 0.043137
0.423529 0.149020 0.047059
0.470588 0.152941 0.047059
0.521569 0.152941 0.050980
0.568627 0.152941 0.050980
0.619608 0.156863 0.054902
0.662745 0.160784 0.054902
0.705882 0.156863 0.058824
0.745098 0.156863 0.058824
0.784314 0.156863 0.070588
0.823529 0.156863 0.066667
0.862745 0.145098 0.082353
0.901961 0.145098 0.078431
0.949020 0.141176 0.086275
1.000000 0.129412 0.086275
1.000000 0.129412 0.101961
0.996078 0.137255 0.121569
0.000000 0.192157 0.047059
0.043137 0.192157 0.047059
0.105882 0.192157 0.050980
0.152941 0.200000 0.050980
0.192157 0.192157 0.050980
0.250980 0.196078 0.058824
0.294118 0.192157 0.047059
0.337255 0.200000 0.050980
0.376471 0.196078 0.054902
0.427451 0.200000 0.054902
0.470588 0.196078 0.054902
0.521569 0.196078 0.062745
0.568627 0.200000 0.058824
0.607843 0.200000 0.054902
0.662745 0.207843 0.054902
0.701961 0.207843 0.058824
0.741176 0.203922 0.062745
0.776471 0.200000 0.070588
0.819608 0.196078 0.078431
0.854902 0.192157 0.078431
0.894118 0.188235 0.090196
0.937255 0.188235 0.086275
0.988235 0.180392 0.090196
1.000000 0.176471 0.094118
0.996078 0.176471 0.090196
0.003922 0.247059 0.047059
0.050980 0.247059 0.047059
0.105882 0.250980 0.050980
0.145098 0.250980 0.050980
0.200000 0.247059 0.050980
0.258824 0.243137 0.054902
0.298039 0.243137 0.050980
0.349020 0.243137 0.058824
0.384314 0.254902 0.054902
0.431373 0.250980 0.058824
0.474510 0.247059 0.058824
0.525490 0.250980 0.058824
0.580392 0.250980 0.066667
0.627451 0.258824 0.058824
0.674510 0.258824 0.070588
0.717647 0.254902 0.066667
0.749020 0.250980 0.082353
0.792157 0.247059 0.086275
0.827451 0.243137 0.086275
0.866667 0.243137 0.090196
0.913725 0.239216 0.090196
0.956863 0.235294 0.094118
0.996078 0.231373 0.105882
1.000000 0.235294 0.117647
0.996078 0.227451 0.125490
0.000000 0.298039 0.054902
0.058824 0.294118 0.058824
0.098039 0.290196 0.070588
0.149020 0.298039 0.058824
0.196078 0.290196 0.054902
0.250980 0.294118 0.066667
0.274510 0.298039 0.062745
0.333333 0.298039 0.066667
0.376471 0.298039 0.066667
0.423529 0.298039 0.066667
0.470588 0.298039 0.058824
0.521569 0.301961 0.062745
0.572549 0.305882 0.066667
0.623529 0.301961 0.066667
0.670588 0.301961 0.062745
0.709804 0.298039 0.074510
0.752941 0.294118 0.082353
0.792157 0.294118 0.086275
0.831373 0.294118 0.090196
0.866667 0.290196 0.090196
0.913725 0.286275 0.098039
0.960784 0.282353 0.113725
0.996078 0.278431 0.113725
0.992157 0.282353 0.113725
0.992157 0.278431 0.125490
0.003922 0.341176 0.062745
0.054902 0.337255 0.050980
0.098039 0.337255 0.066667
0.145098 0.341176 0.062745
0.200000 0.341176 0.058824
0.239216 0.337255 0.070588
0.282353 0.345098 0.066667
0.333333 0.345098 0.074510
0.380392 0.349020 0.066667
0.423529 0.345098 0.066667
0.462745 0.345098 0.062745
0.517647 0.352941 0.070588
0.564706 0.352941 0.070588
0.615686 0.352941 0.074510
0.670588 0.345098 0.070588
0.709804 0.345098 0.074510
0.745098 0.341176 0.082353
0.784314 0.337255 0.090196
0.823529 0.329412 0.098039
0.862745 0.329412 0.101961
0.909804 0.325490 0.105882
0.952941 0.321569 0.109804
0.992157 0.329412 0.113725
1.000000 0.317647 0.109804
1.000000 0.317647 0.121569
0.003922 0.384314 0.066667
0.047059 0.388235 0.070588
0.098039 0.380392 0.082353
0.133333 0.388235 0.066667
0.200000 0.392157 0.074510
0.235294 0.388235 0.070588
0.282353 0.388235 0.070588
0.333333 0.392157 0.074510
0.372549 0.392157 0.070588
0.419608 0.392157 0.074510
0.462745 0.396078 0.074510
0.517647 0.396078 0.074510
0.564706 0.400000 0.078431
0.619608 0.400000 0.074510
0.654902 0.392157 0.082353
0.698039 0.388235 0.078431
0.737255 0.384314 0.086275
0.776471 0.376471 0.086275
0.815686 0.372549 0.098039
0.854902 0.372549 0.105882
0.898039 0.368627 0.109804
0.945098 0.360784 0.101961
1.000000 0.364706 0.113725
1.000000 0.364706 0.109804
1.000000 0.364706 0.121569
0.000000 0.435294 0.074510
0.027451 0.443137 0.090196
0.074510 0.443137 0.074510
0.129412 0.439216 0.078431
0.184314 0.439216 0.070588
0.235294 0.443137 0.082353
0.282353 0.443137 0.074510
0.321569 0.443137 0.074510
0.372549 0.439216 0.078431
0.419608 0.439216 0.078431
0.466667 0.439216 0.082353
0.509804 0.443137 0.082353
0.556863 0.443137 0.074510
0.600000 0.439216 0.078431
0.650980 0.435294 0.082353
0.694118 0.427451 0.094118
0.737255 0.419608 0.101961
0.772549 0.415686 0.105882
0.815686 0.411765 0.101961
0.854902 0.411765 0.105882
0.901961 0.407843 0.109804
0.941176 0.407843 0.117647
0.984314 0.403922 0.113725
1.000000 0.403922 0.117647
1.000000 0.396078 0.113725
0.000000 0.513725 0.094118
0.000000 0.509804 0.082353
0.050980 0.513725 0.082353
0.125490 0.513725 0.090196
0.184314 0.509804 0.086275
0.231373 0.513725 0.090196
0.274510 0.517647 0.082353
0.333333 0.513725 0.090196
0.380392 0.513725 0.082353
0.423529 0.509804 0.086275
0.482353 0.513725 0.086275
