loleis/其他/lut20种/Sports LUT #1.cube
TITLE "Sports LUT #1"
#LUT size
LUT_3D_SIZE 9
#LUT data points
0.125490 0.137255 0.164706
0.176471 0.141176 0.160784
0.258824 0.145098 0.164706
0.341176 0.149020 0.172549
0.450980 0.156863 0.184314
0.584314 0.164706 0.196078
0.733333 0.168627 0.203922
0.878431 0.172549 0.207843
0.996078 0.184314 0.223529
0.121569 0.196078 0.172549
0.176471 0.196078 0.180392
0.254902 0.196078 0.176471
0.349020 0.200000 0.188235
0.454902 0.203922 0.196078
0.592157 0.207843 0.203922
0.737255 0.219608 0.203922
0.886275 0.219608 0.219608
0.996078 0.235294 0.235294
0.125490 0.274510 0.192157
0.172549 0.270588 0.184314
0.243137 0.274510 0.192157
0.345098 0.274510 0.196078
0.458824 0.282353 0.200000
0.596078 0.290196 0.203922
0.741176 0.301961 0.215686
0.886275 0.313725 0.223529
1.000000 0.325490 0.231373
0.105882 0.376471 0.203922
0.164706 0.376471 0.184314
0.258824 0.380392 0.207843
0.364706 0.396078 0.211765
0.486275 0.400000 0.207843
0.615686 0.403922 0.219608
0.760784 0.415686 0.227451
0.890196 0.427451 0.231373
1.000000 0.431373 0.247059
0.039216 0.521569 0.207843
0.133333 0.521569 0.200000
0.239216 0.517647 0.203922
0.376471 0.521569 0.207843
0.501961 0.529412 0.215686
0.631373 0.533333 0.219608
0.764706 0.541176 0.223529
0.901961 0.549020 0.243137
1.000000 0.552941 0.278431
0.007843 0.650980 0.207843
0.066667 0.658824 0.203922
0.231373 0.658824 0.207843
0.368627 0.662745 0.200000
0.513725 0.666667 0.215686
0.639216 0.674510 0.223529
0.780392 0.674510 0.223529
0.898039 0.678431 0.250980
1.000000 0.674510 0.305882
0.003922 0.796078 0.223529
0.019608 0.796078 0.219608
0.223529 0.796078 0.235294
0.376471 0.800000 0.231373
0.509804 0.800000 0.231373
0.639216 0.800000 0.247059
0.772549 0.803922 0.262745
0.901961 0.807843 0.282353
1.000000 0.796078 0.333333
0.090196 0.905882 0.286275
0.164706 0.917647 0.278431
0.278431 0.909804 0.290196
0.400000 0.913725 0.301961
0.517647 0.913725 0.309804
0.647059 0.917647 0.325490
0.764706 0.913725 0.337255
0.882353 0.913725 0.376471
0.996078 0.921569 0.407843
0.368627 1.000000 0.443137
0.384314 0.996078 0.427451
0.423529 1.000000 0.439216
0.501961 1.000000 0.454902
0.592157 1.000000 0.462745
0.698039 1.000000 0.490196
0.784314 0.996078 0.509804
0.886275 1.000000 0.545098
0.972549 1.000000 0.576471
0.121569 0.149020 0.219608
0.172549 0.141176 0.231373
0.250980 0.152941 0.227451
0.337255 0.164706 0.231373
0.450980 0.156863 0.235294
0.588235 0.160784 0.243137
0.737255 0.156863 0.250980
0.890196 0.160784 0.254902
1.000000 0.168627 0.266667
0.121569 0.200000 0.235294
0.168627 0.200000 0.243137
0.247059 0.203922 0.235294
0.345098 0.207843 0.235294
0.462745 0.203922 0.243137
0.596078 0.203922 0.243137
0.745098 0.207843 0.247059
0.898039 0.207843 0.250980
0.996078 0.227451 0.266667
0.113725 0.274510 0.243137
0.172549 0.274510 0.231373
0.243137 0.286275 0.223529
0.349020 0.278431 0.239216
0.474510 0.282353 0.254902
0.600000 0.286275 0.243137
0.745098 0.298039 0.254902
0.894118 0.301961 0.258824
1.000000 0.313725 0.262745
0.070588 0.384314 0.239216
0.149020 0.392157 0.239216
0.250980 0.388235 0.231373
0.364706 0.396078 0.243137
0.486275 0.400000 0.239216
0.615686 0.403922 0.254902
0.760784 0.415686 0.258824
0.894118 0.427451 0.270588
1.000000 0.435294 0.282353
0.000000 0.525490 0.227451
0.094118 0.521569 0.254902
0.239216 0.521569 0.235294
0.368627 0.525490 0.247059
0.505882 0.537255 0.250980
0.635294 0.533333 0.243137
0.768627 0.549020 0.258824
0.894118 0.545098 0.278431
1.000000 0.552941 0.309804
0.003922 0.662745 0.235294
0.007843 0.658824 0.235294
0.223529 0.662745 0.239216
0.360784 0.666667 0.239216
0.501961 0.666667 0.243137
0.643137 0.670588 0.254902
0.772549 0.678431 0.254902
0.901961 0.674510 0.282353
1.000000 0.674510 0.321569
0.003922 0.800000 0.247059
0.003922 0.796078 0.254902
0.207843 0.800000 0.254902
0.368627 0.803922 0.262745
0.501961 0.800000 0.270588
0.643137 0.800000 0.282353
0.780392 0.807843 0.301961
0.905882 0.803922 0.321569
0.992157 0.807843 0.360784
0.094118 0.909804 0.321569
0.172549 0.913725 0.309804
0.274510 0.909804 0.329412
0.392157 0.909804 0.329412
0.521569 0.909804 0.341176
0.647059 0.909804 0.352941
0.768627 0.913725 0.368627
0.886275 0.913725 0.403922
1.000000 0.921569 0.431373
0.372549 1.000000 0.462745
0.388235 0.996078 0.454902
0.435294 1.000000 0.458824
0.509804 0.996078 0.478431
0.596078 0.996078 0.494118
0.690196 1.000000 0.501961
0.792157 1.000000 0.537255
0.886275 1.000000 0.564706
0.972549 1.000000 0.592157
0.094118 0.145098 0.282353
0.168627 0.137255 0.290196
0.247059 0.152941 0.294118
0.345098 0.156863 0.305882
0.454902 0.160784 0.313725
0.600000 0.145098 0.321569
0.741176 0.121569 0.321569
0.890196 0.090196 0.329412
0.996078 0.121569 0.333333
0.109804 0.184314 0.301961
0.160784 0.188235 0.290196
0.254902 0.192157 0.305882
0.345098 0.203922 0.313725
0.458824 0.203922 0.321569
0.603922 0.192157 0.321569
0.752941 0.168627 0.317647
0.890196 0.176471 0.333333
1.000000 0.192157 0.341176
0.094118 0.278431 0.309804
0.149020 0.278431 0.313725
0.247059 0.274510 0.313725
0.352941 0.274510 0.309804
0.466667 0.282353 0.321569
0.611765 0.274510 0.317647
0.752941 0.274510 0.325490
0.898039 0.286275 0.329412
1.000000 0.301961 0.345098
0.027451 0.384314 0.313725
0.109804 0.388235 0.317647
0.227451 0.396078 0.317647
0.360784 0.396078 0.321569
0.490196 0.388235 0.321569
0.619608 0.400000 0.333333
0.764706 0.407843 0.333333
0.894118 0.411765 0.341176
1.000000 0.423529 0.352941
0.000000 0.521569 0.313725
0.000000 0.529412 0.301961
0.192157 0.525490 0.309804
0.356863 0.525490 0.313725
0.501961 0.529412 0.317647
0.639216 0.533333 0.317647
0.772549 0.537255 0.333333
0.898039 0.541176 0.356863
1.000000 0.549020 0.372549
0.003922 0.666667 0.309804
0.000000 0.670588 0.309804
0.164706 0.662745 0.313725
0.341176 0.666667 0.321569
0.501961 0.670588 0.321569
0.635294 0.670588 0.321569
0.776471 0.678431 0.325490
0.901961 0.674510 0.352941
1.000000 0.674510 0.411765
0.000000 0.800000 0.333333
0.000000 0.796078 0.333333
0.184314 0.800000 0.341176
0.349020 0.800000 0.333333
0.498039 0.800000 0.345098
0.635294 0.803922 0.349020
0.772549 0.803922 0.364706
0.913725 0.807843 0.388235
1.000000 0.803922 0.415686
0.098039 0.921569 0.392157
0.168627 0.913725 0.388235
0.278431 0.909804 0.392157
0.403922 0.913725 0.396078
0.529412 0.917647 0.411765
0.639216 0.909804 0.411765
0.764706 0.913725 0.435294
0.882353 0.917647 0.450980
1.000000 0.917647 0.490196
0.392157 1.000000 0.505882
0.403922 1.000000 0.505882
0.454902 1.000000 0.509804
0.513725 0.992157 0.517647
0.607843 1.000000 0.541176
0.698039 1.000000 0.552941
0.796078 1.000000 0.568627
0.894118 1.000000 0.596078
0.972549 1.000000 0.627451
0.105882 0.141176 0.396078
0.152941 0.149020 0.384314
0.247059 0.152941 0.396078
0.349020 0.149020 0.407843
0.466667 0.149020 0.407843
0.596078 0.137255 0.411765
0.741176 0.105882 0.431373
0.890196 0.070588 0.439216
0.996078 0.062745 0.439216
0.086275 0.192157 0.400000
0.164706 0.192157 0.407843
0.243137 0.192157 0.403922
0.356863 0.188235 0.407843
0.466667 0.188235 0.415686
0.603922 0.180392 0.423529
0.752941 0.164706 0.443137
0.898039 0.152941 0.443137
1.000000 0.160784 0.435294
0.058824 0.270588 0.403922
0.125490 0.262745 0.411765
0.231373 0.258824 0.423529
0.360784 0.262745 0.419608
0.482353 0.266667 0.419608
0.611765 0.266667 0.431373
0.756863 0.266667 0.431373
0.898039 0.266667 0.431373
1.000000 0.278431 0.443137
0.000000 0.388235 0.411765
0.074510 0.388235 0.431373
0.207843 0.392157 0.423529
0.345098 0.384314 0.423529
0.490196 0.388235 0.423529
0.627451 0.392157 0.431373
0.772549 0.396078 0.443137
0.901961 0.407843 0.450980
1.000000 0.423529 0.454902
0.000000 0.525490 0.439216
0.000000 0.525490 0.427451
0.164706 0.525490 0.427451
0.333333 0.521569 0.427451
0.494118 0.529412 0.423529
0.631373 0.529412 0.439216
0.764706 0.537255 0.450980
0.901961 0.541176 0.458824
1.000000 0.549020 0.474510
0.000000 0.666667 0.431373
0.003922 0.662745 0.431373
0.062745 0.666667 0.423529
0.313725 0.666667 0.423529
0.490196 0.670588 0.427451
0.635294 0.674510 0.435294
0.784314 0.670588 0.435294
0.901961 0.678431 0.470588
1.000000 0.682353 0.498039
0.007843 0.803922 0.450980
0.000000 0.803922 0.439216
0.149020 0.792157 0.443137
0.349020 0.800000 0.443137
0.501961 0.800000 0.447059
0.639216 0.807843 0.458824
0.772549 0.803922 0.470588
0.905882 0.807843 0.486275
1.000000 0.803922 0.517647
0.129412 0.917647 0.478431
0.180392 0.917647 0.478431
0.290196 0.921569 0.482353
0.403922 0.913725 0.486275
0.529412 0.909804 0.498039
0.647059 0.913725 0.509804
0.772549 0.913725 0.529412
0.890196 0.917647 0.541176
1.000000 0.917647 0.560784
0.411765 1.000000 0.576471
0.423529 1.000000 0.572549
0.466667 1.000000 0.576471
0.529412 1.000000 0.584314
0.619608 1.000000 0.588235
0.701961 1.000000 0.603922
0.800000 1.000000 0.619608
0.890196 1.000000 0.643137
0.980392 1.000000 0.670588
0.094118 0.145098 0.513725
0.160784 0.141176 0.509804
0.250980 0.145098 0.525490
0.364706 0.137255 0.529412
0.478431 0.133333 0.541176
0.607843 0.105882 0.533333
0.745098 0.082353 0.549020
0.894118 0.031373 0.564706
1.000000 0.035294 0.556863
0.066667 0.192157 0.525490
0.149020 0.188235 0.537255
0.243137 0.180392 0.529412
0.372549 0.180392 0.541176
0.494118 0.164706 0.533333
0.623529 0.156863 0.549020
0.760784 0.145098 0.564706
0.898039 0.129412 0.560784
0.996078 0.145098 0.556863
0.015686 0.262745 0.541176
0.050980 0.262745 0.545098
0.203922 0.262745 0.533333
0.356863 0.254902 0.541176
0.490196 0.247059 0.549020
0.627451 0.239216 0.552941
0.768627 0.254902 0.560784
0.901961 0.254902 0.556863
1.000000 0.266667 0.564706
0.000000 0.388235 0.549020
0.003922 0.376471 0.549020
0.160784 0.372549 0.545098
0.333333 0.364706 0.556863
0.498039 0.364706 0.560784
0.635294 0.376471 0.556863
0.768627 0.388235 0.564706
0.901961 0.392157 0.572549
1.000000 0.411765 0.572549
0.000000 0.521569 0.568627
0.007843 0.517647 0.572549
0.117647 0.525490 0.576471
0.321569 0.513725 0.568627
0.482353 0.521569 0.568627
0.631373 0.521569 0.568627
0.772549 0.537255 0.576471
0.890196 0.549020 0.584314
0.996078 0.568627 0.588235
0.000000 0.658824 0.568627
0.000000 0.666667 0.564706
0.019608 0.662745 0.556863
0.298039 0.666667 0.564706
0.478431 0.666667 0.564706
0.631373 0.670588 0.564706
0.772549 0.670588 0.572549
0.898039 0.682353 0.603922
1.000000 0.694118 0.607843
0.003922 0.803922 0.564706
0.000000 0.800000 0.576471
0.090196 0.803922 0.572549
0.321569 0.800000 0.568627
0.498039 0.800000 0.580392
0.643137 0.803922 0.584314
0.772549 0.800000 0.588235
0.905882 0.803922 0.603922
1.000000 0.803922 0.631373
0.000000 0.917647 0.576471
0.145098 0.913725 0.584314
0.298039 0.913725 0.596078
0.419608 0.913725 0.596078
0.533333 0.913725 0.596078
0.658824 0.909804 0.611765
0.780392 0.913725 0.615686
0.890196 0.913725 0.623529
0.996078 0.917647 0.639216
0.423529 1.000000 0.650980
0.443137 1.000000 0.658824
0.490196 0.996078 0.643137
0.552941 1.000000 0.658824
0.627451 0.996078 0.658824
0.713725 1.000000 0.678431
0.803922 1.000000 0.694118
0.894118 1.000000 0.709804
0.980392 1.000000 0.737255
0.074510 0.141176 0.650980
0.141176 0.133333 0.666667
0.254902 0.129412 0.658824
0.372549 0.121569 0.670588
0.490196 0.105882 0.674510
0.619608 0.082353 0.678431
0.756863 0.011765 0.686275
0.894118 0.003922 0.690196
0.996078 0.000000 0.682353
0.015686 0.176471 0.662745
0.117647 0.176471 0.666667
0.239216 0.180392 0.670588
0.360784 0.160784 0.666667
0.501961 0.149020 0.674510
0.627451 0.137255 0.686275
0.764706 0.105882 0.690196
0.901961 0.098039 0.705882
0.996078 0.125490 0.694118
0.003922 0.247059 0.674510
0.000000 0.250980 0.674510
0.196078 0.250980 0.670588
0.352941 0.243137 0.678431
0.486275 0.239216 0.686275
0.623529 0.231373 0.686275
0.768627 0.223529 0.690196
0.898039 0.235294 0.694118
1.000000 0.254902 0.690196
0.000000 0.372549 0.674510
0.003922 0.368627 0.682353
0.078431 0.352941 0.686275
0.333333 0.356863 0.701961
0.478431 0.364706 0.694118
0.631373 0.356863 0.694118
0.776471 0.364706 0.698039
0.913725 0.380392 0.701961
1.000000 0.407843 0.694118
0.007843 0.509804 0.701961
0.003922 0.505882 0.690196
0.031373 0.509804 0.701961
0.286275 0.505882 0.690196
0.454902 0.509804 0.701961
0.623529 0.505882 0.709804
0.780392 0.513725 0.698039
0.898039 0.537255 0.698039
1.000000 0.545098 0.690196
0.000000 0.658824 0.701961
0.000000 0.654902 0.686275
0.000000 0.654902 0.690196
0.294118 0.662745 0.701961
0.470588 0.658824 0.698039
0.627451 0.662745 0.698039
0.768627 0.666667 0.701961
0.886275 0.678431 0.709804
0.996078 0.694118 0.717647
0.003922 0.796078 0.709804
0.000000 0.807843 0.694118
0.105882 0.803922 0.717647
0.317647 0.796078 0.698039
0.505882 0.803922 0.701961
0.639216 0.803922 0.709804
0.780392 0.800000 0.713725
0.905882 0.807843 0.721569
0.992157 0.807843 0.729412
0.066667 0.921569 0.694118
0.160784 0.925490 0.705882
0.274510 0.921569 0.701961
0.400000 0.917647 0.694118
0.533333 0.913725 0.705882
0.666667 0.917647 0.721569
0.784314 0.917647 0.721569
0.890196 0.913725 0.733333
1.000000 0.917647 0.741176
0.403922 0.996078 0.733333
0.419608 0.996078 0.721569
0.454902 1.000000 0.717647
0.552941 1.000000 0.741176
0.639216 1.000000 0.745098
0.729412 0.996078 0.756863
0.811765 1.000000 0.764706
0.905882 0.996078 0.776471
0.984314 1.000000 0.800000
0.054902 0.125490 0.800000
0.141176 0.125490 0.800000
0.258824 0.117647 0.792157
0.372549 0.109804 0.800000
0.498039 0.082353 0.811765
0.619608 0.050980 0.807843
0.752941 0.000000 0.803922
0.886275 0.000000 0.815686
0.996078 0.000000 0.831373
0.000000 0.168627 0.784314
0.109804 0.168627 0.800000
0.239216 0.156863 0.803922
0.364706 0.156863 0.807843
0.486275 0.137255 0.796078
0.619608 0.121569 0.807843
0.752941 0.094118 0.811765
0.890196 0.070588 0.815686
1.000000 0.070588 0.823529
0.000000 0.250980 0.800000
0.011765 0.239216 0.800000
0.192157 0.239216 0.803922
0.341176 0.231373 0.800000
0.482353 0.223529 0.807843
0.623529 0.219608 0.811765
0.752941 0.211765 0.819608
0.898039 0.211765 0.827451
1.000000 0.227451 0.811765
0.000000 0.345098 0.807843
0.003922 0.345098 0.800000
0.070588 0.341176 0.815686
0.305882 0.349020 0.811765
0.462745 0.349020 0.811765
0.615686 0.349020 0.815686
0.752941 0.356863 0.819608
0.901961 0.360784 0.835294
1.000000 0.392157 0.823529
0.000000 0.490196 0.823529
0.000000 0.490196 0.811765
0.011765 0.490196 0.815686
0.282353 0.486275 0.823529
0.458824 0.490196 0.823529
0.603922 0.494118 0.823529
0.752941 0.498039 0.819608
0.894118 0.505882 0.827451
0.996078 0.537255 0.815686
0.000000 0.635294 0.819608
0.003922 0.639216 0.819608
0.000000 0.639216 0.819608
0.286275 0.643137 0.819608
0.470588 0.643137 0.827451
0.619608 0.647059 0.827451
0.764706 0.658824 0.835294
0.905882 0.658824 0.827451
1.000000 0.678431 0.819608
0.000000 0.780392 0.819608
0.007843 0.784314 0.819608
0.176471 0.780392 0.819608
0.356863 0.780392 0.831373
0.505882 0.792157 0.827451
0.643137 0.792157 0.827451
0.772549 0.800000 0.831373
0.886275 0.811765 0.819608
1.000000 0.823529 0.835294
0.125490 0.917647 0.831373
0.184314 0.913725 0.823529
0.294118 0.913725 0.823529
0.415686 0.909804 0.815686
0.533333 0.917647 0.827451
0.666667 0.909804 0.819608
0.784314 0.909804 0.819608
0.901961 0.913725 0.831373
0.988235 0.917647 0.839216
0.419608 1.000000 0.839216
0.443137 1.000000 0.831373
0.478431 1.000000 0.831373
0.552941 0.996078 0.823529
0.623529 1.000000 0.827451
0.737255 1.000000 0.839216
0.835294 1.000000 0.850980
0.905882 1.000000 0.858824
0.988235 1.000000 0.878431
0.039216 0.109804 0.909804
0.133333 0.113725 0.913725
0.235294 0.109804 0.921569
0.364706 0.090196 0.913725
0.486275 0.066667 0.921569
0.611765 0.039216 0.913725
0.737255 0.000000 0.921569
0.866667 0.000000 0.929412
0.992157 0.003922 0.925490
0.003922 0.160784 0.921569
0.101961 0.152941 0.909804
0.235294 0.149020 0.917647
0.364706 0.145098 0.917647
0.482353 0.137255 0.921569
0.603922 0.113725 0.921569
0.737255 0.101961 0.917647
0.866667 0.094118 0.925490
0.984314 0.113725 0.925490
0.000000 0.231373 0.913725
0.000000 0.235294 0.909804
0.188235 0.235294 0.917647
0.345098 0.223529 0.925490
0.470588 0.223529 0.925490
0.600000 0.219608 0.917647
0.737255 0.223529 0.921569
0.862745 0.223529 0.925490
0.988235 0.239216 0.929412
0.000000 0.329412 0.921569
0.003922 0.341176 0.925490
0.094118 0.333333 0.925490
0.313725 0.341176 0.933333
0.454902 0.345098 0.921569
0.600000 0.341176 0.925490
0.737255 0.352941 0.929412
0.866667 0.360784 0.929412
0.996078 0.388235 0.929412
0.003922 0.478431 0.929412
0.000000 0.478431 0.933333
0.007843 0.466667 0.909804
0.278431 0.474510 0.925490
0.447059 0.466667 0.925490
0.592157 0.482353 0.925490
0.737255 0.486275 0.925490
0.870588 0.501961 0.933333
1.000000 0.521569 0.941176
0.000000 0.623529 0.929412
0.000000 0.623529 0.921569
0.101961 0.623529 0.933333
0.309804 0.619608 0.929412
0.470588 0.623529 0.925490
0.607843 0.639216 0.925490
0.749020 0.639216 0.929412
0.874510 0.650980 0.921569
1.000000 0.658824 0.937255
0.007843 0.764706 0.933333
0.090196 0.764706 0.913725
0.247059 0.760784 0.933333
0.388235 0.768627 0.933333
0.517647 0.772549 0.921569
0.639216 0.776471 0.925490
0.768627 0.792157 0.933333
0.890196 0.796078 0.937255
0.996078 0.803922 0.921569
0.266667 0.890196 0.913725
0.282353 0.898039 0.933333
0.352941 0.898039 0.917647
0.450980 0.894118 0.917647
0.564706 0.898039 0.925490
0.678431 0.905882 0.921569
0.792157 0.905882 0.921569
0.898039 0.913725 0.925490
0.980392 0.921569 0.933333
0.443137 1.000000 0.937255
0.466667 0.996078 0.941176
0.498039 1.000000 0.933333
0.564706 1.000000 0.933333
0.643137 1.000000 0.933333
0.741176 1.000000 0.937255
0.839216 1.000000 0.937255
0.933333 0.996078 0.945098
0.992157 1.000000 0.956863
0.031373 0.113725 1.000000
0.121569 0.113725 0.992157
0.250980 0.105882 1.000000
0.356863 0.098039 1.000000
0.474510 0.082353 1.000000
0.596078 0.074510 1.000000
0.709804 0.066667 0.996078
0.839216 0.086275 1.000000
0.952941 0.125490 0.984314
0.003922 0.160784 0.992157
0.098039 0.149020 1.000000
0.231373 0.156863 1.000000
0.349020 0.149020 1.000000
0.470588 0.141176 0.996078
0.592157 0.129412 1.000000
0.721569 0.141176 1.000000
0.835294 0.156863 0.996078
0.949020 0.180392 0.996078
0.000000 0.227451 1.000000
0.007843 0.227451 1.000000
0.192157 0.231373 0.992157
0.337255 0.227451 1.000000
0.462745 0.227451 0.996078
0.588235 0.235294 0.996078
0.713725 0.239216 0.996078
0.835294 0.250980 0.988235
0.956863 0.282353 1.000000
0.000000 0.329412 1.000000
0.000000 0.333333 0.996078
0.129412 0.337255 0.996078
0.309804 0.337255 1.000000
0.450980 0.345098 1.000000
0.576471 0.345098 0.996078
0.713725 0.356863 0.996078
0.839216 0.380392 1.000000
0.952941 0.400000 1.000000
0.000000 0.458824 1.000000
0.000000 0.458824 1.000000
0.086275 0.454902 0.988235
0.305882 0.458824 1.000000
0.443137 0.470588 0.992157
0.584314 0.478431 1.000000
0.713725 0.490196 1.000000
0.843137 0.509804 1.000000
0.960784 0.529412 1.000000
0.000000 0.611765 0.992157
0.062745 0.607843 1.000000
0.227451 0.611765 1.000000
0.356863 0.615686 0.996078
0.478431 0.611765 0.996078
0.607843 0.623529 1.000000
0.737255 0.631373 0.996078
0.858824 0.650980 1.000000
0.956863 0.670588 0.992157
0.254902 0.756863 1.000000
0.274510 0.752941 1.000000
0.341176 0.756863 1.000000
0.443137 0.756863 1.000000
0.556863 0.760784 0.996078
0.654902 0.768627 1.000000
0.772549 0.776471 1.000000
0.882353 0.784314 1.000000
0.968627 0.800000 1.000000
0.388235 0.898039 1.000000
0.415686 0.890196 1.000000
0.458824 0.894118 1.000000
0.517647 0.894118 0.992157
0.603922 0.901961 1.000000
0.701961 0.898039 0.996078
0.803922 0.905882 0.996078
0.913725 0.917647 1.000000
0.972549 0.929412 0.984314
0.529412 1.000000 0.984314
0.549020 0.996078 0.996078
0.568627 1.000000 0.996078
0.627451 0.996078 0.996078
0.690196 0.996078 0.996078
0.780392 1.000000 0.996078
0.866667 1.000000 0.996078
0.960784 1.000000 1.000000
1.000000 0.996078 1.000000
