loleis/其他/lut20种/Sports LUT #14.cube
TITLE "Sports LUT #14"
#LUT size
LUT_3D_SIZE 5
#LUT data points
0.098039 0.101961 0.082353
0.349020 0.101961 0.082353
0.678431 0.094118 0.066667
0.952941 0.105882 0.062745
1.000000 0.133333 0.070588
0.101961 0.341176 0.066667
0.356863 0.349020 0.054902
0.674510 0.360784 0.027451
0.937255 0.337255 0.031373
1.000000 0.317647 0.054902
0.058824 0.678431 0.000000
0.352941 0.674510 0.000000
0.662745 0.658824 0.007843
0.898039 0.603922 0.000000
1.000000 0.560784 0.043137
0.152941 0.866667 0.000000
0.333333 0.866667 0.000000
0.592157 0.854902 0.000000
0.843137 0.839216 0.000000
1.000000 0.792157 0.007843
0.329412 1.000000 0.145098
0.419608 1.000000 0.184314
0.576471 1.000000 0.188235
0.784314 1.000000 0.196078
0.992157 0.996078 0.254902
0.133333 0.094118 0.298039
0.356863 0.094118 0.301961
0.670588 0.023529 0.294118
0.937255 0.043137 0.274510
0.996078 0.152941 0.274510
0.098039 0.333333 0.294118
0.345098 0.337255 0.290196
0.670588 0.333333 0.282353
0.917647 0.313725 0.266667
1.000000 0.321569 0.258824
0.000000 0.658824 0.231373
0.321569 0.658824 0.239216
0.647059 0.639216 0.235294
0.886275 0.596078 0.247059
1.000000 0.564706 0.254902
0.184314 0.850980 0.219608
0.352941 0.854902 0.231373
0.584314 0.847059 0.227451
0.839216 0.827451 0.219608
1.000000 0.800000 0.247059
0.345098 1.000000 0.286275
0.439216 1.000000 0.301961
0.588235 1.000000 0.301961
0.788235 1.000000 0.317647
0.996078 0.988235 0.349020
0.203922 0.082353 0.588235
0.388235 0.070588 0.576471
0.678431 0.000000 0.588235
0.925490 0.007843 0.537255
1.000000 0.207843 0.498039
0.098039 0.313725 0.568627
0.360784 0.313725 0.572549
0.666667 0.301961 0.576471
0.905882 0.325490 0.529412
0.992157 0.388235 0.521569
0.078431 0.643137 0.537255
0.364706 0.647059 0.552941
0.650980 0.631373 0.545098
0.874510 0.615686 0.529412
0.996078 0.603922 0.509804
0.321569 0.847059 0.505882
0.443137 0.850980 0.509804
0.627451 0.843137 0.513725
0.847059 0.827451 0.498039
1.000000 0.803922 0.505882
0.470588 0.996078 0.505882
0.529412 1.000000 0.513725
0.643137 0.996078 0.509804
0.815686 0.996078 0.517647
1.000000 0.996078 0.541176
0.262745 0.090196 0.760784
0.388235 0.082353 0.764706
0.619608 0.039216 0.760784
0.870588 0.007843 0.745098
1.000000 0.156863 0.725490
0.239216 0.286275 0.756863
0.372549 0.290196 0.749020
0.607843 0.290196 0.752941
0.870588 0.294118 0.745098
1.000000 0.352941 0.713725
0.278431 0.572549 0.737255
0.407843 0.580392 0.733333
0.619608 0.588235 0.733333
0.862745 0.580392 0.729412
1.000000 0.596078 0.701961
0.345098 0.827451 0.717647
0.454902 0.823529 0.717647
0.639216 0.819608 0.709804
0.843137 0.815686 0.701961
1.000000 0.831373 0.694118
0.529412 1.000000 0.690196
0.588235 0.996078 0.686275
0.705882 0.996078 0.701961
0.854902 0.996078 0.705882
1.000000 0.988235 0.717647
0.309804 0.101961 0.894118
0.392157 0.101961 0.890196
0.580392 0.090196 0.894118
0.796078 0.098039 0.882353
1.000000 0.180392 0.886275
0.309804 0.270588 0.886275
0.400000 0.278431 0.890196
0.576471 0.282353 0.882353
0.796078 0.294118 0.878431
0.996078 0.337255 0.882353
0.376471 0.541176 0.870588
0.454902 0.552941 0.874510
0.607843 0.549020 0.866667
0.807843 0.552941 0.866667
1.000000 0.584314 0.874510
0.474510 0.776471 0.854902
0.537255 0.784314 0.854902
0.670588 0.792157 0.862745
0.847059 0.803922 0.858824
1.000000 0.819608 0.862745
0.619608 0.988235 0.854902
0.670588 0.988235 0.858824
0.768627 0.992157 0.862745
0.909804 0.996078 0.847059
0.996078 0.996078 0.847059
