loleis/其他/lut20种/Sports LUT #1.cube
TITLE "Sports LUT #1"
#LUT size
LUT_3D_SIZE 5
#LUT data points
0.125490 0.137255 0.164706
0.258824 0.145098 0.164706
0.450980 0.156863 0.184314
0.733333 0.168627 0.203922
0.996078 0.184314 0.223529
0.125490 0.274510 0.192157
0.243137 0.274510 0.192157
0.458824 0.282353 0.200000
0.741176 0.301961 0.215686
1.000000 0.325490 0.231373
0.039216 0.521569 0.207843
0.239216 0.517647 0.203922
0.501961 0.529412 0.215686
0.764706 0.541176 0.223529
1.000000 0.552941 0.278431
0.003922 0.796078 0.223529
0.223529 0.796078 0.235294
0.509804 0.800000 0.231373
0.772549 0.803922 0.262745
1.000000 0.796078 0.333333
0.368627 1.000000 0.443137
0.423529 1.000000 0.439216
0.592157 1.000000 0.462745
0.784314 0.996078 0.509804
0.972549 1.000000 0.576471
0.094118 0.145098 0.282353
0.247059 0.152941 0.294118
0.454902 0.160784 0.313725
0.741176 0.121569 0.321569
0.996078 0.121569 0.333333
0.094118 0.278431 0.309804
0.247059 0.274510 0.313725
0.466667 0.282353 0.321569
0.752941 0.274510 0.325490
1.000000 0.301961 0.345098
0.000000 0.521569 0.313725
0.192157 0.525490 0.309804
0.501961 0.529412 0.317647
0.772549 0.537255 0.333333
1.000000 0.549020 0.372549
0.000000 0.800000 0.333333
0.184314 0.800000 0.341176
0.498039 0.800000 0.345098
0.772549 0.803922 0.364706
1.000000 0.803922 0.415686
0.392157 1.000000 0.505882
0.454902 1.000000 0.509804
0.607843 1.000000 0.541176
0.796078 1.000000 0.568627
0.972549 1.000000 0.627451
0.094118 0.145098 0.513725
0.250980 0.145098 0.525490
0.478431 0.133333 0.541176
0.745098 0.082353 0.549020
1.000000 0.035294 0.556863
0.015686 0.262745 0.541176
0.203922 0.262745 0.533333
0.490196 0.247059 0.549020
0.768627 0.254902 0.560784
1.000000 0.266667 0.564706
0.000000 0.521569 0.568627
0.117647 0.525490 0.576471
0.482353 0.521569 0.568627
0.772549 0.537255 0.576471
0.996078 0.568627 0.588235
0.003922 0.803922 0.564706
0.090196 0.803922 0.572549
0.498039 0.800000 0.580392
0.772549 0.800000 0.588235
1.000000 0.803922 0.631373
0.423529 1.000000 0.650980
0.490196 0.996078 0.643137
0.627451 0.996078 0.658824
0.803922 1.000000 0.694118
0.980392 1.000000 0.737255
0.054902 0.125490 0.800000
0.258824 0.117647 0.792157
0.498039 0.082353 0.811765
0.752941 0.000000 0.803922
0.996078 0.000000 0.831373
0.000000 0.250980 0.800000
0.192157 0.239216 0.803922
0.482353 0.223529 0.807843
0.752941 0.211765 0.819608
1.000000 0.227451 0.811765
0.000000 0.490196 0.823529
0.011765 0.490196 0.815686
0.458824 0.490196 0.823529
0.752941 0.498039 0.819608
0.996078 0.537255 0.815686
0.000000 0.780392 0.819608
0.176471 0.780392 0.819608
0.505882 0.792157 0.827451
0.772549 0.800000 0.831373
1.000000 0.823529 0.835294
0.419608 1.000000 0.839216
0.478431 1.000000 0.831373
0.623529 1.000000 0.827451
0.835294 1.000000 0.850980
0.988235 1.000000 0.878431
0.031373 0.113725 1.000000
0.250980 0.105882 1.000000
0.474510 0.082353 1.000000
0.709804 0.066667 0.996078
0.952941 0.125490 0.984314
0.000000 0.227451 1.000000
0.192157 0.231373 0.992157
0.462745 0.227451 0.996078
0.713725 0.239216 0.996078
0.956863 0.282353 1.000000
0.000000 0.458824 1.000000
0.086275 0.454902 0.988235
0.443137 0.470588 0.992157
0.713725 0.490196 1.000000
0.960784 0.529412 1.000000
0.254902 0.756863 1.000000
0.341176 0.756863 1.000000
0.556863 0.760784 0.996078
0.772549 0.776471 1.000000
0.968627 0.800000 1.000000
0.529412 1.000000 0.984314
0.568627 1.000000 0.996078
0.690196 0.996078 0.996078
0.866667 1.000000 0.996078
1.000000 0.996078 1.000000
