loleis/其他/lut20种/Sports LUT #3.cube
TITLE "Sports LUT #3"
#LUT size
LUT_3D_SIZE 9
#LUT data points
0.000000 0.000000 0.000000
0.149020 0.000000 0.000000
0.294118 0.003922 0.000000
0.435294 0.003922 0.000000
0.576471 0.015686 0.000000
0.717647 0.019608 0.003922
0.843137 0.019608 0.015686
0.964706 0.003922 0.035294
1.000000 0.000000 0.062745
0.003922 0.141176 0.011765
0.145098 0.145098 0.003922
0.298039 0.149020 0.000000
0.431373 0.149020 0.000000
0.564706 0.160784 0.000000
0.705882 0.160784 0.000000
0.831373 0.152941 0.019608
0.956863 0.141176 0.039216
0.992157 0.133333 0.058824
0.000000 0.294118 0.000000
0.141176 0.290196 0.000000
0.282353 0.290196 0.000000
0.435294 0.294118 0.003922
0.572549 0.301961 0.000000
0.709804 0.301961 0.023529
0.839216 0.290196 0.047059
0.968627 0.282353 0.074510
1.000000 0.274510 0.090196
0.000000 0.439216 0.015686
0.137255 0.439216 0.023529
0.286275 0.439216 0.011765
0.419608 0.450980 0.023529
0.568627 0.447059 0.023529
0.701961 0.435294 0.047059
0.815686 0.419608 0.074510
0.945098 0.407843 0.090196
1.000000 0.400000 0.094118
0.000000 0.588235 0.066667
0.070588 0.603922 0.070588
0.254902 0.600000 0.066667
0.407843 0.596078 0.066667
0.564706 0.592157 0.074510
0.694118 0.576471 0.090196
0.823529 0.560784 0.117647
0.964706 0.552941 0.125490
0.988235 0.556863 0.121569
0.003922 0.737255 0.145098
0.011765 0.737255 0.129412
0.231373 0.729412 0.137255
0.392157 0.729412 0.145098
0.545098 0.717647 0.133333
0.690196 0.709804 0.145098
0.827451 0.705882 0.149020
0.956863 0.694118 0.145098
1.000000 0.694118 0.164706
0.000000 0.831373 0.156863
0.000000 0.847059 0.184314
0.192157 0.843137 0.168627
0.372549 0.839216 0.172549
0.517647 0.839216 0.172549
0.674510 0.827451 0.172549
0.811765 0.823529 0.160784
0.945098 0.823529 0.172549
1.000000 0.827451 0.172549
0.000000 0.968627 0.215686
0.007843 0.988235 0.227451
0.223529 0.984314 0.231373
0.388235 0.980392 0.231373
0.533333 0.976471 0.215686
0.686275 0.972549 0.207843
0.815686 0.972549 0.215686
0.960784 0.964706 0.223529
0.996078 0.964706 0.235294
0.003922 1.000000 0.278431
0.121569 1.000000 0.290196
0.266667 1.000000 0.286275
0.392157 1.000000 0.294118
0.525490 1.000000 0.282353
0.650980 1.000000 0.286275
0.772549 1.000000 0.286275
0.901961 1.000000 0.294118
0.988235 1.000000 0.313725
0.000000 0.007843 0.156863
0.141176 0.000000 0.156863
0.301961 0.003922 0.156863
0.427451 0.000000 0.160784
0.568627 0.000000 0.160784
0.713725 0.011765 0.168627
0.823529 0.035294 0.168627
0.960784 0.023529 0.176471
1.000000 0.000000 0.180392
0.000000 0.145098 0.156863
0.149020 0.141176 0.160784
0.286275 0.145098 0.160784
0.419608 0.141176 0.156863
0.560784 0.152941 0.156863
0.701961 0.152941 0.156863
0.811765 0.149020 0.160784
0.925490 0.145098 0.164706
0.996078 0.133333 0.172549
0.000000 0.294118 0.172549
0.137255 0.298039 0.164706
0.286275 0.290196 0.168627
0.423529 0.294118 0.164706
0.572549 0.305882 0.168627
0.701961 0.298039 0.176471
0.815686 0.286275 0.172549
0.949020 0.278431 0.176471
1.000000 0.274510 0.184314
0.000000 0.431373 0.172549
0.133333 0.427451 0.172549
0.274510 0.435294 0.168627
0.407843 0.435294 0.168627
0.552941 0.439216 0.172549
0.682353 0.427451 0.168627
0.800000 0.415686 0.176471
0.929412 0.400000 0.180392
1.000000 0.400000 0.176471
0.000000 0.584314 0.176471
0.054902 0.588235 0.188235
0.250980 0.592157 0.184314
0.400000 0.592157 0.180392
0.552941 0.584314 0.180392
0.682353 0.564706 0.188235
0.807843 0.552941 0.200000
0.945098 0.545098 0.211765
1.000000 0.545098 0.203922
0.000000 0.721569 0.211765
0.000000 0.721569 0.215686
0.231373 0.721569 0.227451
0.384314 0.713725 0.227451
0.533333 0.713725 0.223529
0.674510 0.698039 0.219608
0.811765 0.694118 0.215686
0.956863 0.686275 0.219608
0.992157 0.690196 0.227451
0.003922 0.831373 0.227451
0.000000 0.835294 0.247059
0.188235 0.835294 0.239216
0.360784 0.827451 0.231373
0.513725 0.827451 0.235294
0.654902 0.823529 0.227451
0.800000 0.815686 0.231373
0.933333 0.811765 0.215686
1.000000 0.819608 0.239216
0.000000 0.964706 0.270588
0.003922 0.972549 0.270588
0.223529 0.980392 0.278431
0.380392 0.972549 0.278431
0.537255 0.968627 0.274510
0.678431 0.964706 0.270588
0.811765 0.964706 0.270588
0.952941 0.964706 0.270588
1.000000 0.960784 0.294118
0.007843 1.000000 0.301961
0.101961 0.996078 0.309804
0.262745 1.000000 0.321569
0.396078 1.000000 0.317647
0.517647 1.000000 0.329412
0.658824 1.000000 0.329412
0.780392 1.000000 0.329412
0.890196 1.000000 0.325490
0.992157 1.000000 0.337255
0.000000 0.003922 0.325490
0.129412 0.000000 0.309804
0.290196 0.000000 0.321569
0.423529 0.000000 0.321569
0.576471 0.003922 0.321569
0.705882 0.003922 0.321569
0.827451 0.066667 0.313725
0.956863 0.070588 0.317647
1.000000 0.058824 0.325490
0.007843 0.145098 0.309804
0.129412 0.141176 0.309804
0.282353 0.141176 0.321569
0.415686 0.149020 0.309804
0.560784 0.149020 0.317647
0.698039 0.152941 0.313725
0.811765 0.160784 0.309804
0.941176 0.164706 0.305882
1.000000 0.156863 0.317647
0.000000 0.286275 0.313725
0.137255 0.294118 0.325490
0.274510 0.290196 0.325490
0.419608 0.290196 0.317647
0.568627 0.298039 0.317647
0.701961 0.298039 0.313725
0.815686 0.294118 0.313725
0.952941 0.286275 0.321569
0.996078 0.286275 0.321569
0.000000 0.431373 0.317647
0.101961 0.431373 0.329412
0.258824 0.435294 0.313725
0.400000 0.435294 0.313725
0.552941 0.439216 0.313725
0.678431 0.423529 0.305882
0.807843 0.415686 0.313725
0.925490 0.407843 0.317647
1.000000 0.403922 0.313725
0.000000 0.588235 0.325490
0.000000 0.584314 0.325490
0.239216 0.588235 0.321569
0.400000 0.580392 0.325490
0.545098 0.580392 0.325490
0.678431 0.568627 0.321569
0.803922 0.549020 0.329412
0.941176 0.552941 0.329412
1.000000 0.549020 0.325490
0.000000 0.717647 0.352941
0.015686 0.713725 0.345098
0.231373 0.717647 0.349020
0.384314 0.709804 0.349020
0.529412 0.705882 0.349020
0.666667 0.701961 0.345098
0.800000 0.694118 0.345098
0.949020 0.686275 0.345098
0.996078 0.694118 0.349020
0.003922 0.823529 0.356863
0.000000 0.831373 0.356863
0.207843 0.827451 0.360784
0.372549 0.823529 0.356863
0.517647 0.823529 0.356863
0.662745 0.815686 0.356863
0.796078 0.815686 0.352941
0.933333 0.807843 0.341176
1.000000 0.815686 0.352941
0.000000 0.964706 0.372549
0.035294 0.968627 0.380392
0.247059 0.968627 0.388235
0.396078 0.972549 0.384314
0.545098 0.968627 0.388235
0.678431 0.960784 0.380392
0.819608 0.960784 0.380392
0.949020 0.960784 0.376471
0.992157 0.949020 0.384314
0.003922 1.000000 0.392157
0.149020 1.000000 0.407843
0.286275 1.000000 0.400000
0.411765 1.000000 0.407843
0.529412 0.996078 0.400000
0.662745 1.000000 0.407843
0.780392 1.000000 0.415686
0.898039 1.000000 0.415686
1.000000 1.000000 0.419608
0.000000 0.000000 0.470588
0.117647 0.000000 0.466667
0.278431 0.000000 0.470588
0.423529 0.000000 0.470588
0.560784 0.003922 0.482353
0.713725 0.011765 0.474510
0.831373 0.070588 0.458824
0.952941 0.101961 0.450980
1.000000 0.133333 0.474510
0.000000 0.145098 0.462745
0.105882 0.137255 0.462745
0.274510 0.141176 0.470588
0.411765 0.149020 0.462745
0.556863 0.152941 0.470588
0.690196 0.152941 0.466667
0.811765 0.168627 0.447059
0.929412 0.180392 0.454902
1.000000 0.196078 0.458824
0.003922 0.294118 0.470588
0.090196 0.290196 0.474510
0.270588 0.298039 0.478431
0.415686 0.290196 0.474510
0.564706 0.294118 0.478431
0.694118 0.298039 0.462745
0.815686 0.309804 0.462745
0.945098 0.317647 0.466667
0.992157 0.317647 0.466667
0.000000 0.435294 0.470588
0.035294 0.439216 0.474510
0.243137 0.439216 0.474510
0.403922 0.439216 0.474510
0.552941 0.435294 0.466667
0.674510 0.435294 0.462745
0.792157 0.427451 0.458824
0.929412 0.419608 0.458824
1.000000 0.423529 0.462745
0.000000 0.584314 0.466667
0.000000 0.588235 0.466667
0.243137 0.592157 0.482353
0.403922 0.584314 0.482353
0.545098 0.580392 0.474510
0.674510 0.572549 0.482353
0.803922 0.564706 0.482353
0.937255 0.560784 0.474510
1.000000 0.568627 0.490196
0.019608 0.713725 0.501961
0.160784 0.713725 0.505882
0.278431 0.717647 0.498039
0.403922 0.709804 0.505882
0.549020 0.705882 0.501961
0.670588 0.701961 0.501961
0.800000 0.701961 0.482353
0.941176 0.694118 0.486275
1.000000 0.698039 0.494118
0.000000 0.823529 0.490196
0.141176 0.831373 0.513725
0.266667 0.831373 0.498039
0.396078 0.823529 0.498039
0.533333 0.819608 0.498039
0.666667 0.823529 0.486275
0.800000 0.815686 0.486275
0.937255 0.819608 0.482353
1.000000 0.823529 0.486275
0.003922 0.960784 0.513725
0.137255 0.968627 0.498039
0.274510 0.968627 0.509804
0.411765 0.968627 0.505882
0.541176 0.964706 0.498039
0.686275 0.956863 0.501961
0.815686 0.964706 0.498039
0.956863 0.960784 0.494118
0.996078 0.952941 0.498039
0.121569 1.000000 0.509804
0.215686 0.996078 0.498039
0.313725 1.000000 0.501961
0.427451 1.000000 0.509804
0.541176 0.996078 0.505882
0.666667 1.000000 0.501961
0.780392 1.000000 0.501961
0.898039 1.000000 0.509804
0.996078 0.996078 0.509804
0.003922 0.000000 0.627451
0.086275 0.000000 0.627451
0.258824 0.000000 0.619608
0.407843 0.000000 0.623529
0.556863 0.003922 0.619608
0.701961 0.015686 0.623529
0.819608 0.066667 0.596078
0.945098 0.098039 0.580392
0.996078 0.137255 0.600000
0.003922 0.137255 0.619608
0.074510 0.149020 0.611765
0.254902 0.145098 0.619608
0.403922 0.149020 0.619608
0.545098 0.149020 0.611765
0.682353 0.156863 0.607843
0.803922 0.172549 0.580392
0.925490 0.176471 0.580392
1.000000 0.196078 0.592157
0.003922 0.286275 0.615686
0.050980 0.294118 0.619608
0.243137 0.290196 0.611765
0.396078 0.298039 0.623529
0.549020 0.294118 0.607843
0.686275 0.301961 0.596078
0.807843 0.305882 0.596078
0.945098 0.317647 0.600000
1.000000 0.337255 0.603922
0.000000 0.435294 0.611765
0.000000 0.435294 0.615686
0.235294 0.435294 0.619608
0.392157 0.443137 0.615686
0.541176 0.435294 0.603922
0.658824 0.439216 0.592157
0.780392 0.443137 0.588235
0.913725 0.443137 0.592157
1.000000 0.435294 0.596078
0.000000 0.580392 0.607843
0.000000 0.584314 0.611765
0.239216 0.580392 0.615686
0.407843 0.580392 0.615686
0.541176 0.580392 0.615686
0.662745 0.580392 0.615686
0.796078 0.572549 0.607843
0.937255 0.572549 0.611765
0.996078 0.564706 0.600000
0.078431 0.713725 0.623529
0.184314 0.709804 0.615686
0.294118 0.713725 0.611765
0.419608 0.709804 0.619608
0.549020 0.701961 0.619608
0.670588 0.701961 0.611765
0.803922 0.701961 0.611765
0.941176 0.698039 0.600000
1.000000 0.705882 0.611765
0.062745 0.819608 0.603922
0.160784 0.835294 0.607843
0.286275 0.831373 0.615686
0.400000 0.827451 0.603922
0.545098 0.819608 0.607843
0.666667 0.819608 0.596078
0.800000 0.819608 0.592157
0.933333 0.819608 0.592157
1.000000 0.823529 0.592157
0.000000 0.968627 0.600000
0.101961 0.968627 0.603922
0.250980 0.968627 0.603922
0.400000 0.968627 0.603922
0.549020 0.964706 0.603922
0.678431 0.964706 0.603922
0.819608 0.964706 0.592157
0.956863 0.960784 0.596078
1.000000 0.956863 0.603922
0.168627 1.000000 0.607843
0.250980 0.996078 0.611765
0.329412 1.000000 0.600000
0.431373 1.000000 0.603922
0.541176 0.996078 0.600000
0.666667 1.000000 0.596078
0.784314 1.000000 0.600000
0.898039 1.000000 0.603922
0.996078 1.000000 0.607843
0.000000 0.000000 0.729412
0.047059 0.003922 0.717647
0.243137 0.007843 0.725490
0.380392 0.031373 0.729412
0.521569 0.050980 0.729412
0.662745 0.070588 0.725490
0.803922 0.074510 0.713725
0.937255 0.094118 0.701961
1.000000 0.121569 0.701961
0.003922 0.141176 0.705882
0.050980 0.149020 0.717647
0.235294 0.149020 0.717647
0.376471 0.152941 0.713725
0.513725 0.152941 0.713725
0.654902 0.164706 0.705882
0.788235 0.168627 0.705882
0.929412 0.168627 0.690196
0.992157 0.184314 0.713725
0.000000 0.286275 0.729412
0.054902 0.290196 0.737255
0.227451 0.290196 0.725490
0.380392 0.294118 0.721569
0.517647 0.298039 0.717647
0.666667 0.301961 0.721569
0.796078 0.305882 0.713725
0.937255 0.313725 0.705882
1.000000 0.333333 0.713725
0.007843 0.411765 0.713725
0.047059 0.423529 0.713725
0.239216 0.427451 0.717647
0.380392 0.427451 0.709804
0.517647 0.431373 0.713725
0.643137 0.435294 0.701961
0.772549 0.439216 0.694118
0.909804 0.435294 0.698039
1.000000 0.431373 0.701961
0.000000 0.556863 0.713725
0.101961 0.564706 0.705882
0.266667 0.572549 0.713725
0.403922 0.572549 0.709804
0.533333 0.572549 0.713725
0.654902 0.568627 0.717647
0.800000 0.564706 0.713725
0.933333 0.564706 0.709804
1.000000 0.549020 0.694118
0.109804 0.705882 0.725490
0.184314 0.701961 0.717647
0.298039 0.698039 0.717647
0.419608 0.698039 0.721569
0.537255 0.698039 0.721569
0.658824 0.694118 0.713725
0.803922 0.690196 0.709804
0.941176 0.686275 0.709804
1.000000 0.690196 0.709804
0.023529 0.815686 0.713725
0.149020 0.815686 0.709804
0.270588 0.819608 0.717647
0.392157 0.819608 0.705882
0.525490 0.815686 0.709804
0.658824 0.811765 0.705882
0.796078 0.815686 0.698039
0.925490 0.819608 0.705882
1.000000 0.815686 0.698039
0.000000 0.960784 0.721569
0.031373 0.968627 0.713725
0.239216 0.960784 0.725490
0.380392 0.964706 0.713725
0.529412 0.964706 0.705882
0.674510 0.956863 0.705882
0.811765 0.952941 0.701961
0.952941 0.956863 0.698039
1.000000 0.949020 0.709804
0.168627 1.000000 0.709804
0.254902 1.000000 0.701961
0.345098 0.996078 0.705882
0.454902 1.000000 0.717647
0.564706 1.000000 0.701961
0.678431 1.000000 0.701961
0.792157 0.996078 0.701961
0.905882 1.000000 0.709804
0.996078 1.000000 0.717647
0.000000 0.011765 0.839216
0.011765 0.019608 0.827451
0.227451 0.043137 0.843137
0.376471 0.058824 0.839216
0.509804 0.074510 0.831373
0.650980 0.082353 0.839216
0.792157 0.082353 0.823529
0.941176 0.094118 0.819608
1.000000 0.113725 0.839216
0.000000 0.149020 0.827451
0.015686 0.156863 0.831373
0.219608 0.156863 0.827451
0.368627 0.164706 0.831373
0.505882 0.160784 0.827451
0.650980 0.168627 0.827451
0.780392 0.172549 0.815686
0.921569 0.176471 0.811765
1.000000 0.180392 0.823529
0.003922 0.282353 0.831373
0.023529 0.286275 0.835294
0.227451 0.290196 0.835294
0.368627 0.298039 0.831373
0.509804 0.298039 0.835294
0.650980 0.298039 0.823529
0.780392 0.305882 0.819608
0.937255 0.309804 0.827451
1.000000 0.321569 0.835294
0.000000 0.423529 0.811765
0.086275 0.419608 0.835294
0.239216 0.427451 0.827451
0.376471 0.427451 0.827451
0.513725 0.427451 0.819608
0.650980 0.439216 0.823529
0.788235 0.435294 0.819608
0.909804 0.435294 0.815686
1.000000 0.427451 0.819608
0.003922 0.560784 0.819608
0.149020 0.560784 0.827451
0.266667 0.572549 0.831373
0.411765 0.572549 0.831373
0.529412 0.564706 0.819608
0.654902 0.568627 0.823529
0.796078 0.564706 0.823529
0.929412 0.556863 0.815686
1.000000 0.549020 0.815686
0.098039 0.698039 0.823529
0.192157 0.701961 0.835294
0.278431 0.698039 0.831373
0.411765 0.698039 0.835294
0.533333 0.690196 0.827451
0.662745 0.686275 0.827451
0.800000 0.682353 0.815686
0.941176 0.674510 0.819608
1.000000 0.678431 0.827451
0.007843 0.811765 0.831373
0.121569 0.811765 0.811765
0.250980 0.815686 0.819608
0.384314 0.815686 0.819608
0.521569 0.819608 0.819608
0.662745 0.811765 0.815686
0.800000 0.803922 0.811765
0.941176 0.807843 0.811765
1.000000 0.819608 0.827451
0.000000 0.956863 0.827451
0.000000 0.956863 0.823529
0.215686 0.949020 0.827451
0.372549 0.956863 0.831373
0.513725 0.960784 0.827451
0.666667 0.956863 0.819608
0.815686 0.952941 0.823529
0.952941 0.956863 0.823529
1.000000 0.945098 0.827451
0.203922 1.000000 0.811765
0.262745 1.000000 0.803922
0.356863 1.000000 0.803922
0.470588 1.000000 0.815686
0.600000 1.000000 0.815686
0.721569 1.000000 0.827451
0.819608 0.996078 0.827451
0.909804 1.000000 0.827451
0.992157 1.000000 0.835294
0.000000 0.035294 0.964706
0.011765 0.039216 0.964706
0.215686 0.050980 0.960784
0.368627 0.066667 0.960784
0.509804 0.074510 0.960784
0.650980 0.078431 0.952941
0.803922 0.078431 0.960784
0.945098 0.082353 0.952941
1.000000 0.109804 0.952941
0.000000 0.156863 0.949020
0.011765 0.152941 0.960784
0.207843 0.156863 0.956863
0.352941 0.168627 0.960784
0.505882 0.164706 0.960784
0.650980 0.172549 0.952941
0.792157 0.160784 0.945098
0.937255 0.164706 0.952941
0.996078 0.188235 0.956863
0.000000 0.290196 0.952941
0.000000 0.290196 0.964706
0.211765 0.301961 0.960784
0.368627 0.294118 0.960784
0.513725 0.294118 0.956863
0.662745 0.305882 0.952941
0.800000 0.301961 0.949020
0.945098 0.309804 0.952941
1.000000 0.321569 0.945098
0.003922 0.419608 0.952941
0.043137 0.427451 0.949020
0.227451 0.435294 0.952941
0.380392 0.427451 0.952941
0.517647 0.427451 0.937255
0.654902 0.431373 0.945098
0.792157 0.435294 0.949020
0.929412 0.423529 0.929412
1.000000 0.423529 0.945098
0.000000 0.560784 0.949020
0.141176 0.568627 0.964706
0.262745 0.568627 0.952941
0.400000 0.564706 0.949020
0.529412 0.560784 0.949020
0.662745 0.560784 0.956863
0.807843 0.552941 0.952941
0.945098 0.549020 0.949020
1.000000 0.552941 0.949020
0.000000 0.701961 0.960784
0.121569 0.698039 0.960784
0.254902 0.698039 0.956863
0.388235 0.690196 0.956863
0.529412 0.686275 0.956863
0.666667 0.682353 0.960784
0.807843 0.678431 0.949020
0.952941 0.678431 0.960784
0.996078 0.674510 0.956863
0.000000 0.827451 0.960784
0.007843 0.819608 0.945098
0.215686 0.819608 0.952941
0.364706 0.823529 0.960784
0.517647 0.815686 0.956863
0.654902 0.811765 0.949020
0.800000 0.811765 0.949020
0.949020 0.807843 0.949020
0.996078 0.819608 0.941176
0.000000 0.956863 0.960784
0.000000 0.952941 0.968627
0.215686 0.960784 0.952941
0.372549 0.952941 0.952941
0.525490 0.956863 0.952941
0.662745 0.952941 0.949020
0.811765 0.952941 0.952941
0.952941 0.952941 0.952941
1.000000 0.964706 0.945098
0.231373 1.000000 0.921569
0.286275 1.000000 0.933333
0.376471 1.000000 0.921569
0.494118 1.000000 0.921569
0.619608 1.000000 0.925490
0.745098 0.996078 0.929412
0.874510 1.000000 0.941176
0.952941 1.000000 0.952941
1.000000 1.000000 0.960784
0.000000 0.074510 0.996078
0.000000 0.066667 1.000000
0.184314 0.078431 1.000000
0.345098 0.086275 1.000000
0.494118 0.090196 0.996078
0.643137 0.094118 1.000000
0.784314 0.086275 1.000000
0.921569 0.090196 1.000000
1.000000 0.145098 1.000000
0.003922 0.156863 1.000000
0.000000 0.156863 0.996078
0.180392 0.168627 1.000000
0.349020 0.168627 1.000000
0.494118 0.168627 1.000000
0.635294 0.164706 0.996078
0.780392 0.164706 1.000000
0.937255 0.164706 1.000000
0.992157 0.203922 0.996078
0.000000 0.286275 1.000000
0.000000 0.294118 0.996078
0.184314 0.298039 1.000000
0.360784 0.290196 0.996078
0.498039 0.298039 1.000000
0.643137 0.294118 1.000000
0.784314 0.301961 1.000000
0.925490 0.309804 1.000000
0.996078 0.329412 1.000000
0.003922 0.419608 1.000000
0.031373 0.423529 1.000000
0.235294 0.419608 1.000000
0.368627 0.423529 1.000000
0.513725 0.427451 1.000000
0.643137 0.427451 1.000000
0.788235 0.427451 1.000000
0.921569 0.427451 1.000000
1.000000 0.431373 1.000000
0.086275 0.560784 1.000000
0.184314 0.560784 1.000000
0.286275 0.560784 1.000000
0.403922 0.560784 0.996078
0.533333 0.556863 0.996078
0.650980 0.556863 1.000000
0.784314 0.549020 0.996078
0.909804 0.556863 1.000000
1.000000 0.560784 1.000000
0.176471 0.682353 1.000000
0.227451 0.678431 0.996078
0.317647 0.682353 0.996078
0.427451 0.682353 0.996078
0.545098 0.682353 1.000000
0.658824 0.678431 0.996078
0.788235 0.682353 1.000000
0.913725 0.682353 1.000000
0.996078 0.686275 1.000000
0.192157 0.796078 0.992157
0.254902 0.803922 1.000000
0.341176 0.796078 0.996078
0.443137 0.796078 1.000000
0.560784 0.803922 1.000000
0.686275 0.803922 1.000000
0.807843 0.811765 1.000000
0.913725 0.823529 1.000000
0.996078 0.827451 1.000000
0.305882 0.913725 1.000000
0.360784 0.901961 1.000000
0.415686 0.909804 0.996078
0.509804 0.909804 0.996078
0.615686 0.917647 0.996078
0.733333 0.921569 1.000000
0.850980 0.933333 1.000000
0.952941 0.952941 1.000000
1.000000 0.964706 1.000000
0.400000 0.996078 1.000000
0.443137 1.000000 0.996078
0.494118 1.000000 0.996078
0.576471 1.000000 1.000000
0.678431 0.996078 1.000000
0.788235 1.000000 1.000000
0.905882 1.000000 0.992157
0.996078 1.000000 1.000000
1.000000 1.000000 1.000000
