loleis/其他/lut20种/Sports LUT #15.cube
TITLE "Sports LUT #15"
#LUT size
LUT_3D_SIZE 25
#LUT data points
0.000000 0.000000 0.000000
0.035294 0.000000 0.003922
0.098039 0.000000 0.011765
0.156863 0.000000 0.003922
0.227451 0.000000 0.000000
0.278431 0.003922 0.000000
0.329412 0.019608 0.000000
0.376471 0.027451 0.011765
0.435294 0.039216 0.000000
0.490196 0.043137 0.003922
0.549020 0.047059 0.003922
0.607843 0.050980 0.003922
0.662745 0.062745 0.000000
0.721569 0.074510 0.000000
0.772549 0.078431 0.000000
0.823529 0.082353 0.003922
0.862745 0.094118 0.007843
0.905882 0.098039 0.003922
0.952941 0.109804 0.000000
0.976471 0.117647 0.000000
1.000000 0.125490 0.003922
1.000000 0.137255 0.011765
1.000000 0.149020 0.027451
1.000000 0.156863 0.047059
1.000000 0.160784 0.078431
0.000000 0.054902 0.000000
0.023529 0.054902 0.000000
0.078431 0.066667 0.000000
0.149020 0.078431 0.000000
0.207843 0.082353 0.000000
0.270588 0.082353 0.000000
0.325490 0.090196 0.000000
0.368627 0.094118 0.000000
0.435294 0.098039 0.000000
0.490196 0.098039 0.000000
0.541176 0.105882 0.000000
0.600000 0.109804 0.000000
0.654902 0.109804 0.000000
0.709804 0.117647 0.000000
0.764706 0.125490 0.003922
0.823529 0.129412 0.000000
0.866667 0.133333 0.003922
0.905882 0.133333 0.000000
0.945098 0.145098 0.007843
0.980392 0.149020 0.000000
1.000000 0.152941 0.000000
0.996078 0.160784 0.003922
0.996078 0.164706 0.019608
0.992157 0.172549 0.050980
1.000000 0.180392 0.058824
0.007843 0.121569 0.003922
0.011765 0.125490 0.003922
0.078431 0.133333 0.003922
0.145098 0.137255 0.000000
0.211765 0.137255 0.007843
0.258824 0.141176 0.000000
0.313725 0.141176 0.000000
0.372549 0.145098 0.000000
0.431373 0.149020 0.000000
0.482353 0.149020 0.000000
0.533333 0.149020 0.000000
0.592157 0.152941 0.000000
0.650980 0.156863 0.000000
0.701961 0.156863 0.000000
0.760784 0.160784 0.000000
0.811765 0.160784 0.000000
0.854902 0.168627 0.000000
0.890196 0.172549 0.007843
0.937255 0.168627 0.003922
0.980392 0.176471 0.007843
0.992157 0.184314 0.000000
0.996078 0.188235 0.003922
1.000000 0.188235 0.023529
1.000000 0.192157 0.035294
0.996078 0.203922 0.054902
0.003922 0.192157 0.000000
0.000000 0.188235 0.003922
0.050980 0.192157 0.003922
0.133333 0.196078 0.011765
0.196078 0.196078 0.000000
0.250980 0.196078 0.003922
0.309804 0.203922 0.000000
0.364706 0.203922 0.000000
0.419608 0.200000 0.007843
0.474510 0.200000 0.000000
0.541176 0.196078 0.000000
0.600000 0.203922 0.000000
0.639216 0.203922 0.000000
0.701961 0.211765 0.000000
0.760784 0.211765 0.003922
0.803922 0.211765 0.003922
0.854902 0.211765 0.003922
0.894118 0.211765 0.003922
0.937255 0.219608 0.000000
0.964706 0.215686 0.000000
0.996078 0.211765 0.007843
0.996078 0.215686 0.000000
1.000000 0.219608 0.015686
0.992157 0.223529 0.035294
0.996078 0.231373 0.058824
0.003922 0.247059 0.000000
0.000000 0.254902 0.003922
0.015686 0.247059 0.000000
0.117647 0.254902 0.003922
0.180392 0.254902 0.003922
0.247059 0.254902 0.000000
0.305882 0.247059 0.000000
0.360784 0.250980 0.000000
0.419608 0.247059 0.000000
0.470588 0.243137 0.000000
0.525490 0.254902 0.000000
0.584314 0.250980 0.000000
0.643137 0.254902 0.000000
0.701961 0.254902 0.007843
0.749020 0.258824 0.000000
0.800000 0.258824 0.003922
0.843137 0.258824 0.000000
0.882353 0.258824 0.000000
0.917647 0.254902 0.000000
0.956863 0.254902 0.000000
0.992157 0.250980 0.000000
1.000000 0.250980 0.000000
0.996078 0.254902 0.003922
0.996078 0.258824 0.019608
1.000000 0.258824 0.031373
0.000000 0.321569 0.000000
0.003922 0.313725 0.000000
0.000000 0.325490 0.000000
0.094118 0.317647 0.007843
0.176471 0.321569 0.007843
0.239216 0.325490 0.000000
0.305882 0.313725 0.000000
0.380392 0.317647 0.011765
0.431373 0.309804 0.000000
0.482353 0.313725 0.003922
0.545098 0.313725 0.000000
0.603922 0.321569 0.000000
0.670588 0.321569 0.000000
0.717647 0.321569 0.000000
0.772549 0.321569 0.000000
0.819608 0.321569 0.003922
0.866667 0.313725 0.000000
0.905882 0.313725 0.000000
0.941176 0.309804 0.003922
0.976471 0.309804 0.015686
1.000000 0.309804 0.023529
1.000000 0.305882 0.031373
0.992157 0.305882 0.043137
0.996078 0.305882 0.070588
1.000000 0.305882 0.094118
0.003922 0.360784 0.000000
0.000000 0.364706 0.007843
0.003922 0.356863 0.003922
0.062745 0.360784 0.003922
0.164706 0.364706 0.000000
0.239216 0.372549 0.003922
0.286275 0.368627 0.000000
0.364706 0.364706 0.011765
0.419608 0.368627 0.007843
0.482353 0.360784 0.003922
0.537255 0.360784 0.000000
0.603922 0.372549 0.003922
0.662745 0.372549 0.000000
0.721569 0.372549 0.003922
0.764706 0.372549 0.003922
0.815686 0.372549 0.011765
0.858824 0.368627 0.007843
0.898039 0.360784 0.000000
0.937255 0.360784 0.000000
0.976471 0.349020 0.003922
1.000000 0.356863 0.023529
1.000000 0.352941 0.039216
1.000000 0.349020 0.058824
1.000000 0.352941 0.062745
1.000000 0.345098 0.090196
0.000000 0.411765 0.000000
0.000000 0.415686 0.007843
0.003922 0.415686 0.011765
0.015686 0.423529 0.000000
0.152941 0.415686 0.011765
0.215686 0.415686 0.003922
0.286275 0.415686 0.003922
0.352941 0.419608 0.003922
0.423529 0.419608 0.003922
0.474510 0.419608 0.000000
0.541176 0.419608 0.000000
0.600000 0.427451 0.000000
0.662745 0.427451 0.000000
0.713725 0.423529 0.000000
0.760784 0.427451 0.007843
0.807843 0.423529 0.003922
0.854902 0.419608 0.000000
0.894118 0.411765 0.000000
0.937255 0.407843 0.000000
0.964706 0.403922 0.003922
0.988235 0.400000 0.019608
1.000000 0.396078 0.031373
0.996078 0.392157 0.054902
1.000000 0.392157 0.074510
1.000000 0.384314 0.082353
0.000000 0.474510 0.000000
0.007843 0.470588 0.000000
0.000000 0.466667 0.000000
0.000000 0.470588 0.000000
0.125490 0.478431 0.000000
0.219608 0.474510 0.003922
0.290196 0.478431 0.000000
0.345098 0.478431 0.000000
0.407843 0.478431 0.000000
0.474510 0.482353 0.000000
0.537255 0.474510 0.000000
0.592157 0.482353 0.000000
0.650980 0.478431 0.000000
0.709804 0.474510 0.000000
0.756863 0.474510 0.000000
0.803922 0.474510 0.000000
0.839216 0.466667 0.003922
0.878431 0.458824 0.003922
0.913725 0.454902 0.007843
0.956863 0.447059 0.007843
0.980392 0.439216 0.011765
1.000000 0.435294 0.031373
1.000000 0.435294 0.047059
1.000000 0.431373 0.058824
0.996078 0.423529 0.086275
0.000000 0.529412 0.000000
0.000000 0.529412 0.000000
0.003922 0.533333 0.000000
0.000000 0.541176 0.000000
0.098039 0.537255 0.000000
0.200000 0.537255 0.007843
0.290196 0.541176 0.007843
0.341176 0.541176 0.003922
0.411765 0.537255 0.000000
0.474510 0.541176 0.000000
0.541176 0.533333 0.003922
0.584314 0.533333 0.000000
0.650980 0.537255 0.003922
0.698039 0.533333 0.000000
0.745098 0.525490 0.000000
0.788235 0.521569 0.000000
0.827451 0.509804 0.000000
0.862745 0.505882 0.000000
0.901961 0.498039 0.000000
0.941176 0.494118 0.007843
0.964706 0.494118 0.023529
0.996078 0.486275 0.039216
1.000000 0.474510 0.050980
1.000000 0.470588 0.070588
1.000000 0.462745 0.074510
0.000000 0.631373 0.000000
0.011765 0.619608 0.007843
0.000000 0.631373 0.011765
0.000000 0.631373 0.000000
0.101961 0.627451 0.003922
0.227451 0.619608 0.000000
0.301961 0.631373 0.003922
0.368627 0.627451 0.000000
0.443137 0.623529 0.003922
0.498039 0.619608 0.007843
0.556863 0.619608 0.000000
0.611765 0.619608 0.000000
0.670588 0.615686 0.000000
0.721569 0.607843 0.003922
0.764706 0.596078 0.000000
0.803922 0.588235 0.000000
0.843137 0.580392 0.000000
0.886275 0.576471 0.011765
0.921569 0.560784 0.023529
0.952941 0.556863 0.047059
0.988235 0.549020 0.058824
0.996078 0.541176 0.066667
1.000000 0.533333 0.090196
1.000000 0.521569 0.105882
0.992157 0.529412 0.113725
0.000000 0.662745 0.000000
0.000000 0.662745 0.000000
0.000000 0.670588 0.003922
0.007843 0.674510 0.003922
0.047059 0.682353 0.003922
0.188235 0.666667 0.000000
0.282353 0.670588 0.007843
0.356863 0.666667 0.000000
0.411765 0.670588 0.003922
0.478431 0.666667 0.000000
0.537255 0.670588 0.000000
0.600000 0.670588 0.003922
0.654902 0.662745 0.000000
0.709804 0.654902 0.000000
0.752941 0.647059 0.000000
0.788235 0.635294 0.000000
0.835294 0.623529 0.000000
0.870588 0.615686 0.003922
0.905882 0.615686 0.031373
0.941176 0.600000 0.047059
0.976471 0.600000 0.066667
0.996078 0.584314 0.082353
1.000000 0.576471 0.086275
0.996078 0.564706 0.113725
1.000000 0.568627 0.133333
0.000000 0.709804 0.000000
0.003922 0.705882 0.000000
0.000000 0.713725 0.000000
0.000000 0.713725 0.007843
0.000000 0.713725 0.003922
0.160784 0.717647 0.000000
0.250980 0.713725 0.000000
0.325490 0.713725 0.003922
0.396078 0.713725 0.003922
0.458824 0.709804 0.000000
0.517647 0.705882 0.000000
0.584314 0.705882 0.003922
0.635294 0.705882 0.000000
0.686275 0.698039 0.000000
0.741176 0.690196 0.007843
0.784314 0.682353 0.003922
0.823529 0.674510 0.000000
0.854902 0.666667 0.000000
0.898039 0.654902 0.015686
0.933333 0.647059 0.039216
0.968627 0.635294 0.066667
1.000000 0.627451 0.094118
1.000000 0.619608 0.098039
0.996078 0.611765 0.121569
1.000000 0.603922 0.141176
0.000000 0.745098 0.000000
0.003922 0.752941 0.000000
0.000000 0.752941 0.000000
0.000000 0.756863 0.000000
0.007843 0.749020 0.011765
0.133333 0.749020 0.000000
0.239216 0.752941 0.000000
0.313725 0.749020 0.000000
0.372549 0.752941 0.000000
0.439216 0.749020 0.003922
0.498039 0.741176 0.000000
0.545098 0.745098 0.003922
0.611765 0.737255 0.003922
0.662745 0.737255 0.000000
0.717647 0.737255 0.000000
0.768627 0.733333 0.000000
0.803922 0.717647 0.000000
0.850980 0.705882 0.003922
0.894118 0.698039 0.019608
0.925490 0.686275 0.027451
0.956863 0.674510 0.039216
0.984314 0.670588 0.086275
1.000000 0.662745 0.086275
1.000000 0.650980 0.101961
1.000000 0.643137 0.137255
0.000000 0.776471 0.000000
0.000000 0.788235 0.000000
0.007843 0.784314 0.000000
0.003922 0.792157 0.000000
0.000000 0.796078 0.000000
0.105882 0.780392 0.003922
0.207843 0.788235 0.003922
0.282353 0.784314 0.000000
0.352941 0.788235 0.003922
0.411765 0.792157 0.003922
0.486275 0.776471 0.000000
0.541176 0.780392 0.000000
0.592157 0.772549 0.000000
0.643137 0.776471 0.000000
0.701961 0.772549 0.000000
0.752941 0.768627 0.000000
0.800000 0.760784 0.000000
0.839216 0.749020 0.003922
0.874510 0.737255 0.000000
0.905882 0.725490 0.003922
0.941176 0.713725 0.039216
0.980392 0.709804 0.058824
1.000000 0.701961 0.082353
1.000000 0.690196 0.098039
1.000000 0.682353 0.117647
0.000000 0.858824 0.058824
0.000000 0.858824 0.050980
0.000000 0.858824 0.058824
0.000000 0.854902 0.066667
0.000000 0.858824 0.058824
0.109804 0.847059 0.058824
0.203922 0.854902 0.054902
0.294118 0.850980 0.043137
0.360784 0.843137 0.039216
0.415686 0.843137 0.039216
0.478431 0.843137 0.039216
0.537255 0.843137 0.035294
0.592157 0.835294 0.023529
0.643137 0.831373 0.023529
0.701961 0.827451 0.023529
0.749020 0.823529 0.023529
0.800000 0.819608 0.019608
0.843137 0.811765 0.031373
0.878431 0.800000 0.050980
0.921569 0.788235 0.070588
0.956863 0.776471 0.094118
0.980392 0.768627 0.109804
0.992157 0.756863 0.133333
0.996078 0.749020 0.149020
0.992157 0.737255 0.172549
0.007843 0.862745 0.043137
0.000000 0.878431 0.054902
0.007843 0.866667 0.050980
0.000000 0.874510 0.058824
0.000000 0.886275 0.058824
0.062745 0.878431 0.070588
0.196078 0.874510 0.074510
0.278431 0.874510 0.070588
0.333333 0.870588 0.070588
0.403922 0.870588 0.070588
0.458824 0.870588 0.062745
0.517647 0.866667 0.066667
0.572549 0.866667 0.062745
0.631373 0.862745 0.062745
0.674510 0.858824 0.066667
0.725490 0.854902 0.058824
0.780392 0.847059 0.054902
0.831373 0.843137 0.047059
0.874510 0.843137 0.070588
0.905882 0.831373 0.082353
0.941176 0.823529 0.101961
0.972549 0.807843 0.125490
1.000000 0.800000 0.137255
0.996078 0.788235 0.168627
0.996078 0.780392 0.180392
0.000000 0.901961 0.070588
0.000000 0.898039 0.086275
0.003922 0.901961 0.098039
0.003922 0.901961 0.098039
0.000000 0.905882 0.101961
0.015686 0.901961 0.094118
0.180392 0.898039 0.090196
0.243137 0.898039 0.098039
0.313725 0.898039 0.090196
0.380392 0.898039 0.094118
0.443137 0.890196 0.098039
0.494118 0.894118 0.090196
0.549020 0.894118 0.086275
0.600000 0.886275 0.086275
0.654902 0.886275 0.078431
0.698039 0.882353 0.082353
0.752941 0.882353 0.086275
0.796078 0.878431 0.082353
0.847059 0.874510 0.090196
0.894118 0.870588 0.101961
0.925490 0.858824 0.109804
0.960784 0.850980 0.125490
1.000000 0.835294 0.152941
0.996078 0.823529 0.160784
0.996078 0.819608 0.176471
0.000000 0.929412 0.109804
0.000000 0.925490 0.113725
0.003922 0.929412 0.117647
0.000000 0.933333 0.113725
0.000000 0.933333 0.121569
0.007843 0.933333 0.125490
0.145098 0.925490 0.129412
0.243137 0.921569 0.125490
0.309804 0.917647 0.125490
0.368627 0.929412 0.129412
0.423529 0.921569 0.117647
0.474510 0.917647 0.109804
0.533333 0.913725 0.113725
0.584314 0.909804 0.117647
0.631373 0.909804 0.117647
0.682353 0.905882 0.109804
0.725490 0.909804 0.109804
0.772549 0.901961 0.098039
0.819608 0.905882 0.101961
0.870588 0.898039 0.098039
0.905882 0.894118 0.105882
0.949020 0.886275 0.113725
0.984314 0.870588 0.133333
1.000000 0.862745 0.149020
1.000000 0.854902 0.164706
0.000000 0.949020 0.133333
0.000000 0.952941 0.133333
0.000000 0.956863 0.137255
0.000000 0.949020 0.141176
0.000000 0.945098 0.156863
0.007843 0.956863 0.141176
0.133333 0.952941 0.149020
0.235294 0.952941 0.152941
0.294118 0.949020 0.149020
0.352941 0.945098 0.149020
0.403922 0.949020 0.137255
0.462745 0.945098 0.141176
0.517647 0.945098 0.141176
0.560784 0.941176 0.141176
0.611765 0.937255 0.137255
0.662745 0.933333 0.137255
0.705882 0.929412 0.133333
0.756863 0.933333 0.129412
0.800000 0.929412 0.125490
0.843137 0.929412 0.125490
0.882353 0.929412 0.121569
0.933333 0.921569 0.133333
0.972549 0.905882 0.145098
0.992157 0.894118 0.156863
1.000000 0.886275 0.164706
0.000000 0.996078 0.250980
0.000000 0.996078 0.243137
0.000000 0.992157 0.231373
0.007843 0.992157 0.235294
0.000000 0.996078 0.231373
0.117647 0.992157 0.250980
0.203922 0.992157 0.239216
0.258824 0.984314 0.231373
0.313725 0.984314 0.227451
0.360784 0.988235 0.227451
0.415686 0.980392 0.223529
0.466667 0.984314 0.219608
0.521569 0.980392 0.223529
0.564706 0.980392 0.219608
0.611765 0.976471 0.211765
0.654902 0.976471 0.207843
0.701961 0.964706 0.203922
0.745098 0.972549 0.203922
0.780392 0.968627 0.200000
0.823529 0.964706 0.196078
0.878431 0.956863 0.192157
0.925490 0.952941 0.200000
0.964706 0.952941 0.211765
0.992157 0.945098 0.223529
1.000000 0.929412 0.231373
0.011765 1.000000 0.227451
0.000000 1.000000 0.223529
0.003922 0.996078 0.254902
0.000000 1.000000 0.239216
0.000000 1.000000 0.254902
0.098039 0.996078 0.254902
0.180392 1.000000 0.247059
0.247059 0.996078 0.243137
0.301961 0.996078 0.243137
0.356863 1.000000 0.243137
0.396078 1.000000 0.239216
0.447059 1.000000 0.243137
0.494118 1.000000 0.243137
0.541176 1.000000 0.235294
0.584314 1.000000 0.231373
0.631373 0.996078 0.243137
0.678431 0.992157 0.235294
0.725490 0.988235 0.227451
0.764706 0.988235 0.231373
0.815686 0.984314 0.227451
0.858824 0.980392 0.235294
0.901961 0.976471 0.239216
0.937255 0.980392 0.243137
0.980392 0.976471 0.247059
1.000000 0.960784 0.262745
0.000000 1.000000 0.239216
0.003922 1.000000 0.247059
0.003922 0.996078 0.262745
0.000000 1.000000 0.266667
0.003922 1.000000 0.266667
0.129412 0.992157 0.270588
0.184314 1.000000 0.262745
0.239216 1.000000 0.266667
0.298039 1.000000 0.262745
0.349020 1.000000 0.262745
0.392157 1.000000 0.262745
0.431373 1.000000 0.258824
0.486275 0.996078 0.258824
0.533333 1.000000 0.262745
0.572549 1.000000 0.254902
0.619608 1.000000 0.250980
0.662745 0.996078 0.247059
0.698039 1.000000 0.247059
0.745098 1.000000 0.247059
0.796078 0.996078 0.239216
0.839216 1.000000 0.247059
0.858824 0.996078 0.250980
0.905882 0.996078 0.243137
0.960784 0.996078 0.262745
0.992157 0.992157 0.278431
0.003922 1.000000 0.266667
0.000000 1.000000 0.266667
0.000000 1.000000 0.286275
0.007843 0.996078 0.286275
0.066667 1.000000 0.301961
0.137255 0.996078 0.290196
0.203922 1.000000 0.294118
0.247059 1.000000 0.282353
0.294118 0.996078 0.290196
0.341176 1.000000 0.286275
0.392157 0.996078 0.282353
0.431373 0.996078 0.278431
0.474510 1.000000 0.274510
0.513725 1.000000 0.270588
0.560784 0.996078 0.278431
0.607843 1.000000 0.278431
0.643137 1.000000 0.278431
0.682353 0.996078 0.270588
0.725490 1.000000 0.266667
0.764706 1.000000 0.262745
0.800000 0.996078 0.262745
0.847059 1.000000 0.266667
0.870588 1.000000 0.278431
0.921569 1.000000 0.286275
0.960784 1.000000 0.282353
0.003922 1.000000 0.290196
0.003922 0.996078 0.294118
0.000000 0.996078 0.305882
0.043137 1.000000 0.321569
0.117647 1.000000 0.313725
0.168627 1.000000 0.321569
0.223529 1.000000 0.313725
0.262745 1.000000 0.321569
0.298039 0.996078 0.321569
0.341176 1.000000 0.321569
0.396078 1.000000 0.317647
0.419608 1.000000 0.309804
0.458824 1.000000 0.301961
0.501961 1.000000 0.305882
0.549020 1.000000 0.298039
0.588235 1.000000 0.294118
0.631373 0.996078 0.294118
0.666667 1.000000 0.298039
0.705882 1.000000 0.298039
0.745098 1.000000 0.301961
0.780392 0.996078 0.286275
0.823529 1.000000 0.298039
0.862745 1.000000 0.294118
0.894118 1.000000 0.305882
0.925490 1.000000 0.309804
0.011765 0.003922 0.058824
0.039216 0.000000 0.058824
0.094118 0.000000 0.062745
0.160784 0.000000 0.062745
0.219608 0.000000 0.054902
0.274510 0.000000 0.050980
0.321569 0.007843 0.050980
0.392157 0.007843 0.066667
0.431373 0.019608 0.039216
0.486275 0.027451 0.050980
0.549020 0.039216 0.047059
0.611765 0.047059 0.047059
0.662745 0.054902 0.039216
0.709804 0.066667 0.031373
0.768627 0.074510 0.035294
0.815686 0.078431 0.035294
0.854902 0.094118 0.047059
0.898039 0.101961 0.047059
0.941176 0.113725 0.047059
0.976471 0.125490 0.058824
1.000000 0.133333 0.070588
1.000000 0.137255 0.074510
0.996078 0.145098 0.086275
1.000000 0.156863 0.098039
1.000000 0.164706 0.109804
0.000000 0.058824 0.054902
0.019608 0.058824 0.054902
0.101961 0.066667 0.039216
0.145098 0.062745 0.050980
0.207843 0.070588 0.054902
0.274510 0.078431 0.050980
0.321569 0.086275 0.047059
0.372549 0.086275 0.050980
0.427451 0.086275 0.050980
0.490196 0.086275 0.050980
0.541176 0.094118 0.050980
0.600000 0.098039 0.047059
0.662745 0.109804 0.043137
0.713725 0.117647 0.035294
0.764706 0.117647 0.039216
0.815686 0.125490 0.035294
0.858824 0.129412 0.039216
0.901961 0.133333 0.047059
0.937255 0.145098 0.058824
0.980392 0.149020 0.066667
1.000000 0.152941 0.070588
0.996078 0.164706 0.078431
0.996078 0.172549 0.082353
0.996078 0.176471 0.098039
1.000000 0.192157 0.105882
0.000000 0.117647 0.058824
0.000000 0.125490 0.062745
0.082353 0.125490 0.062745
0.137255 0.137255 0.043137
0.203922 0.133333 0.054902
0.258824 0.137255 0.054902
0.317647 0.141176 0.058824
0.368627 0.141176 0.062745
0.431373 0.137255 0.047059
0.482353 0.145098 0.047059
0.537255 0.145098 0.043137
0.596078 0.149020 0.043137
0.654902 0.156863 0.031373
0.709804 0.156863 0.039216
0.749020 0.164706 0.035294
0.807843 0.160784 0.043137
0.858824 0.160784 0.043137
0.894118 0.168627 0.050980
0.937255 0.172549 0.054902
0.980392 0.176471 0.062745
0.996078 0.180392 0.070588
1.000000 0.184314 0.078431
1.000000 0.196078 0.074510
0.996078 0.196078 0.090196
1.000000 0.200000 0.101961
0.000000 0.184314 0.050980
0.000000 0.192157 0.047059
0.054902 0.188235 0.058824
0.129412 0.192157 0.039216
0.203922 0.196078 0.047059
0.254902 0.192157 0.050980
0.313725 0.196078 0.047059
0.364706 0.192157 0.047059
0.431373 0.184314 0.047059
0.474510 0.192157 0.043137
0.525490 0.200000 0.043137
0.584314 0.200000 0.047059
0.654902 0.200000 0.047059
0.701961 0.211765 0.039216
0.749020 0.203922 0.035294
0.803922 0.211765 0.043137
0.847059 0.215686 0.043137
0.886275 0.215686 0.047059
0.925490 0.215686 0.047059
0.956863 0.215686 0.050980
0.988235 0.211765 0.058824
1.000000 0.219608 0.066667
0.996078 0.219608 0.066667
0.996078 0.219608 0.082353
1.000000 0.235294 0.101961
0.000000 0.243137 0.035294
0.000000 0.254902 0.047059
0.007843 0.243137 0.031373
0.105882 0.250980 0.039216
0.176471 0.243137 0.039216
0.239216 0.254902 0.054902
0.301961 0.250980 0.047059
0.356863 0.250980 0.043137
0.419608 0.250980 0.050980
0.474510 0.250980 0.043137
0.529412 0.250980 0.039216
0.572549 0.247059 0.035294
0.658824 0.250980 0.035294
0.705882 0.254902 0.039216
0.752941 0.258824 0.031373
0.796078 0.262745 0.035294
0.835294 0.262745 0.039216
0.874510 0.258824 0.043137
0.913725 0.258824 0.050980
0.952941 0.258824 0.054902
0.988235 0.250980 0.062745
1.000000 0.254902 0.066667
1.000000 0.254902 0.066667
0.992157 0.254902 0.078431
0.996078 0.258824 0.082353
0.000000 0.317647 0.035294
0.011765 0.313725 0.039216
0.000000 0.321569 0.039216
0.094118 0.317647 0.047059
0.168627 0.313725 0.039216
0.250980 0.317647 0.043137
0.305882 0.305882 0.031373
0.364706 0.313725 0.047059
0.427451 0.313725 0.054902
0.482353 0.309804 0.054902
0.541176 0.309804 0.043137
0.596078 0.309804 0.039216
0.658824 0.309804 0.035294
0.717647 0.313725 0.043137
0.764706 0.317647 0.043137
0.819608 0.313725 0.054902
0.854902 0.317647 0.050980
0.898039 0.313725 0.054902
0.945098 0.309804 0.066667
0.972549 0.305882 0.074510
0.996078 0.305882 0.082353
1.000000 0.301961 0.082353
0.996078 0.301961 0.090196
1.000000 0.309804 0.113725
1.000000 0.309804 0.113725
0.000000 0.352941 0.043137
0.000000 0.364706 0.047059
0.000000 0.360784 0.047059
0.058824 0.364706 0.035294
0.152941 0.360784 0.039216
0.235294 0.360784 0.035294
0.294118 0.368627 0.047059
0.356863 0.364706 0.039216
0.419608 0.360784 0.043137
0.482353 0.360784 0.039216
0.541176 0.364706 0.039216
0.596078 0.368627 0.047059
0.662745 0.368627 0.043137
0.717647 0.368627 0.039216
0.768627 0.376471 0.043137
0.819608 0.368627 0.050980
0.858824 0.368627 0.054902
0.898039 0.364706 0.066667
0.921569 0.356863 0.070588
0.968627 0.352941 0.074510
0.996078 0.349020 0.082353
1.000000 0.352941 0.086275
1.000000 0.345098 0.090196
1.000000 0.349020 0.105882
0.996078 0.345098 0.109804
0.000000 0.411765 0.047059
0.000000 0.415686 0.031373
0.000000 0.407843 0.035294
0.007843 0.423529 0.031373
0.129412 0.419608 0.047059
0.219608 0.415686 0.043137
0.294118 0.415686 0.047059
0.349020 0.415686 0.039216
0.415686 0.415686 0.039216
0.474510 0.419608 0.039216
0.537255 0.419608 0.043137
0.596078 0.423529 0.043137
0.654902 0.419608 0.035294
0.713725 0.423529 0.043137
0.749020 0.423529 0.047059
0.800000 0.419608 0.050980
0.847059 0.411765 0.058824
0.878431 0.411765 0.058824
0.913725 0.403922 0.058824
0.952941 0.403922 0.070588
0.984314 0.400000 0.078431
1.000000 0.392157 0.090196
0.992157 0.388235 0.098039
1.000000 0.388235 0.109804
1.000000 0.392157 0.101961
0.003922 0.462745 0.043137
0.007843 0.462745 0.035294
0.003922 0.466667 0.035294
0.000000 0.470588 0.047059
0.121569 0.470588 0.039216
0.203922 0.470588 0.035294
0.278431 0.474510 0.031373
0.349020 0.478431 0.035294
0.411765 0.478431 0.039216
0.466667 0.478431 0.027451
0.525490 0.474510 0.023529
0.584314 0.478431 0.019608
0.647059 0.482353 0.019608
0.701961 0.478431 0.035294
0.745098 0.470588 0.035294
0.788235 0.466667 0.043137
0.827451 0.462745 0.054902
0.870588 0.454902 0.062745
0.905882 0.450980 0.062745
0.949020 0.447059 0.066667
0.984314 0.439216 0.074510
1.000000 0.435294 0.078431
0.996078 0.431373 0.094118
1.000000 0.431373 0.105882
1.000000 0.431373 0.113725
0.000000 0.525490 0.023529
0.000000 0.533333 0.027451
0.000000 0.529412 0.023529
0.000000 0.529412 0.023529
0.101961 0.537255 0.023529
0.211765 0.529412 0.027451
0.274510 0.529412 0.019608
0.337255 0.533333 0.011765
0.411765 0.533333 0.023529
0.454902 0.533333 0.011765
0.525490 0.533333 0.011765
0.588235 0.533333 0.011765
0.635294 0.533333 0.000000
0.682353 0.525490 0.011765
0.737255 0.521569 0.027451
0.784314 0.513725 0.039216
0.823529 0.505882 0.047059
0.858824 0.498039 0.054902
0.901961 0.490196 0.062745
0.937255 0.486275 0.066667
0.968627 0.486275 0.078431
0.988235 0.482353 0.082353
1.000000 0.474510 0.086275
1.000000 0.474510 0.101961
1.000000 0.462745 0.105882
0.000000 0.623529 0.015686
0.000000 0.615686 0.015686
0.000000 0.627451 0.019608
0.000000 0.623529 0.015686
0.101961 0.623529 0.023529
0.200000 0.619608 0.011765
0.294118 0.623529 0.011765
0.368627 0.619608 0.007843
0.427451 0.611765 0.007843
0.478431 0.611765 0.000000
0.545098 0.611765 0.000000
