loleis/其他/lut20种/Sports LUT #15.cube
TITLE "Sports LUT #15"
#LUT size
LUT_3D_SIZE 5
#LUT data points
0.000000 0.000000 0.000000
0.329412 0.019608 0.000000
0.662745 0.062745 0.000000
0.952941 0.109804 0.000000
1.000000 0.160784 0.078431
0.003922 0.360784 0.000000
0.286275 0.368627 0.000000
0.662745 0.372549 0.000000
0.937255 0.360784 0.000000
1.000000 0.345098 0.090196
0.000000 0.709804 0.000000
0.250980 0.713725 0.000000
0.635294 0.705882 0.000000
0.898039 0.654902 0.015686
1.000000 0.603922 0.141176
0.000000 0.929412 0.109804
0.145098 0.925490 0.129412
0.533333 0.913725 0.113725
0.819608 0.905882 0.101961
1.000000 0.854902 0.164706
0.003922 1.000000 0.290196
0.223529 1.000000 0.313725
0.458824 1.000000 0.301961
0.705882 1.000000 0.298039
0.925490 1.000000 0.309804
0.003922 0.000000 0.364706
0.309804 0.000000 0.356863
0.658824 0.043137 0.352941
0.937255 0.117647 0.345098
1.000000 0.207843 0.337255
0.000000 0.356863 0.345098
0.278431 0.356863 0.349020
0.650980 0.360784 0.349020
0.905882 0.360784 0.341176
1.000000 0.368627 0.337255
0.000000 0.698039 0.317647
0.207843 0.701961 0.321569
0.611765 0.686275 0.325490
0.874510 0.643137 0.329412
1.000000 0.603922 0.345098
0.011765 0.909804 0.349020
0.176471 0.917647 0.352941
0.521569 0.901961 0.345098
0.811765 0.898039 0.337255
1.000000 0.843137 0.356863
0.050980 0.988235 0.419608
0.262745 0.996078 0.435294
0.482353 1.000000 0.427451
0.705882 1.000000 0.431373
0.925490 1.000000 0.435294
0.000000 0.000000 0.701961
0.270588 0.003922 0.682353
0.647059 0.019608 0.694118
0.921569 0.117647 0.654902
1.000000 0.286275 0.611765
0.007843 0.341176 0.694118
0.243137 0.352941 0.682353
0.635294 0.345098 0.694118
0.901961 0.372549 0.643137
0.984314 0.462745 0.639216
0.000000 0.682353 0.678431
0.219608 0.690196 0.682353
0.607843 0.686275 0.682353
0.854902 0.678431 0.666667
0.996078 0.678431 0.666667
0.145098 0.905882 0.666667
0.364706 0.913725 0.666667
0.576471 0.905882 0.662745
0.811765 0.898039 0.654902
1.000000 0.862745 0.674510
0.380392 1.000000 0.674510
0.447059 1.000000 0.682353
0.572549 1.000000 0.674510
0.745098 1.000000 0.670588
0.913725 1.000000 0.674510
0.000000 0.070588 0.917647
0.219608 0.094118 0.909804
0.556863 0.121569 0.917647
0.843137 0.149020 0.901961
0.996078 0.274510 0.862745
0.000000 0.329412 0.905882
0.211765 0.337255 0.905882
0.545098 0.341176 0.905882
0.835294 0.360784 0.905882
0.996078 0.439216 0.862745
0.000000 0.623529 0.890196
0.290196 0.643137 0.890196
0.568627 0.654902 0.890196
0.815686 0.654902 0.890196
1.000000 0.678431 0.866667
0.141176 0.886275 0.886275
0.329412 0.890196 0.882353
0.576471 0.890196 0.878431
0.788235 0.886275 0.870588
0.960784 0.890196 0.882353
0.447059 0.996078 0.843137
0.513725 1.000000 0.858824
0.650980 1.000000 0.874510
0.784314 1.000000 0.878431
0.917647 1.000000 0.878431
0.000000 0.152941 1.000000
0.156863 0.160784 1.000000
0.470588 0.188235 0.996078
0.725490 0.223529 0.996078
0.972549 0.309804 1.000000
0.003922 0.337255 0.996078
0.196078 0.349020 0.996078
0.466667 0.356863 0.996078
0.733333 0.380392 1.000000
0.968627 0.447059 1.000000
0.274510 0.623529 1.000000
0.380392 0.635294 1.000000
0.541176 0.639216 1.000000
0.749020 0.647059 1.000000
0.952941 0.682353 0.996078
0.384314 0.839216 0.992157
0.482353 0.843137 0.996078
0.631373 0.858824 1.000000
0.780392 0.878431 1.000000
0.925490 0.890196 0.996078
0.525490 0.996078 1.000000
0.576471 1.000000 0.992157
0.678431 0.996078 1.000000
0.819608 1.000000 1.000000
0.913725 0.996078 1.000000
