loleis/其他/lut20种/Sports LUT #20.cube
TITLE "Sports LUT #20"
#LUT size
LUT_3D_SIZE 9
#LUT data points
0.105882 0.101961 0.094118
0.203922 0.101961 0.098039
0.329412 0.101961 0.098039
0.466667 0.090196 0.094118
0.643137 0.086275 0.082353
0.796078 0.074510 0.074510
0.925490 0.082353 0.074510
1.000000 0.090196 0.062745
1.000000 0.113725 0.058824
0.109804 0.196078 0.105882
0.203922 0.188235 0.090196
0.317647 0.192157 0.094118
0.462745 0.184314 0.098039
0.623529 0.188235 0.082353
0.788235 0.184314 0.074510
0.917647 0.184314 0.062745
0.996078 0.184314 0.058824
1.000000 0.188235 0.066667
0.121569 0.305882 0.094118
0.207843 0.305882 0.090196
0.321569 0.313725 0.090196
0.474510 0.317647 0.078431
0.654902 0.329412 0.070588
0.807843 0.325490 0.050980
0.917647 0.325490 0.047059
0.996078 0.313725 0.035294
1.000000 0.313725 0.039216
0.129412 0.462745 0.054902
0.207843 0.466667 0.043137
0.349020 0.474510 0.039216
0.494118 0.470588 0.023529
0.650980 0.474510 0.007843
0.784314 0.466667 0.003922
0.905882 0.454902 0.000000
1.000000 0.443137 0.003922
0.996078 0.427451 0.000000
0.113725 0.643137 0.007843
0.215686 0.639216 0.000000
0.356863 0.643137 0.000000
0.509804 0.635294 0.003922
0.650980 0.627451 0.000000
0.792157 0.619608 0.003922
0.901961 0.600000 0.000000
1.000000 0.584314 0.003922
0.996078 0.568627 0.000000
0.152941 0.784314 0.000000
0.231373 0.784314 0.000000
0.356863 0.772549 0.000000
0.494118 0.772549 0.000000
0.635294 0.756863 0.003922
0.780392 0.752941 0.000000
0.898039 0.737255 0.000000
1.000000 0.713725 0.000000
1.000000 0.701961 0.003922
0.196078 0.866667 0.003922
0.254902 0.866667 0.000000
0.356863 0.866667 0.003922
0.486275 0.866667 0.007843
0.607843 0.858824 0.000000
0.741176 0.858824 0.003922
0.862745 0.843137 0.000000
0.988235 0.831373 0.011765
0.996078 0.815686 0.000000
0.266667 0.952941 0.062745
0.309804 0.960784 0.082353
0.400000 0.952941 0.094118
0.498039 0.960784 0.090196
0.603922 0.956863 0.086275
0.725490 0.952941 0.082353
0.831373 0.949020 0.086275
0.960784 0.941176 0.101961
1.000000 0.937255 0.137255
0.329412 0.996078 0.168627
0.360784 1.000000 0.188235
0.419608 1.000000 0.192157
0.494118 1.000000 0.192157
0.596078 1.000000 0.192157
0.701961 0.996078 0.184314
0.807843 1.000000 0.192157
0.925490 1.000000 0.200000
0.996078 1.000000 0.215686
0.117647 0.105882 0.188235
0.192157 0.098039 0.184314
0.321569 0.105882 0.180392
0.458824 0.086275 0.180392
0.631373 0.039216 0.168627
0.800000 0.003922 0.172549
0.921569 0.015686 0.156863
0.996078 0.039216 0.141176
1.000000 0.078431 0.145098
0.121569 0.184314 0.184314
0.203922 0.188235 0.176471
0.309804 0.188235 0.180392
0.462745 0.184314 0.176471
0.623529 0.168627 0.168627
0.784314 0.164706 0.160784
0.901961 0.160784 0.152941
1.000000 0.156863 0.145098
0.992157 0.172549 0.145098
0.113725 0.305882 0.180392
0.196078 0.313725 0.172549
0.321569 0.313725 0.164706
0.478431 0.313725 0.164706
0.643137 0.317647 0.160784
0.796078 0.313725 0.152941
0.917647 0.305882 0.145098
0.996078 0.301961 0.141176
1.000000 0.298039 0.145098
0.078431 0.466667 0.145098
0.184314 0.462745 0.149020
0.333333 0.458824 0.133333
0.478431 0.458824 0.137255
0.639216 0.462745 0.129412
0.772549 0.454902 0.133333
0.894118 0.443137 0.129412
0.992157 0.431373 0.125490
1.000000 0.419608 0.121569
0.054902 0.627451 0.098039
0.192157 0.631373 0.098039
0.345098 0.627451 0.101961
0.501961 0.627451 0.098039
0.647059 0.623529 0.090196
0.776471 0.611765 0.086275
0.898039 0.592157 0.105882
1.000000 0.572549 0.121569
1.000000 0.560784 0.129412
0.129412 0.768627 0.105882
0.211765 0.760784 0.090196
0.352941 0.760784 0.082353
0.490196 0.756863 0.078431
0.643137 0.752941 0.078431
0.760784 0.745098 0.078431
0.894118 0.733333 0.082353
1.000000 0.713725 0.109804
0.996078 0.698039 0.129412
0.164706 0.858824 0.074510
0.231373 0.866667 0.094118
0.345098 0.862745 0.098039
0.478431 0.854902 0.090196
0.611765 0.850980 0.098039
0.729412 0.847059 0.094118
0.858824 0.843137 0.078431
0.972549 0.823529 0.090196
1.000000 0.815686 0.133333
0.254902 0.952941 0.176471
0.313725 0.960784 0.176471
0.384314 0.960784 0.176471
0.494118 0.956863 0.180392
0.596078 0.949020 0.180392
0.725490 0.945098 0.172549
0.843137 0.945098 0.180392
0.960784 0.933333 0.172549
1.000000 0.929412 0.200000
0.329412 0.996078 0.223529
0.356863 1.000000 0.219608
0.419608 1.000000 0.231373
0.490196 1.000000 0.231373
0.596078 1.000000 0.235294
0.709804 0.996078 0.231373
0.800000 1.000000 0.243137
0.913725 0.996078 0.239216
0.996078 1.000000 0.254902
0.121569 0.094118 0.298039
0.203922 0.098039 0.305882
0.325490 0.094118 0.305882
0.474510 0.074510 0.321569
0.643137 0.003922 0.313725
0.803922 0.000000 0.301961
0.925490 0.000000 0.290196
1.000000 0.000000 0.282353
0.996078 0.054902 0.294118
0.121569 0.188235 0.298039
0.203922 0.176471 0.298039
0.317647 0.172549 0.301961
0.470588 0.168627 0.301961
0.647059 0.141176 0.301961
0.784314 0.105882 0.286275
0.913725 0.105882 0.286275
1.000000 0.121569 0.278431
1.000000 0.152941 0.274510
0.109804 0.298039 0.298039
0.184314 0.309804 0.298039
0.325490 0.305882 0.290196
0.478431 0.298039 0.298039
0.647059 0.301961 0.294118
0.803922 0.294118 0.286275
0.913725 0.290196 0.278431
0.996078 0.294118 0.278431
1.000000 0.294118 0.290196
0.000000 0.462745 0.286275
0.141176 0.466667 0.294118
0.321569 0.470588 0.286275
0.482353 0.466667 0.278431
0.643137 0.454902 0.274510
0.772549 0.447059 0.274510
0.901961 0.435294 0.270588
1.000000 0.427451 0.266667
1.000000 0.423529 0.274510
0.000000 0.627451 0.274510
0.137255 0.627451 0.270588
0.321569 0.631373 0.270588
0.486275 0.623529 0.262745
0.647059 0.619608 0.262745
0.780392 0.607843 0.266667
0.898039 0.592157 0.270588
1.000000 0.576471 0.282353
1.000000 0.568627 0.286275
0.101961 0.768627 0.278431
0.203922 0.764706 0.278431
0.345098 0.760784 0.274510
0.490196 0.756863 0.274510
0.635294 0.752941 0.274510
0.764706 0.749020 0.266667
0.894118 0.729412 0.266667
0.992157 0.709804 0.278431
1.000000 0.686275 0.298039
0.188235 0.854902 0.262745
0.258824 0.858824 0.270588
0.356863 0.858824 0.274510
0.478431 0.854902 0.270588
0.603922 0.847059 0.270588
0.733333 0.843137 0.266667
0.862745 0.839216 0.266667
0.972549 0.827451 0.274510
1.000000 0.803922 0.282353
0.278431 0.956863 0.298039
0.329412 0.952941 0.317647
0.403922 0.949020 0.309804
0.498039 0.952941 0.313725
0.607843 0.952941 0.317647
0.717647 0.945098 0.301961
0.831373 0.941176 0.305882
0.952941 0.929412 0.301961
1.000000 0.921569 0.329412
0.345098 1.000000 0.325490
0.376471 1.000000 0.337255
0.431373 1.000000 0.341176
0.509804 1.000000 0.341176
0.592157 1.000000 0.341176
0.705882 1.000000 0.345098
0.807843 1.000000 0.337255
0.913725 1.000000 0.352941
0.996078 1.000000 0.356863
0.137255 0.094118 0.462745
0.215686 0.094118 0.458824
0.341176 0.078431 0.458824
0.494118 0.039216 0.458824
0.654902 0.000000 0.470588
0.803922 0.000000 0.466667
0.917647 0.000000 0.435294
1.000000 0.000000 0.431373
0.992157 0.137255 0.435294
0.105882 0.188235 0.450980
0.203922 0.176471 0.450980
0.333333 0.168627 0.458824
0.490196 0.149020 0.458824
0.643137 0.125490 0.462745
0.792157 0.082353 0.447059
0.913725 0.098039 0.435294
1.000000 0.133333 0.435294
0.996078 0.207843 0.423529
0.023529 0.313725 0.466667
0.160784 0.309804 0.462745
0.325490 0.298039 0.462745
0.494118 0.294118 0.462745
0.666667 0.286275 0.462745
0.800000 0.286275 0.458824
0.921569 0.294118 0.443137
1.000000 0.317647 0.447059
1.000000 0.333333 0.447059
0.000000 0.466667 0.458824
0.121569 0.466667 0.470588
0.313725 0.466667 0.454902
0.478431 0.462745 0.450980
0.643137 0.454902 0.454902
0.772549 0.454902 0.443137
0.898039 0.447059 0.435294
0.992157 0.447059 0.435294
1.000000 0.443137 0.427451
0.000000 0.631373 0.447059
0.109804 0.631373 0.447059
0.321569 0.631373 0.454902
0.486275 0.627451 0.439216
0.635294 0.619608 0.435294
0.772549 0.607843 0.443137
0.890196 0.596078 0.443137
1.000000 0.580392 0.447059
1.000000 0.580392 0.447059
0.168627 0.768627 0.454902
0.250980 0.764706 0.450980
0.364706 0.760784 0.454902
0.498039 0.760784 0.450980
0.631373 0.752941 0.454902
0.772549 0.741176 0.447059
0.882353 0.729412 0.435294
0.992157 0.717647 0.447059
1.000000 0.705882 0.450980
0.243137 0.858824 0.439216
0.305882 0.858824 0.450980
0.384314 0.858824 0.447059
0.498039 0.854902 0.443137
0.611765 0.850980 0.443137
0.741176 0.847059 0.435294
0.858824 0.839216 0.431373
0.976471 0.827451 0.431373
1.000000 0.811765 0.439216
0.333333 0.956863 0.462745
0.364706 0.952941 0.458824
0.431373 0.952941 0.462745
0.525490 0.952941 0.462745
0.619608 0.949020 0.462745
0.733333 0.945098 0.466667
0.835294 0.937255 0.454902
0.956863 0.933333 0.454902
0.996078 0.933333 0.458824
0.392157 1.000000 0.462745
0.407843 1.000000 0.474510
0.470588 0.996078 0.474510
0.537255 0.996078 0.474510
0.623529 1.000000 0.474510
0.717647 1.000000 0.474510
0.815686 0.996078 0.470588
0.913725 1.000000 0.470588
0.996078 1.000000 0.482353
0.149020 0.078431 0.611765
0.227451 0.078431 0.615686
0.352941 0.047059 0.619608
0.494118 0.003922 0.607843
0.650980 0.000000 0.619608
0.803922 0.000000 0.623529
0.913725 0.000000 0.580392
1.000000 0.000000 0.560784
1.000000 0.125490 0.564706
0.121569 0.168627 0.607843
0.215686 0.164706 0.611765
0.341176 0.152941 0.615686
0.490196 0.129412 0.615686
0.635294 0.098039 0.603922
0.792157 0.062745 0.600000
0.901961 0.078431 0.576471
1.000000 0.125490 0.572549
0.996078 0.200000 0.560784
0.000000 0.301961 0.623529
0.149020 0.298039 0.631373
0.325490 0.298039 0.611765
0.494118 0.282353 0.619608
0.647059 0.278431 0.615686
0.792157 0.274510 0.600000
0.913725 0.282353 0.580392
1.000000 0.305882 0.572549
1.000000 0.352941 0.580392
0.000000 0.454902 0.607843
0.113725 0.458824 0.615686
0.305882 0.450980 0.615686
0.478431 0.450980 0.611765
0.631373 0.443137 0.600000
0.776471 0.447059 0.588235
0.882353 0.454902 0.576471
0.988235 0.458824 0.576471
1.000000 0.470588 0.580392
0.000000 0.627451 0.607843
0.141176 0.631373 0.615686
0.325490 0.623529 0.615686
0.494118 0.619608 0.607843
0.647059 0.615686 0.603922
0.772549 0.611765 0.603922
0.878431 0.603922 0.596078
0.984314 0.600000 0.588235
0.992157 0.611765 0.588235
0.200000 0.768627 0.600000
0.270588 0.760784 0.603922
0.384314 0.752941 0.607843
0.525490 0.752941 0.603922
0.631373 0.749020 0.600000
0.764706 0.741176 0.600000
0.874510 0.733333 0.592157
0.976471 0.721569 0.603922
1.000000 0.721569 0.596078
0.286275 0.854902 0.584314
0.333333 0.858824 0.580392
0.423529 0.858824 0.592157
0.521569 0.854902 0.592157
0.635294 0.850980 0.588235
0.745098 0.843137 0.584314
0.858824 0.839216 0.580392
0.964706 0.831373 0.580392
1.000000 0.831373 0.584314
0.392157 0.952941 0.592157
0.423529 0.949020 0.600000
0.478431 0.949020 0.596078
0.552941 0.945098 0.592157
0.647059 0.945098 0.600000
0.745098 0.941176 0.600000
0.843137 0.937255 0.592157
0.952941 0.929412 0.584314
0.996078 0.933333 0.592157
0.450980 0.996078 0.592157
0.478431 0.996078 0.596078
0.509804 1.000000 0.600000
0.568627 1.000000 0.603922
0.639216 1.000000 0.596078
0.725490 1.000000 0.596078
0.823529 1.000000 0.603922
0.921569 1.000000 0.600000
0.992157 1.000000 0.600000
0.172549 0.066667 0.745098
0.235294 0.062745 0.741176
0.356863 0.039216 0.745098
0.494118 0.003922 0.741176
0.627451 0.000000 0.737255
0.768627 0.000000 0.737255
0.901961 0.003922 0.737255
1.000000 0.000000 0.705882
0.996078 0.105882 0.698039
0.149020 0.156863 0.725490
0.227451 0.152941 0.745098
0.341176 0.141176 0.741176
0.482353 0.125490 0.741176
0.607843 0.098039 0.725490
0.764706 0.054902 0.741176
0.898039 0.031373 0.721569
1.000000 0.090196 0.690196
0.996078 0.176471 0.686275
0.027451 0.282353 0.745098
0.168627 0.282353 0.741176
0.321569 0.282353 0.725490
0.474510 0.274510 0.737255
0.623529 0.274510 0.737255
0.760784 0.270588 0.733333
0.901961 0.270588 0.717647
1.000000 0.298039 0.705882
1.000000 0.345098 0.690196
0.000000 0.423529 0.725490
0.152941 0.431373 0.737255
0.321569 0.427451 0.729412
0.466667 0.435294 0.729412
0.615686 0.435294 0.729412
0.768627 0.427451 0.733333
0.878431 0.431373 0.701961
0.972549 0.447059 0.694118
0.996078 0.454902 0.686275
0.074510 0.596078 0.733333
0.203922 0.596078 0.721569
0.345098 0.596078 0.733333
0.486275 0.600000 0.725490
0.631373 0.592157 0.725490
0.756863 0.596078 0.721569
0.870588 0.600000 0.709804
0.984314 0.596078 0.709804
0.996078 0.603922 0.705882
0.227451 0.749020 0.737255
0.278431 0.745098 0.729412
0.392157 0.749020 0.729412
0.509804 0.741176 0.733333
0.635294 0.737255 0.725490
0.760784 0.729412 0.717647
0.862745 0.729412 0.721569
0.960784 0.729412 0.713725
1.000000 0.729412 0.729412
0.282353 0.854902 0.709804
0.337255 0.847059 0.713725
0.415686 0.854902 0.713725
0.517647 0.847059 0.713725
0.627451 0.843137 0.717647
0.741176 0.839216 0.713725
0.850980 0.831373 0.705882
0.956863 0.827451 0.698039
0.992157 0.819608 0.705882
0.384314 0.949020 0.705882
0.435294 0.941176 0.717647
0.482353 0.945098 0.717647
0.568627 0.941176 0.713725
0.647059 0.941176 0.717647
0.749020 0.933333 0.717647
0.839216 0.937255 0.709804
0.949020 0.929412 0.709804
1.000000 0.925490 0.694118
0.470588 1.000000 0.701961
0.501961 1.000000 0.709804
0.545098 1.000000 0.705882
0.611765 1.000000 0.721569
0.674510 1.000000 0.717647
0.745098 1.000000 0.721569
0.835294 1.000000 0.717647
0.913725 1.000000 0.713725
0.992157 0.996078 0.721569
0.184314 0.062745 0.854902
0.243137 0.058824 0.858824
0.356863 0.035294 0.854902
0.470588 0.003922 0.850980
0.611765 0.003922 0.850980
0.741176 0.000000 0.850980
0.874510 0.000000 0.850980
0.996078 0.003922 0.839216
0.996078 0.094118 0.823529
0.168627 0.149020 0.847059
0.235294 0.145098 0.847059
0.337255 0.145098 0.850980
0.474510 0.125490 0.854902
0.600000 0.101961 0.850980
0.737255 0.086275 0.847059
0.874510 0.066667 0.835294
0.988235 0.082353 0.835294
1.000000 0.172549 0.819608
0.125490 0.274510 0.850980
0.215686 0.278431 0.854902
0.329412 0.266667 0.847059
0.466667 0.270588 0.847059
0.603922 0.266667 0.850980
0.745098 0.262745 0.850980
0.866667 0.270588 0.839216
0.992157 0.294118 0.843137
1.000000 0.333333 0.815686
0.113725 0.423529 0.835294
0.211765 0.423529 0.839216
0.333333 0.427451 0.843137
0.458824 0.431373 0.839216
0.603922 0.427451 0.839216
0.729412 0.427451 0.835294
0.866667 0.423529 0.831373
0.984314 0.431373 0.831373
1.000000 0.454902 0.803922
0.184314 0.572549 0.839216
0.258824 0.576471 0.835294
0.364706 0.580392 0.835294
0.494118 0.584314 0.847059
0.619608 0.584314 0.839216
0.741176 0.584314 0.831373
0.858824 0.584314 0.831373
0.972549 0.588235 0.827451
1.000000 0.603922 0.823529
0.286275 0.717647 0.847059
0.317647 0.721569 0.843137
0.407843 0.717647 0.839216
0.513725 0.721569 0.847059
0.627451 0.717647 0.839216
0.745098 0.721569 0.831373
0.862745 0.717647 0.839216
0.956863 0.721569 0.823529
0.996078 0.729412 0.811765
0.305882 0.839216 0.823529
0.349020 0.839216 0.823529
0.423529 0.839216 0.831373
0.525490 0.839216 0.835294
0.631373 0.835294 0.827451
0.749020 0.835294 0.827451
0.850980 0.835294 0.823529
0.949020 0.831373 0.831373
0.996078 0.835294 0.827451
0.400000 0.945098 0.823529
0.427451 0.941176 0.819608
0.474510 0.941176 0.815686
0.564706 0.937255 0.819608
0.654902 0.941176 0.827451
0.756863 0.937255 0.835294
0.843137 0.933333 0.823529
0.952941 0.929412 0.827451
1.000000 0.933333 0.831373
0.498039 1.000000 0.800000
0.505882 1.000000 0.811765
0.556863 1.000000 0.811765
0.615686 1.000000 0.815686
0.698039 1.000000 0.827451
0.776471 1.000000 0.823529
0.847059 1.000000 0.823529
0.925490 1.000000 0.823529
1.000000 0.996078 0.823529
0.200000 0.054902 0.949020
0.258824 0.050980 0.952941
0.349020 0.039216 0.952941
0.466667 0.003922 0.952941
0.596078 0.000000 0.952941
0.717647 0.003922 0.956863
0.839216 0.003922 0.952941
0.972549 0.000000 0.937255
1.000000 0.094118 0.941176
0.188235 0.141176 0.941176
0.235294 0.145098 0.949020
0.341176 0.137255 0.945098
0.454902 0.125490 0.941176
0.584314 0.117647 0.949020
0.713725 0.109804 0.941176
0.839216 0.105882 0.933333
0.960784 0.125490 0.933333
0.992157 0.168627 0.941176
0.184314 0.270588 0.945098
0.243137 0.274510 0.945098
0.337255 0.274510 0.937255
0.458824 0.270588 0.945098
0.592157 0.270588 0.945098
0.721569 0.278431 0.945098
0.839216 0.286275 0.941176
0.964706 0.294118 0.945098
1.000000 0.317647 0.941176
0.192157 0.411765 0.941176
0.262745 0.419608 0.945098
0.352941 0.427451 0.941176
0.466667 0.419608 0.945098
0.588235 0.427451 0.945098
0.705882 0.419608 0.933333
0.839216 0.427451 0.929412
0.956863 0.435294 0.937255
1.000000 0.439216 0.925490
0.266667 0.564706 0.949020
0.317647 0.580392 0.937255
0.403922 0.572549 0.941176
0.501961 0.576471 0.937255
0.615686 0.572549 0.933333
0.717647 0.572549 0.937255
0.839216 0.580392 0.933333
0.945098 0.580392 0.929412
1.000000 0.600000 0.925490
0.333333 0.701961 0.941176
0.364706 0.701961 0.941176
0.431373 0.705882 0.937255
0.525490 0.705882 0.937255
0.627451 0.709804 0.933333
0.733333 0.713725 0.933333
0.835294 0.717647 0.929412
0.941176 0.717647 0.933333
0.996078 0.721569 0.925490
0.356863 0.819608 0.929412
0.388235 0.819608 0.925490
0.458824 0.815686 0.929412
0.545098 0.815686 0.929412
0.643137 0.819608 0.933333
0.745098 0.823529 0.921569
0.843137 0.827451 0.925490
0.941176 0.823529 0.925490
1.000000 0.835294 0.913725
0.419608 0.929412 0.921569
0.454902 0.925490 0.921569
0.490196 0.929412 0.933333
0.576471 0.929412 0.929412
0.662745 0.929412 0.925490
0.752941 0.933333 0.925490
0.847059 0.933333 0.925490
0.933333 0.925490 0.929412
1.000000 0.933333 0.929412
0.501961 1.000000 0.905882
0.525490 1.000000 0.921569
0.572549 1.000000 0.917647
0.619608 1.000000 0.921569
0.694118 1.000000 0.913725
0.784314 1.000000 0.917647
0.862745 1.000000 0.921569
0.929412 1.000000 0.925490
1.000000 1.000000 0.929412
0.227451 0.058824 1.000000
0.262745 0.050980 1.000000
0.356863 0.047059 0.996078
0.454902 0.027451 1.000000
0.572549 0.007843 1.000000
0.690196 0.000000 1.000000
0.807843 0.003922 0.996078
0.929412 0.062745 0.996078
1.000000 0.145098 1.000000
0.207843 0.137255 1.000000
0.250980 0.133333 0.996078
0.341176 0.137255 1.000000
0.447059 0.133333 1.000000
0.564706 0.125490 1.000000
0.682353 0.125490 0.996078
0.803922 0.133333 0.996078
0.921569 0.156863 0.996078
1.000000 0.203922 1.000000
0.223529 0.266667 1.000000
0.262745 0.266667 1.000000
0.352941 0.274510 1.000000
0.450980 0.270588 1.000000
0.572549 0.274510 1.000000
0.686275 0.278431 0.996078
0.807843 0.282353 1.000000
0.925490 0.305882 0.992157
0.992157 0.337255 0.996078
0.243137 0.403922 1.000000
0.286275 0.407843 0.996078
0.368627 0.411765 1.000000
0.462745 0.411765 1.000000
0.580392 0.415686 0.996078
0.682353 0.415686 1.000000
0.807843 0.423529 1.000000
0.921569 0.439216 1.000000
1.000000 0.454902 1.000000
0.321569 0.556863 0.996078
0.368627 0.564706 1.000000
0.423529 0.572549 1.000000
0.505882 0.568627 1.000000
0.603922 0.568627 0.996078
0.701961 0.568627 1.000000
0.811765 0.568627 0.996078
0.921569 0.580392 1.000000
1.000000 0.592157 0.996078
0.392157 0.690196 0.996078
0.419608 0.690196 0.996078
0.474510 0.694118 0.996078
0.552941 0.698039 1.000000
0.639216 0.701961 1.000000
0.729412 0.701961 1.000000
0.827451 0.705882 1.000000
0.925490 0.713725 1.000000
0.996078 0.721569 1.000000
0.423529 0.792157 0.992157
0.458824 0.800000 1.000000
0.501961 0.800000 0.996078
0.568627 0.803922 1.000000
0.650980 0.807843 1.000000
0.749020 0.815686 0.996078
0.843137 0.819608 1.000000
0.933333 0.827451 1.000000
0.996078 0.827451 1.000000
0.482353 0.909804 1.000000
0.513725 0.898039 0.996078
0.549020 0.901961 0.996078
0.615686 0.909804 1.000000
0.690196 0.913725 0.992157
0.772549 0.913725 1.000000
0.854902 0.921569 1.000000
0.933333 0.929412 1.000000
1.000000 0.929412 1.000000
0.545098 1.000000 1.000000
0.568627 1.000000 1.000000
0.600000 1.000000 1.000000
0.647059 1.000000 1.000000
0.709804 1.000000 0.996078
0.788235 1.000000 1.000000
0.866667 1.000000 0.996078
0.941176 1.000000 1.000000
1.000000 1.000000 1.000000
