loleis/其他/lut20种/Sports LUT #11.cube
TITLE "Sports LUT #11"
#LUT size
LUT_3D_SIZE 25
#LUT data points
0.137255 0.137255 0.145098
0.145098 0.145098 0.137255
0.160784 0.145098 0.141176
0.172549 0.137255 0.149020
0.188235 0.141176 0.149020
0.211765 0.137255 0.145098
0.235294 0.133333 0.137255
0.262745 0.141176 0.133333
0.309804 0.137255 0.141176
0.352941 0.133333 0.137255
0.407843 0.133333 0.141176
0.458824 0.125490 0.137255
0.521569 0.129412 0.137255
0.588235 0.121569 0.129412
0.650980 0.117647 0.125490
0.701961 0.113725 0.117647
0.768627 0.101961 0.113725
0.815686 0.090196 0.109804
0.866667 0.086275 0.105882
0.913725 0.078431 0.101961
0.952941 0.062745 0.090196
0.996078 0.050980 0.086275
1.000000 0.035294 0.078431
1.000000 0.023529 0.070588
1.000000 0.007843 0.062745
0.133333 0.149020 0.152941
0.145098 0.145098 0.137255
0.152941 0.145098 0.149020
0.164706 0.149020 0.145098
0.184314 0.145098 0.141176
0.215686 0.145098 0.145098
0.239216 0.141176 0.152941
0.262745 0.145098 0.145098
0.301961 0.145098 0.145098
0.356863 0.145098 0.145098
0.400000 0.145098 0.137255
0.458824 0.141176 0.137255
0.521569 0.137255 0.133333
0.580392 0.133333 0.129412
0.639216 0.129412 0.121569
0.713725 0.133333 0.125490
0.764706 0.121569 0.117647
0.811765 0.113725 0.098039
0.858824 0.117647 0.101961
0.905882 0.109804 0.094118
0.956863 0.098039 0.090196
1.000000 0.086275 0.082353
0.996078 0.070588 0.070588
1.000000 0.066667 0.058824
1.000000 0.054902 0.070588
0.137255 0.156863 0.141176
0.145098 0.152941 0.149020
0.149020 0.156863 0.152941
0.180392 0.149020 0.141176
0.184314 0.152941 0.145098
0.200000 0.156863 0.133333
0.227451 0.152941 0.137255
0.270588 0.152941 0.145098
0.309804 0.152941 0.145098
0.349020 0.156863 0.141176
0.407843 0.156863 0.149020
0.454902 0.160784 0.137255
0.517647 0.164706 0.133333
0.580392 0.160784 0.129412
0.643137 0.156863 0.117647
0.698039 0.156863 0.113725
0.760784 0.149020 0.101961
0.815686 0.145098 0.105882
0.866667 0.133333 0.098039
0.909804 0.133333 0.098039
0.952941 0.125490 0.082353
0.996078 0.121569 0.090196
1.000000 0.113725 0.066667
1.000000 0.105882 0.062745
1.000000 0.094118 0.066667
0.137255 0.176471 0.141176
0.145098 0.164706 0.141176
0.149020 0.168627 0.152941
0.168627 0.164706 0.145098
0.184314 0.164706 0.141176
0.203922 0.168627 0.141176
0.239216 0.172549 0.145098
0.266667 0.168627 0.141176
0.301961 0.172549 0.137255
0.352941 0.180392 0.145098
0.403922 0.180392 0.137255
0.462745 0.180392 0.125490
0.517647 0.180392 0.121569
0.580392 0.180392 0.121569
0.639216 0.184314 0.125490
0.698039 0.184314 0.113725
0.756863 0.180392 0.101961
0.811765 0.172549 0.098039
0.862745 0.176471 0.101961
0.909804 0.168627 0.090196
0.945098 0.156863 0.078431
0.980392 0.152941 0.070588
0.996078 0.152941 0.070588
1.000000 0.145098 0.058824
1.000000 0.141176 0.054902
0.137255 0.184314 0.137255
0.145098 0.184314 0.141176
0.152941 0.184314 0.141176
0.172549 0.184314 0.149020
0.188235 0.176471 0.141176
0.203922 0.188235 0.141176
0.223529 0.192157 0.141176
0.266667 0.192157 0.137255
0.317647 0.192157 0.141176
0.352941 0.200000 0.141176
0.403922 0.203922 0.137255
0.462745 0.207843 0.129412
0.517647 0.211765 0.121569
0.572549 0.211765 0.113725
0.643137 0.219608 0.117647
0.701961 0.215686 0.105882
0.756863 0.215686 0.105882
0.803922 0.211765 0.098039
0.850980 0.211765 0.090196
0.894118 0.207843 0.086275
0.949020 0.203922 0.070588
0.984314 0.200000 0.066667
1.000000 0.192157 0.058824
1.000000 0.180392 0.050980
0.996078 0.176471 0.047059
0.141176 0.207843 0.145098
0.152941 0.211765 0.137255
0.160784 0.211765 0.141176
0.176471 0.211765 0.145098
0.196078 0.207843 0.133333
0.215686 0.211765 0.141176
0.243137 0.215686 0.145098
0.270588 0.219608 0.145098
0.321569 0.223529 0.137255
0.372549 0.231373 0.137255
0.419608 0.235294 0.133333
0.474510 0.243137 0.125490
0.537255 0.250980 0.121569
0.603922 0.258824 0.117647
0.666667 0.258824 0.105882
0.721569 0.258824 0.101961
0.780392 0.266667 0.094118
0.827451 0.258824 0.086275
0.874510 0.254902 0.078431
0.917647 0.247059 0.066667
0.960784 0.247059 0.058824
0.996078 0.243137 0.050980
1.000000 0.239216 0.039216
1.000000 0.231373 0.027451
1.000000 0.227451 0.019608
0.145098 0.243137 0.156863
0.145098 0.239216 0.152941
0.168627 0.239216 0.137255
0.164706 0.243137 0.137255
0.203922 0.243137 0.145098
0.219608 0.243137 0.141176
0.247059 0.243137 0.133333
0.282353 0.247059 0.133333
0.317647 0.250980 0.133333
0.372549 0.258824 0.133333
0.419608 0.270588 0.125490
0.478431 0.286275 0.125490
0.533333 0.290196 0.105882
0.600000 0.294118 0.101961
0.658824 0.298039 0.098039
0.717647 0.298039 0.078431
0.772549 0.298039 0.074510
0.827451 0.298039 0.070588
0.878431 0.298039 0.062745
0.917647 0.290196 0.047059
0.956863 0.294118 0.039216
1.000000 0.286275 0.031373
1.000000 0.282353 0.031373
1.000000 0.270588 0.023529
0.996078 0.270588 0.015686
0.129412 0.286275 0.141176
0.141176 0.282353 0.133333
0.160784 0.278431 0.137255
0.180392 0.290196 0.133333
0.200000 0.278431 0.141176
0.223529 0.282353 0.129412
0.254902 0.286275 0.125490
0.286275 0.290196 0.133333
0.329412 0.294118 0.133333
0.372549 0.298039 0.129412
0.427451 0.305882 0.121569
0.482353 0.321569 0.109804
0.549020 0.329412 0.098039
0.607843 0.333333 0.090196
0.670588 0.345098 0.086275
0.717647 0.345098 0.078431
0.768627 0.345098 0.062745
0.819608 0.341176 0.054902
0.858824 0.337255 0.043137
0.909804 0.337255 0.035294
0.949020 0.333333 0.023529
0.996078 0.329412 0.023529
0.996078 0.325490 0.011765
0.996078 0.321569 0.000000
1.000000 0.313725 0.007843
0.125490 0.321569 0.121569
0.137255 0.337255 0.117647
0.156863 0.329412 0.129412
0.176471 0.329412 0.121569
0.200000 0.337255 0.125490
0.235294 0.333333 0.117647
0.278431 0.333333 0.125490
0.309804 0.337255 0.125490
0.337255 0.341176 0.117647
0.380392 0.345098 0.121569
0.427451 0.349020 0.109804
0.490196 0.360784 0.098039
0.549020 0.364706 0.090196
0.607843 0.384314 0.074510
0.662745 0.384314 0.070588
0.717647 0.384314 0.058824
0.768627 0.384314 0.043137
0.815686 0.384314 0.035294
0.858824 0.384314 0.019608
0.901961 0.380392 0.007843
0.937255 0.372549 0.000000
0.992157 0.368627 0.007843
1.000000 0.364706 0.000000
0.996078 0.364706 0.007843
1.000000 0.352941 0.000000
0.105882 0.384314 0.109804
0.121569 0.384314 0.105882
0.137255 0.384314 0.105882
0.176471 0.384314 0.101961
0.200000 0.400000 0.105882
0.239216 0.396078 0.109804
0.282353 0.388235 0.109804
0.321569 0.388235 0.109804
0.360784 0.392157 0.098039
0.400000 0.392157 0.098039
0.443137 0.400000 0.090196
0.490196 0.403922 0.078431
0.552941 0.415686 0.062745
0.600000 0.415686 0.054902
0.662745 0.415686 0.035294
0.709804 0.423529 0.023529
0.764706 0.423529 0.011765
0.807843 0.423529 0.003922
0.854902 0.419608 0.000000
0.898039 0.415686 0.000000
0.937255 0.415686 0.003922
0.972549 0.411765 0.000000
0.992157 0.411765 0.000000
1.000000 0.407843 0.000000
0.996078 0.403922 0.000000
0.062745 0.474510 0.070588
0.094118 0.474510 0.062745
0.129412 0.474510 0.066667
0.168627 0.474510 0.074510
0.211765 0.474510 0.058824
0.250980 0.474510 0.054902
0.294118 0.474510 0.050980
0.341176 0.470588 0.050980
0.384314 0.474510 0.050980
0.431373 0.478431 0.047059
0.478431 0.478431 0.039216
0.521569 0.470588 0.023529
0.576471 0.478431 0.015686
0.635294 0.482353 0.007843
0.682353 0.478431 0.007843
0.733333 0.482353 0.000000
0.764706 0.486275 0.000000
0.827451 0.482353 0.000000
0.866667 0.474510 0.000000
0.913725 0.470588 0.000000
0.952941 0.470588 0.003922
0.992157 0.462745 0.003922
0.996078 0.462745 0.000000
1.000000 0.450980 0.000000
1.000000 0.450980 0.000000
0.011765 0.517647 0.023529
0.070588 0.521569 0.023529
0.101961 0.521569 0.003922
0.152941 0.529412 0.003922
0.200000 0.525490 0.000000
0.247059 0.537255 0.000000
0.290196 0.533333 0.000000
0.345098 0.533333 0.000000
0.388235 0.529412 0.003922
0.439216 0.525490 0.000000
0.490196 0.529412 0.000000
0.533333 0.521569 0.000000
0.580392 0.525490 0.000000
0.627451 0.525490 0.000000
0.678431 0.529412 0.000000
0.725490 0.529412 0.000000
0.776471 0.525490 0.000000
0.823529 0.525490 0.000000
0.874510 0.517647 0.000000
0.909804 0.513725 0.003922
0.949020 0.513725 0.000000
0.992157 0.509804 0.003922
1.000000 0.498039 0.000000
0.996078 0.494118 0.003922
1.000000 0.498039 0.007843
0.000000 0.576471 0.000000
0.003922 0.580392 0.000000
0.078431 0.580392 0.000000
0.121569 0.584314 0.000000
0.192157 0.576471 0.000000
0.235294 0.588235 0.003922
0.294118 0.576471 0.003922
0.337255 0.580392 0.003922
0.384314 0.580392 0.000000
0.435294 0.576471 0.000000
0.482353 0.576471 0.000000
0.525490 0.572549 0.000000
0.576471 0.576471 0.003922
0.631373 0.572549 0.003922
0.674510 0.572549 0.003922
0.721569 0.572549 0.003922
0.768627 0.572549 0.000000
0.811765 0.568627 0.000000
0.858824 0.564706 0.003922
0.901961 0.560784 0.003922
0.949020 0.552941 0.000000
0.988235 0.545098 0.000000
1.000000 0.545098 0.007843
1.000000 0.541176 0.000000
0.984314 0.541176 0.000000
0.000000 0.627451 0.000000
0.000000 0.619608 0.000000
0.031373 0.627451 0.000000
0.101961 0.639216 0.000000
0.172549 0.627451 0.000000
0.223529 0.631373 0.007843
0.278431 0.631373 0.011765
0.329412 0.627451 0.000000
0.380392 0.623529 0.000000
0.435294 0.619608 0.000000
0.482353 0.623529 0.003922
0.525490 0.619608 0.000000
0.576471 0.619608 0.003922
0.619608 0.619608 0.000000
0.670588 0.619608 0.000000
0.717647 0.615686 0.000000
0.764706 0.611765 0.000000
0.815686 0.607843 0.003922
0.854902 0.607843 0.007843
0.894118 0.600000 0.000000
0.937255 0.592157 0.003922
0.960784 0.596078 0.000000
1.000000 0.592157 0.000000
1.000000 0.576471 0.000000
0.996078 0.580392 0.007843
0.000000 0.662745 0.000000
0.000000 0.674510 0.007843
0.000000 0.670588 0.000000
0.078431 0.674510 0.000000
0.156863 0.674510 0.000000
0.219608 0.674510 0.003922
0.282353 0.670588 0.007843
0.321569 0.674510 0.000000
0.368627 0.674510 0.000000
0.423529 0.674510 0.000000
0.478431 0.670588 0.003922
0.525490 0.674510 0.000000
0.564706 0.666667 0.003922
0.615686 0.666667 0.007843
0.666667 0.662745 0.000000
0.709804 0.662745 0.000000
0.764706 0.658824 0.003922
0.803922 0.650980 0.000000
0.847059 0.643137 0.000000
0.890196 0.643137 0.000000
0.941176 0.639216 0.000000
0.976471 0.631373 0.000000
1.000000 0.627451 0.003922
1.000000 0.623529 0.000000
1.000000 0.611765 0.000000
0.000000 0.741176 0.000000
0.003922 0.745098 0.000000
0.003922 0.745098 0.000000
0.043137 0.745098 0.007843
0.133333 0.749020 0.000000
0.207843 0.745098 0.000000
0.266667 0.741176 0.000000
0.329412 0.741176 0.000000
0.384314 0.737255 0.007843
0.427451 0.737255 0.000000
0.482353 0.733333 0.007843
0.529412 0.725490 0.000000
0.584314 0.725490 0.000000
0.631373 0.725490 0.003922
0.678431 0.725490 0.003922
0.721569 0.721569 0.000000
0.776471 0.713725 0.003922
0.827451 0.713725 0.007843
0.862745 0.709804 0.007843
0.898039 0.705882 0.000000
0.933333 0.694118 0.000000
0.976471 0.686275 0.000000
0.996078 0.682353 0.003922
1.000000 0.670588 0.000000
1.000000 0.670588 0.000000
0.000000 0.764706 0.011765
0.000000 0.772549 0.000000
0.003922 0.772549 0.003922
0.003922 0.780392 0.000000
0.121569 0.772549 0.003922
0.184314 0.772549 0.003922
0.250980 0.780392 0.000000
0.317647 0.772549 0.000000
0.364706 0.772549 0.000000
0.419608 0.772549 0.003922
0.466667 0.772549 0.000000
0.525490 0.772549 0.015686
0.564706 0.760784 0.000000
0.619608 0.764706 0.003922
0.662745 0.764706 0.000000
0.717647 0.752941 0.003922
0.760784 0.760784 0.007843
0.800000 0.760784 0.003922
0.850980 0.752941 0.003922
0.894118 0.745098 0.003922
0.929412 0.745098 0.000000
0.980392 0.729412 0.000000
0.996078 0.721569 0.000000
1.000000 0.713725 0.000000
1.000000 0.705882 0.000000
0.000000 0.803922 0.007843
0.000000 0.811765 0.011765
0.011765 0.807843 0.007843
0.003922 0.811765 0.000000
0.101961 0.815686 0.000000
0.160784 0.811765 0.000000
0.239216 0.811765 0.000000
0.290196 0.815686 0.000000
0.349020 0.811765 0.000000
0.407843 0.807843 0.000000
0.462745 0.807843 0.000000
0.513725 0.807843 0.003922
0.556863 0.803922 0.000000
0.600000 0.800000 0.003922
0.662745 0.800000 0.000000
0.701961 0.800000 0.000000
0.749020 0.796078 0.000000
0.788235 0.792157 0.000000
0.835294 0.788235 0.003922
0.878431 0.788235 0.003922
0.925490 0.776471 0.000000
0.968627 0.776471 0.000000
1.000000 0.764706 0.003922
1.000000 0.756863 0.000000
1.000000 0.749020 0.003922
0.000000 0.839216 0.000000
0.007843 0.850980 0.000000
0.000000 0.839216 0.007843
0.000000 0.843137 0.000000
0.062745 0.850980 0.000000
0.160784 0.839216 0.000000
0.219608 0.843137 0.000000
0.282353 0.847059 0.000000
0.341176 0.850980 0.000000
0.400000 0.843137 0.000000
0.447059 0.843137 0.003922
0.498039 0.835294 0.000000
0.545098 0.839216 0.000000
0.600000 0.835294 0.003922
0.643137 0.835294 0.000000
0.690196 0.831373 0.000000
0.737255 0.835294 0.000000
0.776471 0.827451 0.000000
0.823529 0.823529 0.000000
0.870588 0.823529 0.000000
0.913725 0.819608 0.000000
0.952941 0.807843 0.011765
0.996078 0.796078 0.000000
1.000000 0.800000 0.003922
1.000000 0.788235 0.015686
0.000000 0.878431 0.000000
0.011765 0.882353 0.007843
0.003922 0.886275 0.007843
0.000000 0.878431 0.000000
0.050980 0.886275 0.000000
0.137255 0.886275 0.000000
0.219608 0.882353 0.000000
0.274510 0.882353 0.000000
0.329412 0.882353 0.000000
0.388235 0.878431 0.000000
0.447059 0.866667 0.003922
0.490196 0.874510 0.000000
0.537255 0.870588 0.000000
0.588235 0.870588 0.003922
0.631373 0.866667 0.000000
0.678431 0.862745 0.000000
0.721569 0.862745 0.000000
0.764706 0.858824 0.000000
0.815686 0.862745 0.000000
0.858824 0.858824 0.003922
0.901961 0.862745 0.003922
0.949020 0.850980 0.000000
0.984314 0.847059 0.000000
0.996078 0.843137 0.000000
1.000000 0.831373 0.003922
0.000000 0.929412 0.003922
0.003922 0.933333 0.000000
0.000000 0.929412 0.000000
0.007843 0.925490 0.000000
0.094118 0.929412 0.000000
0.168627 0.929412 0.000000
0.219608 0.929412 0.000000
0.286275 0.929412 0.000000
0.341176 0.917647 0.000000
0.392157 0.917647 0.000000
0.443137 0.921569 0.000000
0.490196 0.917647 0.003922
0.537255 0.913725 0.000000
0.584314 0.913725 0.000000
0.635294 0.905882 0.000000
0.678431 0.905882 0.000000
0.721569 0.905882 0.003922
0.768627 0.898039 0.000000
0.811765 0.905882 0.000000
0.854902 0.901961 0.000000
0.901961 0.898039 0.000000
0.956863 0.890196 0.000000
0.980392 0.890196 0.000000
0.992157 0.886275 0.000000
1.000000 0.878431 0.003922
0.000000 0.949020 0.000000
0.000000 0.956863 0.000000
0.000000 0.952941 0.007843
0.000000 0.956863 0.000000
0.090196 0.949020 0.000000
0.172549 0.945098 0.011765
0.227451 0.949020 0.000000
0.278431 0.952941 0.000000
0.325490 0.949020 0.000000
0.380392 0.949020 0.000000
0.439216 0.952941 0.007843
0.474510 0.941176 0.000000
0.525490 0.945098 0.003922
0.568627 0.941176 0.000000
0.611765 0.945098 0.000000
0.666667 0.937255 0.000000
0.709804 0.941176 0.000000
0.745098 0.937255 0.000000
0.803922 0.933333 0.000000
0.843137 0.933333 0.000000
0.886275 0.929412 0.000000
0.937255 0.925490 0.000000
0.964706 0.925490 0.000000
0.996078 0.929412 0.000000
1.000000 0.921569 0.003922
0.000000 0.976471 0.000000
0.000000 0.984314 0.000000
0.000000 0.980392 0.000000
0.000000 0.984314 0.000000
0.090196 0.976471 0.000000
0.172549 0.980392 0.015686
0.223529 0.980392 0.003922
0.270588 0.976471 0.000000
0.325490 0.976471 0.003922
0.372549 0.972549 0.000000
0.423529 0.972549 0.003922
0.466667 0.972549 0.000000
0.517647 0.972549 0.000000
0.560784 0.972549 0.000000
0.600000 0.968627 0.003922
0.650980 0.972549 0.000000
0.698039 0.968627 0.000000
0.741176 0.960784 0.000000
0.780392 0.960784 0.000000
0.823529 0.964706 0.000000
0.866667 0.960784 0.000000
0.901961 0.956863 0.000000
0.952941 0.949020 0.003922
1.000000 0.952941 0.007843
0.992157 0.952941 0.000000
0.000000 1.000000 0.000000
0.000000 1.000000 0.000000
0.000000 1.000000 0.003922
0.003922 1.000000 0.003922
0.105882 0.996078 0.000000
0.176471 0.996078 0.007843
0.223529 0.996078 0.003922
0.270588 0.996078 0.000000
0.329412 1.000000 0.003922
0.372549 1.000000 0.003922
0.411765 1.000000 0.000000
0.462745 1.000000 0.000000
0.505882 1.000000 0.000000
0.552941 0.996078 0.003922
0.600000 0.996078 0.007843
0.643137 0.992157 0.003922
0.682353 0.992157 0.003922
0.725490 0.988235 0.003922
0.768627 0.992157 0.003922
0.811765 0.988235 0.003922
0.847059 0.984314 0.000000
0.898039 0.984314 0.007843
0.937255 0.988235 0.000000
0.984314 0.980392 0.000000
1.000000 0.972549 0.000000
0.003922 1.000000 0.000000
0.000000 0.996078 0.000000
0.003922 1.000000 0.003922
0.078431 1.000000 0.015686
0.133333 0.996078 0.023529
0.192157 1.000000 0.023529
0.243137 1.000000 0.023529
0.282353 1.000000 0.015686
0.329412 1.000000 0.011765
0.372549 1.000000 0.015686
0.411765 0.996078 0.007843
0.450980 1.000000 0.000000
0.501961 1.000000 0.000000
0.545098 1.000000 0.000000
0.592157 0.996078 0.000000
0.635294 1.000000 0.000000
0.674510 1.000000 0.000000
0.713725 1.000000 0.000000
0.760784 1.000000 0.007843
0.803922 0.996078 0.019608
0.831373 1.000000 0.058824
0.886275 0.996078 0.074510
0.937255 1.000000 0.094118
0.968627 1.000000 0.113725
0.992157 1.000000 0.125490
0.141176 0.141176 0.149020
0.152941 0.137255 0.141176
0.156863 0.137255 0.152941
0.160784 0.137255 0.152941
0.184314 0.137255 0.145098
0.203922 0.141176 0.152941
0.239216 0.133333 0.160784
0.274510 0.129412 0.156863
0.309804 0.133333 0.160784
0.352941 0.129412 0.152941
0.407843 0.129412 0.152941
0.458824 0.125490 0.152941
0.513725 0.117647 0.133333
0.580392 0.113725 0.137255
0.639216 0.101961 0.129412
0.701961 0.101961 0.121569
0.768627 0.086275 0.125490
0.815686 0.070588 0.117647
0.862745 0.062745 0.109804
0.909804 0.054902 0.117647
0.949020 0.039216 0.101961
0.988235 0.019608 0.094118
1.000000 0.007843 0.086275
1.000000 0.000000 0.086275
1.000000 0.000000 0.070588
0.141176 0.145098 0.152941
0.141176 0.141176 0.141176
0.164706 0.145098 0.160784
0.168627 0.145098 0.145098
0.180392 0.145098 0.156863
0.196078 0.149020 0.149020
0.239216 0.141176 0.152941
0.262745 0.145098 0.145098
0.305882 0.141176 0.149020
0.356863 0.141176 0.152941
0.400000 0.141176 0.149020
0.454902 0.141176 0.152941
0.517647 0.129412 0.141176
0.588235 0.129412 0.152941
0.647059 0.121569 0.149020
0.705882 0.117647 0.125490
0.760784 0.113725 0.129412
0.807843 0.105882 0.117647
0.862745 0.090196 0.117647
0.913725 0.086275 0.113725
0.952941 0.074510 0.105882
0.992157 0.062745 0.101961
1.000000 0.054902 0.090196
1.000000 0.043137 0.074510
1.000000 0.027451 0.074510
0.137255 0.152941 0.149020
0.141176 0.149020 0.137255
0.152941 0.160784 0.149020
0.160784 0.160784 0.152941
0.184314 0.152941 0.141176
0.211765 0.156863 0.152941
0.231373 0.160784 0.152941
0.266667 0.156863 0.145098
0.305882 0.156863 0.145098
0.352941 0.156863 0.152941
0.403922 0.152941 0.152941
0.458824 0.152941 0.145098
0.521569 0.152941 0.145098
0.580392 0.156863 0.149020
0.647059 0.149020 0.125490
0.698039 0.141176 0.125490
0.756863 0.141176 0.121569
0.811765 0.133333 0.117647
0.866667 0.125490 0.117647
0.909804 0.117647 0.109804
0.949020 0.113725 0.098039
0.988235 0.105882 0.098039
0.996078 0.098039 0.074510
1.000000 0.090196 0.074510
1.000000 0.086275 0.070588
0.129412 0.164706 0.152941
0.145098 0.160784 0.164706
0.160784 0.172549 0.145098
0.164706 0.160784 0.141176
0.188235 0.168627 0.152941
0.211765 0.168627 0.160784
0.243137 0.168627 0.152941
0.266667 0.168627 0.149020
0.301961 0.172549 0.145098
0.345098 0.176471 0.149020
0.400000 0.176471 0.141176
0.458824 0.172549 0.137255
0.517647 0.176471 0.137255
0.584314 0.176471 0.125490
0.639216 0.176471 0.129412
0.694118 0.176471 0.125490
0.752941 0.172549 0.117647
0.800000 0.164706 0.113725
0.854902 0.164706 0.105882
0.905882 0.160784 0.098039
0.945098 0.156863 0.094118
0.988235 0.141176 0.082353
1.000000 0.141176 0.086275
1.000000 0.137255 0.082353
0.992157 0.129412 0.074510
0.133333 0.180392 0.141176
0.141176 0.188235 0.141176
0.160784 0.180392 0.152941
0.172549 0.184314 0.149020
0.184314 0.184314 0.152941
0.211765 0.184314 0.145098
0.239216 0.188235 0.152941
0.266667 0.196078 0.156863
0.305882 0.196078 0.149020
0.349020 0.200000 0.149020
0.403922 0.200000 0.145098
0.454902 0.207843 0.137255
0.529412 0.203922 0.133333
0.580392 0.207843 0.137255
0.643137 0.207843 0.129412
0.701961 0.211765 0.125490
0.752941 0.207843 0.117647
0.800000 0.203922 0.109804
0.854902 0.203922 0.101961
0.901961 0.200000 0.109804
0.945098 0.196078 0.086275
0.988235 0.188235 0.090196
1.000000 0.180392 0.074510
0.996078 0.172549 0.066667
1.000000 0.172549 0.058824
0.137255 0.207843 0.160784
0.141176 0.207843 0.145098
0.156863 0.211765 0.152941
0.168627 0.211765 0.149020
0.192157 0.207843 0.149020
0.215686 0.207843 0.149020
0.243137 0.215686 0.152941
0.278431 0.215686 0.152941
0.321569 0.223529 0.137255
0.364706 0.231373 0.133333
0.419608 0.231373 0.141176
0.470588 0.235294 0.133333
0.533333 0.243137 0.129412
0.600000 0.250980 0.125490
0.670588 0.250980 0.125490
0.725490 0.254902 0.117647
0.768627 0.250980 0.098039
0.819608 0.247059 0.094118
0.862745 0.247059 0.086275
0.917647 0.243137 0.086275
0.956863 0.239216 0.082353
1.000000 0.231373 0.074510
1.000000 0.231373 0.066667
1.000000 0.223529 0.062745
0.996078 0.223529 0.058824
0.125490 0.243137 0.149020
0.145098 0.247059 0.141176
0.156863 0.235294 0.137255
0.168627 0.239216 0.152941
0.188235 0.250980 0.145098
0.211765 0.247059 0.141176
0.258824 0.239216 0.152941
0.274510 0.250980 0.149020
0.321569 0.254902 0.152941
0.368627 0.254902 0.137255
0.423529 0.266667 0.129412
0.478431 0.274510 0.121569
0.537255 0.286275 0.113725
0.603922 0.286275 0.101961
0.666667 0.294118 0.105882
0.717647 0.294118 0.101961
0.776471 0.298039 0.105882
0.823529 0.290196 0.086275
0.866667 0.290196 0.086275
0.909804 0.286275 0.070588
0.952941 0.282353 0.070588
0.988235 0.278431 0.054902
0.996078 0.278431 0.050980
1.000000 0.270588 0.039216
0.996078 0.274510 0.039216
0.129412 0.274510 0.145098
0.149020 0.282353 0.152941
0.152941 0.266667 0.145098
0.168627 0.286275 0.145098
0.196078 0.278431 0.156863
0.223529 0.286275 0.145098
0.254902 0.286275 0.141176
0.286275 0.286275 0.137255
0.325490 0.290196 0.137255
0.372549 0.298039 0.133333
0.427451 0.305882 0.125490
0.482353 0.321569 0.117647
0.541176 0.325490 0.101961
0.603922 0.333333 0.101961
0.654902 0.337255 0.090196
0.709804 0.341176 0.090196
0.768627 0.341176 0.086275
0.811765 0.333333 0.070588
0.858824 0.329412 0.062745
0.905882 0.329412 0.054902
0.949020 0.329412 0.043137
0.984314 0.325490 0.039216
1.000000 0.321569 0.043137
1.000000 0.313725 0.027451
1.000000 0.313725 0.019608
0.117647 0.321569 0.133333
0.133333 0.329412 0.137255
0.145098 0.325490 0.133333
0.164706 0.329412 0.133333
0.200000 0.337255 0.125490
0.223529 0.337255 0.125490
0.262745 0.333333 0.129412
0.301961 0.337255 0.129412
0.341176 0.333333 0.133333
0.380392 0.337255 0.125490
0.431373 0.345098 0.117647
0.494118 0.356863 0.105882
0.552941 0.364706 0.105882
0.607843 0.372549 0.086275
0.658824 0.376471 0.086275
0.709804 0.372549 0.070588
0.768627 0.376471 0.070588
0.807843 0.372549 0.054902
0.850980 0.372549 0.039216
0.901961 0.368627 0.031373
0.949020 0.368627 0.031373
0.984314 0.364706 0.023529
0.992157 0.360784 0.007843
1.000000 0.356863 0.007843
0.992157 0.360784 0.007843
0.101961 0.376471 0.129412
0.121569 0.380392 0.129412
0.137255 0.380392 0.125490
0.168627 0.384314 0.117647
0.200000 0.384314 0.109804
0.231373 0.388235 0.113725
0.270588 0.388235 0.113725
0.309804 0.388235 0.117647
0.356863 0.384314 0.109804
0.392157 0.392157 0.109804
0.439216 0.392157 0.101961
0.490196 0.400000 0.094118
0.545098 0.411765 0.070588
0.600000 0.415686 0.070588
0.654902 0.415686 0.066667
0.705882 0.419608 0.050980
0.760784 0.419608 0.039216
0.803922 0.419608 0.023529
0.854902 0.419608 0.000000
0.901961 0.419608 0.003922
0.945098 0.415686 0.000000
0.984314 0.415686 0.000000
1.000000 0.411765 0.000000
1.000000 0.407843 0.003922
1.000000 0.396078 0.003922
0.047059 0.462745 0.078431
0.070588 0.470588 0.078431
0.113725 0.466667 0.082353
0.160784 0.462745 0.086275
0.203922 0.466667 0.086275
0.247059 0.466667 0.086275
0.290196 0.462745 0.078431
0.329412 0.474510 0.070588
0.372549 0.466667 0.082353
0.419608 0.466667 0.074510
0.470588 0.462745 0.066667
